; generated by PrusaSlicer 2.9.6-beta1 on 2026-06-18 at 01:51:36 UTC

; 

; external perimeters extrusion width = 0.45mm
; perimeters extrusion width = 0.45mm
; infill extrusion width = 0.45mm
; solid infill extrusion width = 0.45mm
; top infill extrusion width = 0.40mm
; first layer extrusion width = 0.70mm

M104 S200 ; set temperature
;TYPE:Custom
G28 ; home all axes
G1 Z5 F5000 ; lift nozzle
M109 S200 ; set temperature and wait for it to be reached
G21 ; set units to millimeters
G90 ; use absolute coordinates
M82 ; use absolute distances for extrusion
G92 E0
; Filament gcode
M107
;LAYER_CHANGE
;Z:0.1
;HEIGHT:0.1
G1 E-2 F2400
G92 E0
G1 Z.1 F7800
G92 E0
G1 X130.001 Y119.999
G1 E2 F2400
;TYPE:Perimeter
;WIDTH:0.285842
G1 F1800
G1 X130.001 Y48.997 Z0 E2.78043
G1 E.78043 F2400
G92 E0
G1 X129.779 Y120.22 F7800
G1 E2 F2400
;WIDTH:0.199999
G1 F1800
G1 X129.779 Y48.776 Z0 E2.53031
G1 X130.222 Y48.776 Z.059 E2.5336
G1 X130.222 Y120.22 Z.059 E3.06391
G1 X129.839 Y120.22 Z0 E3.06675
G1 X129.601 Y120.399 F7800
;TYPE:External perimeter
G1 F1800
G1 X129.601 Y48.597 Z0 E3.59972
G1 X130.401 Y48.597 Z.107 E3.60566
G1 X130.401 Y120.399 Z.107 E4.13863
G1 X129.661 Y120.399 Z0 E4.14412
G1 X129.601 Y120.003 F7800
M106 S255
;LAYER_CHANGE
;Z:0.25
;HEIGHT:0.15
G1 E2.14412 F2400
G92 E0
G1 Z.25 F7800
G1 X112.557 Y100.504
G1 E2 F2400
;TYPE:Overhang perimeter
;WIDTH:0.4
;HEIGHT:0.4
G1 F900
G1 X112.551 Y100.512 Z0 E2.00052
G1 X112.548 Y99.479 Z0 E2.05449
G1 X112.781 Y99.735 Z.045 E2.07257
G1 X112.878 Y99.918 Z.071 E2.08339
G1 X112.874 Y100.106 Z.07 E2.09321
G1 X112.595 Y100.457 Z0 E2.11664
G1 X112.164 Y101.479 F7800
G1 F900
G1 X112.163 Y101.48 Z0 E2.11671
G1 X112.163 Y98.522 Z0 E2.27125
G1 X112.45 Y98.798 Z0 E2.29205
G1 X113.105 Y99.518 Z.132 E2.3429
G1 X113.258 Y99.853 Z.173 E2.36214
G1 X113.288 Y100.031 Z.181 E2.37157
G1 X113.241 Y100.247 Z.168 E2.38312
G1 X113.072 Y100.518 Z.123 E2.39981
G1 X112.205 Y101.435 Z0 E2.46574
G1 X112.157 Y101.038 F7800
;LAYER_CHANGE
;Z:0.26
;HEIGHT:0.00999999
G1 Z.26 F7800
G1 X111.882 Y101.088
;TYPE:Perimeter
;WIDTH:0.449999
;HEIGHT:0.05
G1 F600
G1 X111.882 Y98.911 Z.114 E2.48562
G1 X112.543 Y99.566 Z.292 E2.49412
G1 X112.927 Y100.001 Z.394 E2.49942
G1 X112.265 Y100.722 Z.217 E2.50836
G1 X111.925 Y101.047 Z.126 E2.51265
G1 X111.459 Y102.048 F7800
G1 Z.001
;TYPE:Overhang perimeter
;WIDTH:0.4
;HEIGHT:0.4
G1 F900
G1 X111.443 Y102.061 Z0 E2.51373
G1 X111.443 Y97.942 Z0 E2.72893
G1 X111.738 Y98.188 Z.076 E2.749
;TYPE:Perimeter
;WIDTH:0.449999
;HEIGHT:0.05
G1 F600
G1 X112.285 Y98.684 Z.222 E2.75574
G1 X113.067 Y99.49 Z.432 E2.76599
G1 X113.358 Y99.868 Z.51 E2.77035
G1 X113.416 Y100.037 Z.526 E2.77198
G1 X113.328 Y100.207 Z.502 E2.77373
G1 X112.975 Y100.613 Z.407 E2.77864
G1 X112.565 Y101.043 Z.297 E2.78407
G1 X112.036 Y101.549 Z.156 E2.79075
G1 X111.738 Y101.806 Z.076 E2.79434
;TYPE:Overhang perimeter
;WIDTH:0.4
;HEIGHT:0.4
G1 F900
G1 X111.504 Y102.008 Z.013 E2.81049
G1 X111.738 Y102.387 F7800
G1 Z.076
G1 F900
G1 X111.004 Y102.957 Z0 E2.85904
G1 X111.004 Y97.047 Z0 E3.16781
G1 X111.738 Y97.615 Z.076 E3.2163
;TYPE:External perimeter
;WIDTH:0.449999
;HEIGHT:0.05
G1 F600
G1 X112.579 Y98.357 Z.301 E3.22654
G1 X113.302 Y99.094 Z.495 E3.23597
;TYPE:Overhang perimeter
;WIDTH:0.4
;HEIGHT:0.4
G1 F900
G1 X113.557 Y99.376 Z.563 E3.25583
G1 X113.835 Y99.816 Z.638 E3.28302
G1 X113.836 Y100.187 Z.638 E3.3024
G1 X113.663 Y100.491 Z.592 E3.32067
G1 X113.418 Y100.772 Z.526 E3.34015
;TYPE:External perimeter
;WIDTH:0.449999
;HEIGHT:0.05
G1 F600
G1 X112.868 Y101.36 Z.379 E3.3475
G1 X112.325 Y101.88 Z.233 E3.35437
G1 X111.783 Y102.347 Z.088 E3.3609
G1 X111.469 Y102.595 F7800
G1 E1.3609 F2400
G92 E0
G1 Z.004 F7800
G1 X112.16 Y99.581
G1 Z.189
G1 E2 F2400
;TYPE:Solid infill
;WIDTH:0.34538
G1 F600
G1 X112.559 Y100.002 Z.296 E2.00404
G1 X112.163 Y100.42 Z.19 E2.00805
G1 X112.161 Y99.801 Z.189 E2.01236
M106 S252.45
;LAYER_CHANGE
;Z:0.27
;HEIGHT:0.01
G1 E.01236 F2400
G92 E0
G1 Z.27 F7800
G1 X111.488 Y101.94
G1 E2 F2400
;TYPE:Perimeter
;WIDTH:0.449999
;HEIGHT:0.05
G1 F650
G1 X111.417 Y101.79 Z.3 E2.00152
G1 X111.138 Y101.424 Z.226 E2.00572
G1 X110.723 Y101.173 Z.115 E2.01015
G1 X110.723 Y100.859 Z.115 E2.01302
G1 X111.235 Y100.118 Z.252 E2.02124
G1 X111.415 Y99.745 Z.3 E2.02502
G1 X111.536 Y99.266 Z.332 E2.02953
G1 X111.548 Y98.907 Z.336 E2.03281
G1 X111.456 Y98.427 Z.311 E2.03727
G1 X111.339 Y98.163 Z.28 E2.03991
;WIDTH:0.475658
G1 X111.244 Y97.998 Z.254 E2.04175
;WIDTH:0.501316
G1 X111.149 Y97.832 Z.229 E2.0437
G1 X111.314 Y97.945 Z.273 E2.04574
;WIDTH:0.475658
G1 X111.479 Y98.058 Z.317 E2.04767
;WIDTH:0.449999
G1 X112.115 Y98.59 Z.488 E2.05524
G1 X112.849 Y99.287 Z.684 E2.06448
G1 X113.501 Y100 Z.859 E2.0733
G1 X112.864 Y100.696 Z.688 E2.08192
G1 X112.116 Y101.409 Z.488 E2.09136
G1 X111.533 Y101.902 Z.332 E2.09833
G1 E.09833 F2400
G92 E0
G1 X110.754 Y97.547 F7800
G1 Z.123
G1 E2 F2400
;WIDTH:0.512376
G1 F650
G1 X111.149 Y97.832 Z.229 E2.00508
G1 E.00508 F2400
G92 E0
G1 X111.185 Y102.718 F7800
G1 Z.238
G1 E2 F2400
;WIDTH:0.449999
G1 F650
G1 X111.196 Y102.546 Z.241 E2.00157
G1 X111.095 Y102.137 Z.214 E2.00542
G1 X110.852 Y101.758 Z.149 E2.00953
G1 X110.735 Y101.678 Z.118 E2.01082
G1 X110.579 Y101.612 Z.076 E2.01237
;TYPE:Overhang perimeter
;WIDTH:0.4
;HEIGHT:0.4
M106 S255
G1 F900
G1 X110.284 Y101.488 Z0 E2.02909
G1 X110.284 Y100.722 Z0 E2.06911
G1 X110.579 Y100.295 Z.076 E2.09622
M106 S252.45
;TYPE:Perimeter
;WIDTH:0.449999
;HEIGHT:0.05
G1 F650
G1 X110.873 Y99.868 Z.155 E2.10095
G1 X111.06 Y99.448 Z.205 E2.10515
G1 X111.109 Y98.892 Z.218 E2.11025
G1 X111.054 Y98.604 Z.203 E2.11293
G1 X110.889 Y98.25 Z.159 E2.1165
G1 X110.658 Y98.032 Z.097 E2.1194
G1 X110.579 Y97.999 Z.076 E2.12018
;TYPE:Overhang perimeter
;WIDTH:0.4
;HEIGHT:0.4
M106 S255
G1 F900
G1 X110.284 Y97.873 Z0 E2.13694
G1 X110.284 Y96.666 Z0 E2.2
G1 X110.579 Y96.86 Z.076 E2.21845
M106 S252.45
;TYPE:Perimeter
;WIDTH:0.449999
;HEIGHT:0.05
G1 F650
G1 X110.932 Y97.093 Z.171 E2.22231
G1 X111.609 Y97.594 Z.352 E2.23
G1 X112.408 Y98.262 Z.566 E2.23951
G1 X113.163 Y98.979 Z.768 E2.24902
G1 X113.865 Y99.748 Z.956 E2.25853
G1 X113.984 Y100.022 Z.988 E2.26126
G1 X113.893 Y100.222 Z.964 E2.26327
G1 X113.178 Y101.004 Z.772 E2.27295
G1 X112.41 Y101.736 Z.567 E2.28264
G1 X111.754 Y102.291 Z.391 E2.29049
G1 X111.233 Y102.682 Z.251 E2.29644
G1 X110.591 Y103.078 F7800
G1 Z.079
;TYPE:External perimeter
;WIDTH:0.457428
G1 F650
G1 X110.63 Y103.036 Z.09 E2.29697
G1 X110.741 Y102.778 Z.119 E2.29958
;WIDTH:0.449999
G1 X110.738 Y102.409 Z.119 E2.30295
G1 X110.579 Y102.114 Z.076 E2.30601
;TYPE:Overhang perimeter
;WIDTH:0.4
;HEIGHT:0.4
M106 S255
G1 F900
G1 X110.566 Y102.091 Z.072 E2.30739
G1 X110.307 Y101.946 Z.003 E2.3229
G1 X109.844 Y101.881 Z0 E2.34733
G1 X109.844 Y100.585 Z0 E2.41504
G1 X110.512 Y99.618 Z.058 E2.47644
G1 X110.579 Y99.462 Z.076 E2.48531
M106 S252.45
;TYPE:External perimeter
;WIDTH:0.449999
;HEIGHT:0.05
G1 F650
G1 X110.635 Y99.33 Z.091 E2.48662
G1 X110.67 Y98.877 Z.1 E2.49077
G1 X110.579 Y98.641 Z.076 E2.49308
;TYPE:Overhang perimeter
;WIDTH:0.4
;HEIGHT:0.4
M106 S255
G1 F900
G1 X110.519 Y98.488 Z.06 E2.50167
G1 X110.253 Y98.308 Z0 E2.51845
G1 X109.844 Y98.268 Z0 E2.53992
G1 X109.844 Y95.887 Z0 E2.66432
G1 X110.579 Y96.335 Z.076 E2.70929
M106 S252.45
;TYPE:External perimeter
;WIDTH:0.449999
;HEIGHT:0.05
G1 F650
G1 X111.184 Y96.733 Z.238 E2.7159
G1 X111.881 Y97.249 Z.425 E2.72382
G1 X112.7 Y97.934 Z.644 E2.73357
G1 X113.477 Y98.671 Z.852 E2.74335
G1 X114.03 Y99.277 Z1.001 E2.75084
;TYPE:Overhang perimeter
;WIDTH:0.4
;HEIGHT:0.4
M106 S255
G1 F900
G1 X114.189 Y99.451 Z1.043 E2.76315
G1 X114.318 Y99.636 Z1.078 E2.77493
G1 X114.432 Y100.032 Z1.108 E2.79646
G1 X114.385 Y100.248 Z1.096 E2.80801
G1 X114.19 Y100.549 Z1.043 E2.82675
G1 X114.044 Y100.704 Z1.004 E2.83787
M106 S252.45
;TYPE:External perimeter
;WIDTH:0.449999
;HEIGHT:0.05
G1 F650
G1 X113.321 Y101.474 Z.811 E2.84751
G1 X112.662 Y102.098 Z.634 E2.8558
G1 X111.933 Y102.705 Z.439 E2.86446
G1 X111.202 Y103.254 Z.243 E2.87281
;WIDTH:0.469367
G1 X110.579 Y103.643 Z.076 E2.87981
;TYPE:Overhang perimeter
;WIDTH:0.4
;HEIGHT:0.4
M106 S255
G1 F900
G1 X109.886 Y104.039 Z0 E2.92151
G1 X109.886 Y103.336 Z0 E2.95824
G1 X110.134 Y103.323 Z0 E2.97121
G1 X110.537 Y103.136 Z.065 E2.99442
G1 X110.55 Y103.122 Z.068 E2.99542
M106 S252.45
G1 X110.72 Y102.76 F7800
G1 Z.114
G1 X111.185 Y101.3
G1 Z.238
;TYPE:Bridge infill
;WIDTH:0.49
M106 S255
G1 F3600
G1 X112.238 Y99.773 Z.52 E3.14084
G1 X112.459 Y100.075 Z.58 E3.17018
G1 X112.559 Y100.258 Z.606 E3.18653
G1 X111.561 Y101.705 Z.339 E3.32434
M106 S252.45
G1 E1.32434 F2400
G92 E0
G1 X111.935 Y98.959 F7800
G1 Z.439
G1 E2 F2400
;TYPE:Solid infill
;WIDTH:0.574682
;HEIGHT:0.05
G1 F650
G1 X112.135 Y99.12 Z.493 E2.00301
;WIDTH:0.531933
G1 X112.335 Y99.281 Z.546 E2.00579
;WIDTH:0.489183
G1 X112.536 Y99.442 Z.6 E2.00835
;WIDTH:0.483635
G1 X112.722 Y99.667 Z.65 E2.01122
;WIDTH:0.520836
G1 X112.908 Y99.893 Z.7 E2.01432
;WIDTH:0.560118
G1 X112.98 Y100 Z.719 E2.01579
M106 S249.9
;LAYER_CHANGE
;Z:0.28
;HEIGHT:0.00999999
G1 E.01579 F2400
G92 E0
G1 Z.28 F7800
G1 X110.684 Y102.883
G1 E2 F2400
;TYPE:Perimeter
;WIDTH:0.449999
;HEIGHT:0.05
G1 F900
G1 X110.684 Y102.079 Z.415 E2.00734
G1 X110.621 Y101.713 Z.398 E2.01073
G1 X110.481 Y101.444 Z.36 E2.0135
G1 X110.356 Y101.384 Z.327 E2.01477
G1 X110.56 Y101.079 Z.381 E2.01812
G1 X110.684 Y100.573 Z.415 E2.02288
G1 X110.684 Y98.479 Z.415 E2.042
;WIDTH:0.464449
G1 X110.51 Y97.873 Z.368 E2.04795
;WIDTH:0.506799
G1 X110.467 Y97.79 Z.357 E2.04891
;WIDTH:0.54915
G1 X110.425 Y97.707 Z.345 E2.04995
;WIDTH:0.5915
G1 X110.382 Y97.624 Z.334 E2.05108
;WIDTH:0.61987
G1 X109.878 Y97.333 Z.199 E2.05845
G1 X109.649 Y97.304 Z.137 E2.06137
G1 X109.649 Y96.519 Z.137 E2.07131
G1 X110.53 Y97.026 Z.373 E2.08418
;WIDTH:0.580526
G1 X110.718 Y97.126 Z.424 E2.0867
;WIDTH:0.541834
G1 X110.907 Y97.226 Z.474 E2.08906
;WIDTH:0.503141
G1 X111.095 Y97.325 Z.525 E2.09123
;WIDTH:0.464449
G1 X112.084 Y98.066 Z.79 E2.10289
;WIDTH:0.449999
G1 X112.593 Y98.499 Z.926 E2.10899
G1 X113.148 Y99.016 Z1.075 E2.11592
G1 X113.59 Y99.464 Z1.193 E2.12167
G1 X114.067 Y100.008 Z1.321 E2.12828
G1 X113.283 Y100.852 Z1.111 E2.1388
G1 X112.826 Y101.29 Z.989 E2.14458
G1 X111.903 Y102.081 Z.741 E2.15568
G1 X110.684 Y102.954 Z.415 E2.16937
G1 X110.684 Y102.943 Z.415 E2.16947
G1 X110.244 Y102.883 F7800
G1 Z.297
G1 F900
G1 X110.244 Y102.821 Z.297 E2.17004
;TYPE:Overhang perimeter
;WIDTH:0.4
;HEIGHT:0.4
M106 S255
G1 X110.244 Y102.379 Z.297 E2.19313
M106 S249.9
;TYPE:Perimeter
;WIDTH:0.449999
;HEIGHT:0.05
G1 X110.244 Y102.079 Z.297 E2.19587
G1 X110.207 Y101.859 Z.287 E2.19791
G1 X110.123 Y101.698 Z.264 E2.19957
G1 X109.729 Y101.51 Z.159 E2.20356
G1 X110.17 Y100.876 Z.277 E2.21061
G1 X110.244 Y100.573 Z.297 E2.21346
G1 X110.244 Y99.154 Z.297 E2.22642
;TYPE:Overhang perimeter
;WIDTH:0.4
;HEIGHT:0.4
M106 S255
G1 X110.244 Y98.888 Z.297 E2.24032
M106 S249.9
;TYPE:Perimeter
;WIDTH:0.449999
;HEIGHT:0.05
G1 X110.244 Y98.479 Z.297 E2.24405
G1 X110.136 Y98.118 Z.268 E2.24749
G1 X110.035 Y97.997 Z.241 E2.24893
G1 X109.748 Y97.841 Z.164 E2.25191
G1 X109.419 Y97.83 Z.076 E2.25492
;TYPE:Overhang perimeter
;WIDTH:0.4
;HEIGHT:0.4
M106 S255
G1 X109.125 Y97.82 Z0 E2.27029
G1 X109.125 Y95.644 Z0 E2.38397
G1 X109.419 Y95.793 Z.076 E2.40119
M106 S249.9
;TYPE:Perimeter
;WIDTH:0.449999
;HEIGHT:0.05
G1 X110.368 Y96.319 Z.33 E2.4111
G1 X111.364 Y96.969 Z.597 E2.42196
G1 X112.369 Y97.731 Z.866 E2.43348
G1 X112.892 Y98.177 Z1.006 E2.43976
G1 X113.599 Y98.847 Z1.196 E2.44865
G1 X114.141 Y99.417 Z1.341 E2.45583
G1 X114.509 Y99.881 Z1.44 E2.46124
G1 X114.553 Y100.035 Z1.451 E2.4627
G1 X114.458 Y100.212 Z1.426 E2.46453
G1 X114.14 Y100.591 Z1.341 E2.46905
G1 X113.594 Y101.162 Z1.194 E2.47626
G1 X113.121 Y101.616 Z1.068 E2.48225
G1 X112.176 Y102.425 Z.814 E2.49361
G1 X111.238 Y103.119 Z.563 E2.50426
G1 X110.426 Y103.659 Z.346 E2.51316
;WIDTH:0.400818
G1 X110.044 Y103.921 Z.243 E2.51692
;WIDTH:0.378086
G1 X109.86 Y104.007 Z.194 E2.51847
;WIDTH:0.404536
G1 X109.676 Y104.094 Z.145 E2.52014
;WIDTH:0.409392
G1 X109.419 Y104.212 Z.076 E2.52248
;TYPE:Overhang perimeter
;WIDTH:0.4
;HEIGHT:0.4
M106 S255
G1 X109.131 Y104.345 Z0 E2.53905
G1 X109.131 Y103.751 Z0 E2.57008
G1 X109.419 Y103.74 Z.076 E2.58514
M106 S249.9
;TYPE:Perimeter
;WIDTH:0.357545
;HEIGHT:0.05
G1 X109.784 Y103.668 Z.173 E2.58782
;WIDTH:0.388597
G1 X109.927 Y103.59 Z.212 E2.5891
;WIDTH:0.419649
G1 X110.07 Y103.512 Z.25 E2.59048
;WIDTH:0.449999
G1 X110.244 Y103.088 Z.297 E2.59467
G1 X110.244 Y102.943 Z.297 E2.59599
G1 X109.805 Y102.883 F7800
G1 Z.179
;TYPE:Overhang perimeter
;WIDTH:0.4
;HEIGHT:0.4
M106 S255
G1 F900
G1 X109.796 Y102.288 Z.177 E2.62708
M106 S249.9
;TYPE:External perimeter
;WIDTH:0.449999
;HEIGHT:0.05
G1 X109.789 Y101.995 Z.175 E2.62976
G1 X109.571 Y101.859 Z.116 E2.63211
G1 X109.419 Y101.869 Z.076 E2.6335
;TYPE:Overhang perimeter
;WIDTH:0.4
;HEIGHT:0.4
M106 S255
G1 X108.934 Y101.901 Z0 E2.65889
G1 X109 Y101.779 Z0 E2.66614
G1 X109.419 Y101.187 Z.076 E2.70403
M106 S249.9
;TYPE:External perimeter
;WIDTH:0.449999
;HEIGHT:0.05
G1 X109.765 Y100.7 Z.168 E2.70949
G1 X109.805 Y100.573 Z.179 E2.71071
G1 X109.805 Y99.907 Z.179 E2.71679
;TYPE:Overhang perimeter
;WIDTH:0.4
;HEIGHT:0.4
M106 S255
G1 X109.805 Y98.681 Z.179 E2.78084
M106 S249.9
;TYPE:External perimeter
;WIDTH:0.449999
;HEIGHT:0.05
G1 X109.805 Y98.479 Z.179 E2.78268
G1 X109.735 Y98.319 Z.16 E2.78427
G1 X109.586 Y98.26 Z.12 E2.78573
G1 X109.419 Y98.259 Z.076 E2.78725
;TYPE:Overhang perimeter
;WIDTH:0.4
;HEIGHT:0.4
M106 S255
G1 X108.685 Y98.258 Z0 E2.8256
G1 X108.685 Y94.956 Z0 E2.99811
G1 X109.419 Y95.296 Z.076 E3.04037
M106 S249.9
;TYPE:External perimeter
;WIDTH:0.449999
;HEIGHT:0.05
G1 X110.595 Y95.942 Z.391 E3.05262
G1 X111.592 Y96.591 Z.658 E3.06348
G1 X112.616 Y97.365 Z.932 E3.0752
G1 X113.158 Y97.825 Z1.078 E3.08169
G1 X113.738 Y98.363 Z1.233 E3.08891
G1 X114.557 Y99.22 Z1.452 E3.09973
;TYPE:Overhang perimeter
;WIDTH:0.4
;HEIGHT:0.4
M106 S255
G1 X114.666 Y99.341 Z1.482 E3.10824
G1 X114.95 Y99.753 Z1.558 E3.13438
G1 X114.986 Y100.113 Z1.567 E3.15328
G1 X114.798 Y100.507 Z1.517 E3.17609
G1 X114.494 Y100.853 Z1.436 E3.20015
M106 S249.9
;TYPE:External perimeter
;WIDTH:0.449999
;HEIGHT:0.05
G1 X113.905 Y101.473 Z1.278 E3.20796
G1 X113.417 Y101.941 Z1.147 E3.21413
G1 X112.45 Y102.769 Z.888 E3.22575
G1 X111.471 Y103.494 Z.626 E3.23687
G1 X110.491 Y104.12 Z.363 E3.24749
G1 X109.419 Y104.702 Z.076 E3.25863
;TYPE:Overhang perimeter
;WIDTH:0.4
;HEIGHT:0.4
M106 S255
G1 X108.685 Y105.043 Z0 E3.30091
G1 X108.685 Y103.303 Z0 E3.39182
G1 X109.419 Y103.307 Z.076 E3.43017
M106 S249.9
;TYPE:External perimeter
;WIDTH:0.449999
;HEIGHT:0.05
G1 X109.584 Y103.308 Z.12 E3.43168
G1 X109.751 Y103.233 Z.165 E3.43335
G1 X109.805 Y103.088 Z.179 E3.43476
G1 X109.805 Y102.943 Z.179 E3.43608
G1 X109.8 Y102.543 F7800
G1 E1.43608 F2400
G92 E0
G1 Z.178 F7800
G1 X111.013 Y99.553
G1 Z.503
G1 E2 F2400
;TYPE:Solid infill
G1 F1200
G1 X111.013 Y100.562 Z.503 E2.00921
G1 X110.916 Y101.077 Z.477 E2.014
G1 X110.79 Y101.327 Z.443 E2.01656
G1 X110.939 Y101.638 Z.483 E2.01971
G1 X111.013 Y102.088 Z.503 E2.02387
G1 X111.013 Y102.329 Z.503 E2.02607
G1 X111.697 Y101.823 Z.686 E2.03384
G1 X112.605 Y101.046 Z.929 E2.04475
G1 X113.049 Y100.62 Z1.048 E2.05037
G1 X113.63 Y100.001 Z1.204 E2.05812
G1 X112.897 Y99.23 Z1.008 E2.06783
G1 X112.369 Y98.741 Z.866 E2.0744
G1 X111.874 Y98.32 Z.734 E2.08033
G1 X110.94 Y97.63 Z.483 E2.09093
G1 X110.751 Y97.565 Z.433 E2.09276
G1 X111.005 Y98.435 Z.501 E2.10104
G1 X111.013 Y99.333 Z.503 E2.10924
G1 X111.452 Y100.562 F7800
G1 Z.62
G1 F1200
G1 X111.452 Y98.553 Z.62 E2.12758
G1 X112.07 Y99.063 Z.786 E2.1349
G1 X112.588 Y99.543 Z.925 E2.14135
G1 X113.026 Y100.003 Z1.042 E2.14715
G1 X112.567 Y100.474 Z.919 E2.15316
G1 X111.978 Y101.004 Z.761 E2.1604
G1 X111.362 Y101.525 Z.596 E2.16777
G1 X111.308 Y101.373 Z.582 E2.16924
G1 X111.414 Y100.778 Z.61 E2.17476
G1 X111.891 Y99.715 F7800
G1 Z.738
;WIDTH:0.44966
G1 F1200
G1 X111.891 Y100.501 Z.738 E2.18193
G1 X112.421 Y100.005 Z.88 E2.18855
G1 X111.891 Y99.496 Z.738 E2.19525
G1 E.19525 F2400
G92 E0
G1 X108.739 Y99.64 F7800
