; generated by PrusaSlicer 2.9.6-beta1 on 2026-06-18 at 00:36:46 UTC

; 

; external perimeters extrusion width = 0.45mm
; perimeters extrusion width = 0.45mm
; infill extrusion width = 0.45mm
; solid infill extrusion width = 0.45mm
; top infill extrusion width = 0.40mm
; first layer extrusion width = 0.70mm

M104 S200 ; set temperature
;TYPE:Custom
G28 ; home all axes
G1 Z5 F5000 ; lift nozzle
M109 S200 ; set temperature and wait for it to be reached
G21 ; set units to millimeters
G90 ; use absolute coordinates
M82 ; use absolute distances for extrusion
G92 E0
; Filament gcode
M107
;LAYER_CHANGE
;Z:0.1
;HEIGHT:0.1
G1 E-2 F2400
G92 E0
G1 Z.1 F7800
G1 X104.875 Y85.871
G1 E2 F2400
;TYPE:Skirt/Brim
;WIDTH:0.7
G1 F1701
G1 X106.616 Y84.465 Z0 E2.06313
G1 X109.65 Y83.688 Z0 E2.15148
G1 X110 Y83.688 Z0 E2.16135
G1 X112.203 Y84.084 Z1.272 E2.22449
G1 X114.129 Y85.225 Z2.384 E2.28764
G1 X115.535 Y86.966 Z3.196 E2.35077
G1 X116.312 Y90 Z3.644 E2.43912
G1 X116.312 Y110 Z3.644 E3.00333
G1 X115.916 Y112.203 Z3.416 E3.06647
G1 X114.775 Y114.129 Z2.757 E3.12962
G1 X113.034 Y115.535 Z1.752 E3.19275
G1 X110 Y116.312 Z0 E3.2811
G1 X109.65 Y116.312 Z0 E3.29097
G1 X107.447 Y115.916 Z0 E3.35411
G1 X105.521 Y114.775 Z0 E3.41726
G1 X104.115 Y113.034 Z0 E3.48039
G1 X103.338 Y110 Z0 E3.56874
G1 X103.338 Y90 Z0 E4.13295
G1 X103.734 Y87.797 Z0 E4.19609
G1 X104.844 Y85.923 Z0 E4.25753
G1 E2.25753 F2400
G92 E0
G1 Z.1 F7800
G92 E0
G1 X109.825 Y109.825
G1 E2 F2400
;TYPE:External perimeter
;WIDTH:0.35
G1 F1701
G1 X109.825 Y90.175 Z0 E2.2684
G1 X109.825 Y90.575 F7800
;LAYER_CHANGE
;Z:0.11
;HEIGHT:0.01
G1 E.2684 F2400
G92 E0
G1 Z.11 F7800
G1 X109.76 Y109.76
G1 E2 F2400
;WIDTH:0.480365
;HEIGHT:0.05
G1 F600
G1 X109.45 Y109.76 Z.029 E2.00303
;TYPE:Overhang perimeter
;WIDTH:0.4
;HEIGHT:0.4
G1 F900
G1 X109.29 Y109.76 Z0 E2.01139
G1 X109.29 Y90.24 Z0 E3.03121
G1 X109.45 Y90.24 Z.029 E3.03957
;TYPE:External perimeter
;WIDTH:0.480365
;HEIGHT:0.05
G1 F600
G1 X109.76 Y90.24 Z.208 E3.0426
G1 X109.76 Y109.7 Z.208 E3.23258
G1 X109.364 Y109.759 F7800
;LAYER_CHANGE
;Z:0.12
;HEIGHT:0.01
G1 Z.12 F7800
G1 X109.225 Y109.225
;TYPE:Perimeter
;WIDTH:0.671462
;HEIGHT:0.05
G1 F600
G1 X109.225 Y90.775 Z.245 E3.48599
G1 E1.48599 F2400
G92 E0
G1 Z.12 F7800
G1 X109.775 Y109.775
G1 E2 F2400
;TYPE:External perimeter
;WIDTH:0.449999
G1 F600
G1 X108.85 Y109.775 Z.029 E2.00845
;TYPE:Overhang perimeter
;WIDTH:0.4
;HEIGHT:0.4
G1 F3600
G1 X108.675 Y109.775 Z0 E2.01759
G1 X108.675 Y90.225 Z0 E3.03898
G1 X108.85 Y90.225 Z.029 E3.04812
;TYPE:External perimeter
;WIDTH:0.449999
;HEIGHT:0.05
G1 F600
G1 X109.775 Y90.225 Z.563 E3.05657
G1 X109.775 Y109.715 Z.563 E3.23454
G1 X109.379 Y109.774 F7800
M106 S252.45
;LAYER_CHANGE
;Z:0.13
;HEIGHT:0.01
G1 Z.13 F7800
G1 X108.925 Y108.925
;TYPE:Perimeter
;WIDTH:0.392924
;HEIGHT:0.05
G1 F900
G1 X108.925 Y91.075 Z.419 E3.37636
G1 E1.37636 F2400
G92 E0
G1 Z.13 F7800
G1 X109.336 Y109.336
G1 E2 F2400
;WIDTH:0.449999
G1 F900
G1 X108.514 Y109.336 Z.181 E2.00751
G1 X108.514 Y90.664 Z.181 E2.17801
G1 X109.336 Y90.664 Z.656 E2.18552
G1 X109.336 Y109.276 Z.656 E2.35547
G1 Z.13 F7800
G1 X109.775 Y109.775
;TYPE:External perimeter
G1 F1800
G1 X108.25 Y109.775 Z.029 E2.3694
;TYPE:Overhang perimeter
;WIDTH:0.4
;HEIGHT:0.4
M106 S255
G1 F3600
G1 X108.075 Y109.775 Z0 E2.37854
G1 X108.075 Y90.225 Z0 E3.39993
G1 X108.25 Y90.225 Z.029 E3.40907
M106 S252.45
;TYPE:External perimeter
;WIDTH:0.449999
;HEIGHT:0.05
G1 F1800
G1 X109.775 Y90.225 Z.909 E3.423
G1 X109.775 Y109.715 Z.909 E3.60097
G1 X109.379 Y109.774 F7800
M106 S249.9
;LAYER_CHANGE
;Z:0.14
;HEIGHT:0.01
G1 Z.14 F7800
G1 X108.871 Y108.871
;TYPE:Perimeter
;WIDTH:0.501827
;HEIGHT:0.05
G1 F900
G1 X108.379 Y108.871 Z.45 E3.60599
G1 X108.379 Y91.129 Z.45 E3.78711
G1 X108.871 Y91.129 Z.734 E3.79213
G1 X108.871 Y108.811 Z.734 E3.97264
G1 Z.14 F7800
G1 X109.336 Y109.336
;WIDTH:0.449999
G1 F900
G1 X107.914 Y109.336 Z.181 E3.98562
G1 X107.914 Y90.664 Z.181 E4.15612
G1 X109.336 Y90.664 Z1.002 E4.1691
G1 X109.336 Y109.276 Z1.002 E4.33905
G1 Z.14 F7800
G1 X109.775 Y109.775
;TYPE:External perimeter
G1 F1800
G1 X107.65 Y109.775 Z.029 E4.35845
;TYPE:Overhang perimeter
;WIDTH:0.4
;HEIGHT:0.4
M106 S255
G1 F3600
G1 X107.475 Y109.775 Z0 E4.36759
G1 X107.475 Y90.225 Z0 E5.38898
G1 X107.65 Y90.225 Z.029 E5.39812
M106 S249.9
;TYPE:External perimeter
;WIDTH:0.449999
;HEIGHT:0.05
G1 F1800
G1 X109.775 Y90.225 Z1.256 E5.41752
G1 X109.775 Y109.715 Z1.256 E5.59549
G1 X109.379 Y109.774 F7800
;LAYER_CHANGE
;Z:0.15
;HEIGHT:0.01
G1 Z.15 F7800
G1 X108.896 Y108.896
;TYPE:Perimeter
;HEIGHT:0.05
G1 F900
G1 X107.754 Y108.896 Z.435 E5.60592
G1 X107.754 Y91.104 Z.435 E5.76838
G1 X108.896 Y91.104 Z1.095 E5.77881
G1 X108.896 Y108.836 Z1.095 E5.94073
G1 Z.15 F7800
G1 X109.336 Y109.336
G1 F3600
G1 X107.314 Y109.336 Z.181 E5.95919
G1 X107.314 Y90.664 Z.181 E6.12969
G1 X109.336 Y90.664 Z1.349 E6.14815
G1 X109.336 Y109.276 Z1.349 E6.3181
G1 Z.15 F7800
G1 X109.775 Y109.775
;TYPE:External perimeter
G1 F1800
G1 X107.05 Y109.775 Z.029 E6.34298
;TYPE:Overhang perimeter
;WIDTH:0.4
;HEIGHT:0.4
M106 S255
G1 F3600
G1 X106.875 Y109.775 Z0 E6.35212
G1 X106.875 Y90.225 Z0 E7.37351
G1 X107.05 Y90.225 Z.029 E7.38265
M106 S249.9
;TYPE:External perimeter
;WIDTH:0.449999
;HEIGHT:0.05
G1 F1800
G1 X109.775 Y90.225 Z1.602 E7.40753
G1 X109.775 Y109.715 Z1.602 E7.5855
G1 X109.379 Y109.774 F7800
G1 E5.5855 F2400
G92 E0
G1 Z.15 F7800
G1 X108.094 Y91.444
G1 E2 F2400
;TYPE:Solid infill
;WIDTH:0.472375
G1 F1200
G1 X108.556 Y91.444 Z.898 E2.00443
G1 X108.556 Y108.556 Z.898 E2.16865
G1 X108.094 Y108.556 Z.632 E2.17308
G1 X108.094 Y91.664 Z.632 E2.33518
M106 S244.8
;LAYER_CHANGE
;Z:0.16
;HEIGHT:0.00999999
G1 E.33518 F2400
G92 E0
G1 Z.16 F7800
G1 X108.896 Y108.896
G1 E2 F2400
;TYPE:Perimeter
;WIDTH:0.449999
;HEIGHT:0.05
G1 F900
G1 X107.154 Y108.896 Z.435 E2.01591
G1 X107.154 Y91.104 Z.435 E2.17837
G1 X108.896 Y91.104 Z1.441 E2.19428
G1 X108.896 Y108.836 Z1.441 E2.3562
G1 Z.16 F7800
G1 X109.336 Y109.336
G1 F3600
G1 X106.714 Y109.336 Z.181 E2.38014
G1 X106.714 Y90.664 Z.181 E2.55064
G1 X109.336 Y90.664 Z1.695 E2.57458
G1 X109.336 Y109.276 Z1.695 E2.74453
G1 Z.16 F7800
G1 X109.775 Y109.775
;TYPE:External perimeter
G1 F1800
G1 X106.45 Y109.775 Z.029 E2.77489
;TYPE:Overhang perimeter
;WIDTH:0.4
;HEIGHT:0.4
M106 S255
G1 F3600
G1 X106.275 Y109.775 Z0 E2.78403
G1 X106.275 Y90.225 Z0 E3.80542
G1 X106.45 Y90.225 Z.029 E3.81456
M106 S244.8
;TYPE:External perimeter
;WIDTH:0.449999
;HEIGHT:0.05
G1 F1800
G1 X109.775 Y90.225 Z1.949 E3.84492
G1 X109.775 Y109.715 Z1.949 E4.02289
G1 X109.379 Y109.774 F7800
G1 E2.02289 F2400
G92 E0
G1 Z.16 F7800
G1 X107.483 Y108.567
G1 E2 F2400
;TYPE:Solid infill
G1 F1200
G1 X107.483 Y91.433 Z.625 E2.15646
G1 X108.567 Y91.433 Z1.251 E2.16636
G1 X108.567 Y108.567 Z1.251 E2.32282
G1 X107.703 Y108.567 Z.752 E2.33071
G1 X108.025 Y108.025 Z.938 E2.33647
;WIDTH:0.655482
G1 X108.025 Y91.975 Z.938 E2.55159
M106 S239.7
;LAYER_CHANGE
;Z:0.17
;HEIGHT:0.01
G1 E.55159 F2400
G92 E0
G1 Z.17 F7800
G1 X108.896 Y108.896
G1 E2 F2400
;TYPE:Perimeter
;WIDTH:0.449999
;HEIGHT:0.05
G1 F900
G1 X106.554 Y108.896 Z.435 E2.02139
G1 X106.554 Y91.104 Z.435 E2.18385
G1 X108.896 Y91.104 Z1.787 E2.20524
G1 X108.896 Y108.836 Z1.787 E2.36716
G1 Z.17 F7800
G1 X109.336 Y109.336
G1 F3600
G1 X106.114 Y109.336 Z.181 E2.39658
G1 X106.114 Y90.664 Z.181 E2.56708
G1 X109.336 Y90.664 Z2.042 E2.5965
G1 X109.336 Y109.276 Z2.042 E2.76645
G1 Z.17 F7800
G1 X109.775 Y109.775
;TYPE:External perimeter
G1 F1800
G1 X105.85 Y109.775 Z.029 E2.80229
;TYPE:Overhang perimeter
;WIDTH:0.4
;HEIGHT:0.4
M106 S255
G1 F3600
G1 X105.675 Y109.775 Z0 E2.81143
G1 X105.675 Y90.225 Z0 E3.83282
G1 X105.85 Y90.225 Z.029 E3.84196
M106 S239.7
;TYPE:External perimeter
;WIDTH:0.449999
;HEIGHT:0.05
G1 F1800
G1 X109.775 Y90.225 Z2.295 E3.8778
G1 X109.775 Y109.715 Z2.295 E4.05577
G1 X109.379 Y109.774 F7800
G1 E2.05577 F2400
G92 E0
G1 Z.17 F7800
G1 X106.883 Y91.433
G1 E2 F2400
;TYPE:Solid infill
G1 F1200
G1 X108.567 Y91.433 Z1.598 E2.01538
G1 X108.567 Y108.567 Z1.598 E2.17184
G1 X106.883 Y108.567 Z.625 E2.18722
G1 X106.883 Y91.653 Z.625 E2.34167
G1 X107.322 Y91.872 Z.879 E2.34615
G1 X108.128 Y91.872 Z1.344 E2.35351
G1 X108.128 Y108.128 Z1.344 E2.50195
G1 X107.322 Y108.128 Z.879 E2.50931
G1 X107.322 Y92.092 Z.879 E2.65574
G1 X107.725 Y92.275 Z1.111 E2.65978
;WIDTH:0.376944
G1 X107.725 Y107.725 Z1.111 E2.7774
M106 S244.8
;LAYER_CHANGE
;Z:0.18
;HEIGHT:0.01
G1 Z.18 F7800
G1 X108.896 Y108.896
;TYPE:Perimeter
;WIDTH:0.449999
;HEIGHT:0.05
G1 F3600
G1 X105.954 Y108.896 Z.435 E2.80426
G1 X105.954 Y91.104 Z.435 E2.96672
G1 X108.896 Y91.104 Z2.134 E2.99358
G1 X108.896 Y108.836 Z2.134 E3.1555
G1 Z.18 F7800
G1 X109.336 Y109.336
G1 F3600
G1 X105.514 Y109.336 Z.181 E3.1904
G1 X105.514 Y90.664 Z.181 E3.3609
G1 X109.336 Y90.664 Z2.388 E3.3958
G1 X109.336 Y109.276 Z2.388 E3.56575
G1 Z.18 F7800
G1 X109.775 Y109.775
;TYPE:External perimeter
G1 F1800
G1 X105.25 Y109.775 Z.029 E3.60707
;TYPE:Overhang perimeter
;WIDTH:0.4
;HEIGHT:0.4
M106 S255
G1 F3600
G1 X105.075 Y109.775 Z0 E3.61621
G1 X105.075 Y90.225 Z0 E4.6376
G1 X105.25 Y90.225 Z.029 E4.64674
M106 S244.8
;TYPE:External perimeter
;WIDTH:0.449999
;HEIGHT:0.05
G1 F1800
G1 X109.775 Y90.225 Z2.641 E4.68806
G1 X109.775 Y109.715 Z2.641 E4.86603
G1 X109.379 Y109.774 F7800
G1 E2.86603 F2400
G92 E0
G1 Z.18 F7800
G1 X106.283 Y108.567
G1 E2 F2400
;TYPE:Solid infill
G1 F1200
G1 X106.283 Y91.433 Z.625 E2.15646
G1 X108.567 Y91.433 Z1.944 E2.17732
G1 X108.567 Y108.567 Z1.944 E2.33378
G1 X106.503 Y108.567 Z.752 E2.35263
G1 X106.722 Y108.128 Z.879 E2.35711
G1 X106.722 Y91.872 Z.879 E2.50555
G1 X108.128 Y91.872 Z1.69 E2.51839
G1 X108.128 Y108.128 Z1.69 E2.66683
G1 X106.942 Y108.128 Z1.006 E2.67766
G1 X107.183 Y107.667 Z1.145 E2.68241
;WIDTH:0.493837
G1 X107.183 Y92.333 Z1.145 E2.8364
G1 X107.667 Y92.333 Z1.424 E2.84126
G1 X107.667 Y107.667 Z1.424 E2.99525
G1 X107.403 Y107.667 Z1.272 E2.9979
M106 S237.15
;LAYER_CHANGE
;Z:0.19
;HEIGHT:0.00999999
G1 Z.19 F7800
G1 X108.896 Y108.896
;TYPE:Perimeter
;WIDTH:0.449999
;HEIGHT:0.05
G1 F3600
G1 X105.354 Y108.896 Z.435 E3.03024
G1 X105.354 Y91.104 Z.435 E3.1927
G1 X108.896 Y91.104 Z2.48 E3.22504
G1 X108.896 Y108.836 Z2.48 E3.38696
G1 Z.19 F7800
G1 X109.336 Y109.336
G1 F3600
G1 X104.914 Y109.336 Z.181 E3.42734
G1 X104.914 Y90.664 Z.181 E3.59784
G1 X109.336 Y90.664 Z2.734 E3.63822
G1 X109.336 Y109.276 Z2.734 E3.80817
G1 Z.19 F7800
G1 X109.775 Y109.775
;TYPE:External perimeter
G1 F1800
G1 X104.65 Y109.775 Z.029 E3.85497
;TYPE:Overhang perimeter
;WIDTH:0.4
;HEIGHT:0.4
M106 S255
G1 F3600
G1 X104.475 Y109.775 Z0 E3.86411
G1 X104.475 Y90.225 Z0 E4.8855
G1 X104.65 Y90.225 Z.029 E4.89464
M106 S237.15
;TYPE:External perimeter
;WIDTH:0.449999
;HEIGHT:0.05
G1 F1800
G1 X109.775 Y90.225 Z2.988 E4.94144
G1 X109.775 Y109.715 Z2.988 E5.11941
G1 X109.379 Y109.774 F7800
G1 E3.11941 F2400
G92 E0
G1 Z.19 F7800
G1 X105.802 Y91.469
G1 E2 F2400
;TYPE:Solid infill
;WIDTH:0.556576
G1 F1200
G1 X105.754 Y91.42 Z.666 E2.00078
G1 X105.688 Y91.438 Z.628 E2.00156
G1 X105.67 Y91.504 Z.618 E2.00234
G1 X105.719 Y91.552 Z.646 E2.00312
G1 X105.785 Y91.535 Z.684 E2.00389
;WIDTH:0.449999
G1 X106.486 Y91.433 Z1.089 E2.01036
G1 X105.683 Y92.236 Z.625 E2.02073
G1 X105.683 Y92.857 Z.625 E2.0264
G1 X107.107 Y91.433 Z1.447 E2.04479
G1 X107.729 Y91.433 Z1.807 E2.05047
G1 X105.683 Y93.479 Z.625 E2.07689
G1 X105.683 Y94.1 Z.625 E2.08256
G1 X108.35 Y91.433 Z2.165 E2.117
G1 X108.567 Y91.837 Z2.29 E2.12119
G1 X105.683 Y94.721 Z.625 E2.15843
G1 X105.683 Y95.342 Z.625 E2.1641
G1 X108.567 Y92.458 Z2.29 E2.20134
G1 X108.567 Y93.079 Z2.29 E2.20701
G1 X105.683 Y95.963 Z.625 E2.24425
G1 X105.683 Y96.585 Z.625 E2.24993
G1 X108.567 Y93.701 Z2.29 E2.28717
G1 X108.567 Y94.322 Z2.29 E2.29284
G1 X105.683 Y97.206 Z.625 E2.33008
G1 X105.683 Y97.827 Z.625 E2.33575
G1 X108.567 Y94.943 Z2.29 E2.37299
G1 X108.567 Y95.564 Z2.29 E2.37866
G1 X105.683 Y98.448 Z.625 E2.4159
G1 X105.683 Y99.07 Z.625 E2.42158
G1 X108.567 Y96.186 Z2.29 E2.45882
G1 X108.567 Y96.807 Z2.29 E2.46449
G1 X105.683 Y99.691 Z.625 E2.50173
G1 X105.683 Y100.312 Z.625 E2.5074
G1 X108.567 Y97.428 Z2.29 E2.54464
G1 X108.567 Y98.049 Z2.29 E2.55031
G1 X105.683 Y100.933 Z.625 E2.58755
G1 X105.683 Y101.554 Z.625 E2.59322
G1 X108.567 Y98.67 Z2.29 E2.63046
G1 X108.567 Y99.292 Z2.29 E2.63614
G1 X105.683 Y102.176 Z.625 E2.67338
G1 X105.683 Y102.797 Z.625 E2.67905
G1 X108.567 Y99.913 Z2.29 E2.71629
G1 X108.567 Y100.534 Z2.29 E2.72196
G1 X105.683 Y103.418 Z.625 E2.7592
G1 X105.683 Y104.039 Z.625 E2.76487
G1 X108.567 Y101.155 Z2.29 E2.80211
G1 X108.567 Y101.777 Z2.29 E2.80779
G1 X105.683 Y104.661 Z.625 E2.84503
G1 X105.683 Y105.282 Z.625 E2.8507
G1 X108.567 Y102.398 Z2.29 E2.88794
G1 X108.567 Y103.019 Z2.29 E2.89361
G1 X105.683 Y105.903 Z.625 E2.93085
G1 X105.683 Y106.524 Z.625 E2.93652
G1 X108.567 Y103.64 Z2.29 E2.97376
G1 X108.567 Y104.261 Z2.29 E2.97943
G1 X105.683 Y107.145 Z.625 E3.01667
G1 X105.683 Y107.767 Z.625 E3.02235
G1 X108.567 Y104.883 Z2.29 E3.05959
G1 X108.567 Y105.504 Z2.29 E3.06526
G1 X105.683 Y108.388 Z.625 E3.1025
G1 X105.648 Y108.528 Z.605 E3.10382
;WIDTH:0.400365
G1 X105.613 Y108.667 Z.585 E3.10498
;WIDTH:0.35073
G1 X105.542 Y108.648 Z.544 E3.1055
G1 X105.561 Y108.719 Z.555 E3.10602
G1 X105.602 Y108.708 Z.579 E3.10632
;WIDTH:0.449999
G1 X106.125 Y108.567 Z.88 E3.11127
G1 X108.567 Y106.125 Z2.29 E3.14281
G1 X108.796 Y106.567 Z2.423 E3.14736
;WIDTH:0.35073
G1 X108.724 Y106.548 Z2.381 E3.14789
G1 X108.743 Y106.619 Z2.392 E3.14841
G1 X108.785 Y106.608 Z2.416 E3.14872
;WIDTH:0.400365
G1 X108.676 Y106.677 Z2.353 E3.14976
;WIDTH:0.449999
G1 X108.567 Y106.746 Z2.29 E3.15094
G1 X106.746 Y108.567 Z1.239 E3.17446
G1 Z.19 F7800
G1 X108.346 Y107.682
;WIDTH:0.581682
G1 F1200
G1 X107.526 Y108.501 Z1.689 E3.18822
G1 X108.501 Y108.501 Z2.252 E3.19979
G1 X108.501 Y107.526 Z2.252 E3.21136
M106 S232.05
;LAYER_CHANGE
;Z:0.2
;HEIGHT:0.01
G1 Z.2 F7800
G1 X108.896 Y108.896
;TYPE:Perimeter
;WIDTH:0.449999
;HEIGHT:0.05
G1 F3600
G1 X104.754 Y108.896 Z.435 E3.24918
G1 X104.754 Y91.104 Z.435 E3.41164
G1 X108.896 Y91.104 Z2.827 E3.44946
G1 X108.896 Y108.836 Z2.827 E3.61138
G1 Z.2 F7800
G1 X109.336 Y109.336
G1 F3600
G1 X104.314 Y109.336 Z.181 E3.65724
G1 X104.314 Y90.664 Z.181 E3.82774
G1 X109.336 Y90.664 Z3.081 E3.8736
G1 X109.336 Y109.276 Z3.081 E4.04355
G1 Z.2 F7800
G1 X109.775 Y109.775
;TYPE:External perimeter
G1 F1800
G1 X104.05 Y109.775 Z.029 E4.09583
;TYPE:Overhang perimeter
;WIDTH:0.4
;HEIGHT:0.4
M106 S255
G1 F3600
G1 X103.875 Y109.775 Z0 E4.10497
G1 X103.875 Y90.225 Z0 E5.12636
G1 X104.05 Y90.225 Z.029 E5.1355
M106 S232.05
;TYPE:External perimeter
;WIDTH:0.449999
;HEIGHT:0.05
G1 F1800
G1 X109.775 Y90.225 Z3.334 E5.18778
G1 X109.775 Y109.715 Z3.334 E5.36575
G1 X109.379 Y109.774 F7800
G1 E3.36575 F2400
G92 E0
G1 Z.2 F7800
G1 X105.119 Y108.448
G1 E2 F2400
;TYPE:Solid infill
;WIDTH:0.556576
G1 F1200
G1 X105.07 Y108.496 Z.618 E2.00078
G1 X105.088 Y108.562 Z.628 E2.00156
G1 X105.154 Y108.58 Z.666 E2.00234
G1 X105.202 Y108.531 Z.694 E2.00312
G1 X105.185 Y108.465 Z.684 E2.00389
;WIDTH:0.449999
G1 X105.886 Y108.567 Z1.089 E2.01036
G1 X105.083 Y107.764 Z.625 E2.02073
G1 X105.004 Y107.664 Z.58 E2.02189
;WIDTH:0.400365
G1 X104.926 Y107.565 Z.535 E2.02291
;WIDTH:0.35073
G1 X104.937 Y107.606 Z.541 E2.02321
G1 X104.865 Y107.625 Z.499 E2.02374
G1 X104.885 Y107.554 Z.511 E2.02426
;WIDTH:0.449999
G1 X105.083 Y107.143 Z.625 E2.02843
G1 X106.507 Y108.567 Z1.447 E2.04682
G1 X107.129 Y108.567 Z1.807 E2.0525
G1 X105.083 Y106.521 Z.625 E2.07892
G1 X105.083 Y105.9 Z.625 E2.08459
G1 X107.75 Y108.567 Z2.165 E2.11903
G1 Z.2 F7800
G1 X108.704 Y108.643
;WIDTH:0.35073
G1 F1200
G1 X108.715 Y108.684 Z2.722 E2.11933
G1 X108.643 Y108.704 Z2.681 E2.11986
G1 X108.662 Y108.632 Z2.692 E2.12039
;WIDTH:0.400365
G1 X108.517 Y108.6 Z2.608 E2.12159
;WIDTH:0.449999
G1 X108.371 Y108.567 Z2.524 E2.12296
G1 X105.083 Y105.279 Z.625 E2.16542
G1 X105.083 Y104.658 Z.625 E2.17109
G1 X108.567 Y108.142 Z2.637 E2.21608
G1 X108.567 Y107.521 Z2.637 E2.22175
G1 X105.083 Y104.037 Z.625 E2.26674
G1 X105.083 Y103.415 Z.625 E2.27242
