; generated by PrusaSlicer 2.9.6-beta1 on 2026-06-18 at 00:36:47 UTC

; 

; external perimeters extrusion width = 0.45mm
; perimeters extrusion width = 0.45mm
; infill extrusion width = 0.45mm
; solid infill extrusion width = 0.45mm
; top infill extrusion width = 0.40mm
; first layer extrusion width = 0.70mm

M104 S200 ; set temperature
;TYPE:Custom
G28 ; home all axes
G1 Z5 F5000 ; lift nozzle
M109 S200 ; set temperature and wait for it to be reached
G21 ; set units to millimeters
G90 ; use absolute coordinates
M82 ; use absolute distances for extrusion
G92 E0
; Filament gcode
M107
;LAYER_CHANGE
;Z:0.35
;HEIGHT:0.35
G1 E-2 F2400
G92 E0
G1 Z.35 F7800
G1 X85.225 Y85.871
G1 E2 F2400
;TYPE:Skirt/Brim
;WIDTH:0.7
G1 F1800
G1 X86.966 Y84.465 E2.20349
G1 X90 Y83.688 E2.48827
G1 X110 Y83.688 E4.30686
G1 X112.203 Y84.084 E4.51039
G1 X114.129 Y85.225 E4.71395
G1 X115.535 Y86.966 E4.91744
G1 X116.312 Y90 E5.20222
G1 X116.312 Y110 E7.02081
G1 X115.916 Y112.203 E7.22434
G1 X114.775 Y114.129 E7.4279
G1 X113.034 Y115.535 E7.63139
G1 X110 Y116.312 E7.91617
G1 X90 Y116.312 E9.73476
G1 X87.797 Y115.916 E9.93829
G1 X85.871 Y114.775 E10.14185
G1 X84.465 Y113.034 E10.34534
G1 X83.688 Y110 E10.63012
G1 X83.688 Y90 E12.44871
G1 X84.084 Y87.797 E12.65224
G1 X85.194 Y85.923 E12.85029
G1 E10.85029 F2400
G92 E0
G92 E0
G1 X108.4 Y108.4 F7800
G1 E2 F2400
;TYPE:Perimeter
;WIDTH:0.7
G1 F1800
G1 X91.6 Y108.4 E3.52762
G1 X91.6 Y91.6 E5.05524
G1 X108.4 Y91.6 E6.58286
G1 X108.4 Y108.34 E8.10502
G1 X109.025 Y109.025 F7800
G1 F1800
G1 X90.975 Y109.025 E9.7463
G1 X90.975 Y90.975 E11.38758
G1 X109.025 Y90.975 E13.02886
G1 X109.025 Y108.965 E14.66468
G1 X109.65 Y109.65 F7800
;TYPE:External perimeter
G1 F1800
G1 X90.35 Y109.65 E16.41962
G1 X90.35 Y90.35 E18.17456
G1 X109.65 Y90.35 E19.9295
G1 X109.65 Y109.59 E21.67898
G1 X109.254 Y109.649 F7800
G1 E19.67898 F2400
G92 E0
G1 X106.938 Y91.787 F7800
G1 E2 F2400
;TYPE:Solid infill
;WIDTH:0.705315
G1 F1800
G1 X107.932 Y92.78 E2.12884
G1 X107.932 Y93.672 E2.21064
G1 X106.328 Y92.068 E2.41866
G1 X105.437 Y92.068 E2.50037
G1 X107.932 Y94.563 E2.82394
G1 X107.932 Y95.454 E2.90565
G1 X104.546 Y92.068 E3.34477
G1 X103.655 Y92.068 E3.42648
G1 X107.932 Y96.345 E3.98115
G1 X107.932 Y97.237 E4.06295
G1 X102.763 Y92.068 E4.7333
G1 X101.872 Y92.068 E4.81501
G1 X107.932 Y98.128 E5.60092
G1 X107.932 Y99.019 E5.68263
G1 X100.981 Y92.068 E6.58409
G1 X100.09 Y92.068 E6.6658
G1 X107.932 Y99.91 E7.68281
G1 X107.932 Y100.802 E7.76461
G1 X99.198 Y92.068 E8.8973
G1 X98.307 Y92.068 E8.97901
G1 X107.932 Y101.693 E10.22725
G1 X107.932 Y102.584 E10.30896
G1 X97.416 Y92.068 E11.67275
G1 X96.525 Y92.068 E11.75446
G1 X107.932 Y103.475 E13.23381
G1 X107.932 Y104.367 E13.31561
G1 X95.633 Y92.068 E14.91064
G1 X94.742 Y92.068 E14.99235
G1 X107.932 Y105.258 E16.70293
G1 X107.932 Y106.149 E16.78464
G1 X93.851 Y92.068 E18.61077
G1 X92.96 Y92.068 E18.69248
G1 X107.932 Y107.04 E20.63416
G1 X107.932 Y107.932 E20.71596
G1 X92.068 Y92.069 E22.77326
G1 X92.068 Y92.96 E22.85497
G1 X107.04 Y107.932 E24.79665
G1 X106.149 Y107.932 E24.87836
G1 X92.068 Y93.851 E26.70449
G1 X92.068 Y94.742 E26.7862
G1 X105.258 Y107.932 E28.49678
G1 X104.367 Y107.932 E28.57849
G1 X92.068 Y95.633 E30.17352
G1 X92.068 Y96.525 E30.25532
G1 X103.475 Y107.932 E31.73467
G1 X102.584 Y107.932 E31.81638
G1 X92.068 Y97.416 E33.18017
G1 X92.068 Y98.307 E33.26188
G1 X101.693 Y107.932 E34.51012
G1 X100.802 Y107.932 E34.59183
G1 X92.068 Y99.198 E35.72452
G1 X92.068 Y100.09 E35.80632
G1 X99.91 Y107.932 E36.82333
G1 X99.019 Y107.932 E36.90504
G1 X92.068 Y100.981 E37.8065
G1 X92.068 Y101.872 E37.88821
G1 X98.128 Y107.932 E38.67412
G1 X97.237 Y107.932 E38.75583
G1 X92.068 Y102.763 E39.42618
G1 X92.068 Y103.655 E39.50798
G1 X96.345 Y107.932 E40.06265
G1 X95.454 Y107.932 E40.14436
G1 X92.068 Y104.546 E40.58348
G1 X92.068 Y105.437 E40.66519
G1 X94.563 Y107.932 E40.98876
G1 X93.672 Y107.932 E41.07047
G1 X92.068 Y106.328 E41.27849
G1 X92.068 Y107.22 E41.36029
G1 X93.062 Y108.213 E41.48913
;LAYER_CHANGE
;Z:0.65
;HEIGHT:0.3
G1 E39.48913 F2400
G92 E0
G1 Z.65 F7800
G1 X109.004 Y109.004
G1 E2 F2400
;TYPE:Perimeter
;WIDTH:0.45
G1 F3600
G1 X90.996 Y109.004 E2.86612
G1 X90.996 Y90.996 E3.73224
G1 X109.004 Y90.996 E4.59836
G1 X109.004 Y108.944 E5.4616
G1 X109.389 Y109.389 F7800
G1 F3600
G1 X90.611 Y109.389 E6.36476
G1 X90.611 Y90.611 E7.26792
G1 X109.389 Y90.611 E8.17108
G1 X109.389 Y109.329 E9.07135
G1 X109.775 Y109.775 F7800
;TYPE:External perimeter
G1 F1800
G1 X90.225 Y109.775 E10.01164
G1 X90.225 Y90.225 E10.95193
G1 X109.775 Y90.225 E11.89222
G1 X109.775 Y109.715 E12.82962
G1 X109.379 Y109.774 F7800
G1 E10.82962 F2400
G92 E0
G1 X91.39 Y91.317 F7800
G1 E2 F2400
;TYPE:Solid infill
;WIDTH:0.543559
G1 F1200
G1 X91.348 Y91.274 E2.00359
G1 X91.29 Y91.29 E2.00719
G1 X91.274 Y91.348 E2.01079
G1 X91.317 Y91.39 E2.01438
G1 X91.375 Y91.375 E2.01796
;WIDTH:0.45
G1 X91.285 Y91.991 E2.0479
G1 X91.991 Y91.285 E2.09592
G1 X92.536 Y91.285 E2.12213
G1 X91.285 Y92.536 E2.20722
G1 X91.285 Y93.081 E2.23343
G1 X93.081 Y91.285 E2.35559
G1 X93.627 Y91.285 E2.38185
G1 X91.285 Y93.627 E2.54115
G1 X91.285 Y94.172 E2.56736
G1 X94.172 Y91.285 E2.76373
G1 X94.717 Y91.285 E2.78994
G1 X91.285 Y94.717 E3.02338
G1 X91.285 Y95.263 E3.04964
G1 X95.263 Y91.285 E3.32022
G1 X95.808 Y91.285 E3.34643
G1 X91.285 Y95.808 E3.65408
G1 X91.285 Y96.353 E3.68029
G1 X96.353 Y91.285 E4.02501
G1 X96.899 Y91.285 E4.05127
G1 X91.285 Y96.899 E4.43313
G1 X91.285 Y97.444 E4.45934
G1 X97.444 Y91.285 E4.87827
G1 X97.989 Y91.285 E4.90448
G1 X91.285 Y97.989 E5.36048
G1 X91.285 Y98.535 E5.38674
G1 X98.535 Y91.285 E5.87988
G1 X99.08 Y91.285 E5.90609
G1 X91.285 Y99.08 E6.4363
G1 X91.285 Y99.625 E6.46251
G1 X99.625 Y91.285 E7.02979
G1 X100.171 Y91.285 E7.05605
G1 X91.285 Y100.171 E7.66046
G1 X91.285 Y100.716 E7.68667
G1 X100.716 Y91.285 E8.32815
G1 X101.261 Y91.285 E8.35436
G1 X91.285 Y101.261 E9.03292
G1 X91.285 Y101.807 E9.05918
G1 X101.807 Y91.285 E9.77487
G1 X102.352 Y91.285 E9.80108
G1 X91.285 Y102.352 E10.55384
G1 X91.285 Y102.897 E10.58005
G1 X102.897 Y91.285 E11.36988
G1 X103.443 Y91.285 E11.39614
G1 X91.285 Y103.443 E12.22311
G1 X91.285 Y103.988 E12.24932
G1 X103.988 Y91.285 E13.11336
G1 X104.534 Y91.285 E13.13962
G1 X91.285 Y104.534 E14.0408
G1 X91.285 Y105.079 E14.06701
G1 X105.079 Y91.285 E15.00526
G1 X105.624 Y91.285 E15.03147
G1 X91.285 Y105.624 E16.00679
G1 X91.285 Y106.17 E16.03305
G1 X106.17 Y91.285 E17.04551
G1 X106.715 Y91.285 E17.07172
G1 X91.285 Y106.715 E18.12125
G1 X91.285 Y107.26 E18.14746
G1 X107.26 Y91.285 E19.23406
G1 X107.806 Y91.285 E19.26032
G1 X91.285 Y107.806 E20.38406
G1 X91.285 Y108.351 E20.41027
G1 X108.351 Y91.285 E21.57108
G1 X108.847 Y91.183 E21.59544
;WIDTH:0.404381
G1 X108.776 Y91.164 E21.59856
G1 X108.795 Y91.235 E21.60168
G1 X108.836 Y91.224 E21.60348
;WIDTH:0.45
G1 X108.715 Y91.467 E21.61654
G1 X91.467 Y108.715 E22.78973
G1 X91.224 Y108.836 E22.80279
;WIDTH:0.404381
G1 X91.183 Y108.847 E22.80459
G1 X91.164 Y108.776 E22.80771
G1 X91.235 Y108.795 E22.81083
G1 X92.013 Y108.715 F7800
;WIDTH:0.45
G1 F1200
G1 X108.715 Y92.013 E23.94688
G1 X108.715 Y92.558 E23.97309
G1 X92.558 Y108.715 E25.07207
G1 X93.103 Y108.715 E25.09828
G1 X108.715 Y93.103 E26.16019
G1 X108.715 Y93.649 E26.18645
G1 X93.649 Y108.715 E27.21122
G1 X94.194 Y108.715 E27.23743
G1 X108.715 Y94.194 E28.22513
G1 X108.715 Y94.739 E28.25134
G1 X94.739 Y108.715 E29.20197
G1 X95.285 Y108.715 E29.22823
G1 X108.715 Y95.285 E30.14172
G1 X108.715 Y95.83 E30.16793
G1 X95.83 Y108.715 E31.04435
G1 X96.375 Y108.715 E31.07056
G1 X108.715 Y96.375 E31.90991
G1 X108.715 Y96.921 E31.93617
G1 X96.921 Y108.715 E32.73838
G1 X97.466 Y108.715 E32.76459
G1 X108.715 Y97.466 E33.52973
G1 X108.715 Y98.011 E33.55594
G1 X98.011 Y108.715 E34.28401
G1 X98.557 Y108.715 E34.31027
G1 X108.715 Y98.557 E35.0012
G1 X108.715 Y99.102 E35.02741
G1 X99.102 Y108.715 E35.68127
G1 X99.647 Y108.715 E35.70748
G1 X108.715 Y99.647 E36.32427
G1 X108.715 Y100.193 E36.35053
G1 X100.193 Y108.715 E36.93019
G1 X100.738 Y108.715 E36.9564
G1 X108.715 Y100.738 E37.49899
G1 X108.715 Y101.283 E37.5252
G1 X101.283 Y108.715 E38.03072
G1 X101.829 Y108.715 E38.05698
G1 X108.715 Y101.829 E38.52536
G1 X108.715 Y102.374 E38.55157
G1 X102.374 Y108.715 E38.98288
G1 X102.92 Y108.715 E39.00914
G1 X108.715 Y102.92 E39.40331
G1 X108.715 Y103.465 E39.42952
G1 X103.465 Y108.715 E39.78662
G1 X104.01 Y108.715 E39.81283
G1 X108.715 Y104.01 E40.13286
G1 X108.715 Y104.556 E40.15912
G1 X104.556 Y108.715 E40.44201
G1 X105.101 Y108.715 E40.46822
G1 X108.715 Y105.101 E40.71404
G1 X108.715 Y105.646 E40.74025
G1 X105.646 Y108.715 E40.949
G1 X106.192 Y108.715 E40.97526
G1 X108.715 Y106.192 E41.14687
G1 X108.92 Y106.578 E41.16789
;WIDTH:0.404381
G1 X108.849 Y106.559 E41.17101
G1 X108.868 Y106.63 E41.17413
G1 X108.909 Y106.619 E41.17593
;WIDTH:0.45
G1 X108.715 Y106.737 E41.18685
G1 X106.737 Y108.715 E41.32139
G1 X106.619 Y108.909 E41.33231
;WIDTH:0.404381
G1 X106.578 Y108.92 E41.33411
G1 X106.559 Y108.849 E41.33723
G1 X106.63 Y108.868 E41.34035
G1 E39.34035 F2400
G92 E0
G1 X108.578 Y107.419 F7800
G1 E2 F2400
;WIDTH:0.45
G1 F1200
G1 X107.282 Y108.715 E2.08815
G1 X108.715 Y108.715 E2.15707
G1 X108.715 Y107.282 E2.22599
G1 X108.35 Y108.28 F7800
;WIDTH:0.517749
G1 F1200
G1 X108.31 Y108.24 E2.22919
G1 X108.255 Y108.255 E2.23241
G1 X108.24 Y108.31 E2.23563
G1 X108.28 Y108.35 E2.23883
G1 X108.335 Y108.335 E2.24205
;LAYER_CHANGE
;Z:0.95
;HEIGHT:0.3
G1 Z.95 F7800
G1 X109.004 Y109.004
;TYPE:Perimeter
;WIDTH:0.45
G1 F3600
G1 X90.996 Y109.004 E3.10817
G1 X90.996 Y90.996 E3.97429
G1 X109.004 Y90.996 E4.84041
G1 X109.004 Y108.944 E5.70365
G1 X109.389 Y109.389 F7800
G1 F3600
G1 X90.611 Y109.389 E6.60681
G1 X90.611 Y90.611 E7.50997
G1 X109.389 Y90.611 E8.41313
G1 X109.389 Y109.329 E9.3134
G1 X109.775 Y109.775 F7800
;TYPE:External perimeter
G1 F1800
G1 X90.225 Y109.775 E10.25369
G1 X90.225 Y90.225 E11.19398
G1 X109.775 Y90.225 E12.13427
G1 X109.775 Y109.715 E13.07167
G1 X109.379 Y109.774 F7800
G1 E11.07167 F2400
G92 E0
G1 X91.317 Y108.61 F7800
G1 E2 F2400
;TYPE:Solid infill
;WIDTH:0.543559
G1 F1200
G1 X91.274 Y108.652 E2.00359
G1 X91.29 Y108.71 E2.00719
G1 X91.348 Y108.726 E2.01079
G1 X91.39 Y108.683 E2.01438
G1 X91.375 Y108.625 E2.01796
;WIDTH:0.45
G1 X91.285 Y108.009 E2.0479
G1 X91.991 Y108.715 E2.09592
G1 X92.536 Y108.715 E2.12213
G1 X91.285 Y107.464 E2.20722
G1 X91.285 Y106.919 E2.23343
G1 X93.081 Y108.715 E2.35559
G1 X93.627 Y108.715 E2.38185
G1 X91.285 Y106.373 E2.54115
G1 X91.285 Y105.828 E2.56736
G1 X94.172 Y108.715 E2.76373
G1 X94.717 Y108.715 E2.78994
G1 X91.285 Y105.283 E3.02338
G1 X91.285 Y104.737 E3.04964
G1 X95.263 Y108.715 E3.32022
G1 X95.808 Y108.715 E3.34643
G1 X91.285 Y104.192 E3.65408
G1 X91.285 Y103.647 E3.68029
G1 X96.353 Y108.715 E4.02501
G1 X96.899 Y108.715 E4.05127
G1 X91.285 Y103.101 E4.43313
G1 X91.285 Y102.556 E4.45934
G1 X97.444 Y108.715 E4.87827
G1 X97.989 Y108.715 E4.90448
G1 X91.285 Y102.011 E5.36048
G1 X91.285 Y101.465 E5.38674
G1 X98.535 Y108.715 E5.87988
G1 X99.08 Y108.715 E5.90609
G1 X91.285 Y100.92 E6.4363
G1 X91.285 Y100.375 E6.46251
G1 X99.625 Y108.715 E7.02979
G1 X100.171 Y108.715 E7.05605
G1 X91.285 Y99.829 E7.66046
G1 X91.285 Y99.284 E7.68667
G1 X100.716 Y108.715 E8.32815
G1 X101.261 Y108.715 E8.35436
G1 X91.285 Y98.739 E9.03292
G1 X91.285 Y98.193 E9.05918
G1 X101.807 Y108.715 E9.77487
G1 X102.352 Y108.715 E9.80108
G1 X91.285 Y97.648 E10.55384
G1 X91.285 Y97.103 E10.58005
G1 X102.897 Y108.715 E11.36988
G1 X103.443 Y108.715 E11.39614
G1 X91.285 Y96.557 E12.22311
G1 X91.285 Y96.012 E12.24932
G1 X103.988 Y108.715 E13.11336
G1 X104.534 Y108.715 E13.13962
G1 X91.285 Y95.466 E14.0408
G1 X91.285 Y94.921 E14.06701
G1 X105.079 Y108.715 E15.00526
G1 X105.624 Y108.715 E15.03147
G1 X91.285 Y94.376 E16.00679
G1 X91.285 Y93.83 E16.03305
G1 X106.17 Y108.715 E17.04551
G1 X106.715 Y108.715 E17.07172
G1 X91.285 Y93.285 E18.12125
G1 X91.285 Y92.74 E18.14746
G1 X107.26 Y108.715 E19.23406
G1 X107.806 Y108.715 E19.26032
G1 X91.285 Y92.194 E20.38406
G1 X91.285 Y91.649 E20.41027
G1 X108.351 Y108.715 E21.57108
G1 X108.795 Y108.765 E21.59257
;WIDTH:0.404381
G1 X108.776 Y108.836 E21.59569
G1 X108.847 Y108.817 E21.59881
G1 X108.836 Y108.776 E21.60061
;WIDTH:0.45
G1 X108.715 Y108.533 E21.61367
G1 X91.467 Y91.285 E22.78686
G1 X91.224 Y91.164 E22.79992
;WIDTH:0.404381
G1 X91.235 Y91.205 E22.80172
G1 X91.164 Y91.224 E22.80484
G1 X91.183 Y91.153 E22.80796
G1 X92.013 Y91.285 F7800
;WIDTH:0.45
G1 F1200
G1 X108.715 Y107.987 E23.94401
G1 X108.715 Y107.442 E23.97022
G1 X92.558 Y91.285 E25.0692
G1 X93.103 Y91.285 E25.09541
G1 X108.715 Y106.897 E26.15732
G1 X108.715 Y106.351 E26.18358
G1 X93.649 Y91.285 E27.20835
G1 X94.194 Y91.285 E27.23456
G1 X108.715 Y105.806 E28.22226
G1 X108.715 Y105.261 E28.24847
G1 X94.739 Y91.285 E29.1991
G1 X95.285 Y91.285 E29.22536
G1 X108.715 Y104.715 E30.13885
G1 X108.715 Y104.17 E30.16506
G1 X95.83 Y91.285 E31.04148
G1 X96.375 Y91.285 E31.06769
G1 X108.715 Y103.625 E31.90704
G1 X108.715 Y103.079 E31.9333
G1 X96.921 Y91.285 E32.73551
G1 X97.466 Y91.285 E32.76172
G1 X108.715 Y102.534 E33.52686
G1 X108.715 Y101.989 E33.55307
G1 X98.011 Y91.285 E34.28114
G1 X98.557 Y91.285 E34.3074
G1 X108.715 Y101.443 E34.99833
G1 X108.715 Y100.898 E35.02454
G1 X99.102 Y91.285 E35.6784
G1 X99.647 Y91.285 E35.70461
G1 X108.715 Y100.353 E36.3214
G1 X108.715 Y99.807 E36.34766
G1 X100.193 Y91.285 E36.92732
G1 X100.738 Y91.285 E36.95353
G1 X108.715 Y99.262 E37.49612
G1 X108.715 Y98.717 E37.52233
G1 X101.283 Y91.285 E38.02785
G1 X101.829 Y91.285 E38.05411
G1 X108.715 Y98.171 E38.52249
G1 X108.715 Y97.626 E38.5487
G1 X102.374 Y91.285 E38.98001
G1 X102.92 Y91.285 E39.00627
G1 X108.715 Y97.08 E39.40044
G1 X108.715 Y96.535 E39.42665
G1 X103.465 Y91.285 E39.78375
G1 X104.01 Y91.285 E39.80996
G1 X108.715 Y95.99 E40.12999
G1 X108.715 Y95.444 E40.15625
G1 X104.556 Y91.285 E40.43914
G1 X105.101 Y91.285 E40.46535
G1 X108.715 Y94.899 E40.71117
G1 X108.715 Y94.354 E40.73738
G1 X105.646 Y91.285 E40.94613
G1 X106.192 Y91.285 E40.97239
G1 X108.715 Y93.808 E41.144
G1 X108.868 Y93.37 E41.16631
;WIDTH:0.404381
G1 X108.849 Y93.441 E41.16943
G1 X108.92 Y93.422 E41.17255
G1 X108.909 Y93.381 E41.17435
;WIDTH:0.45
G1 X108.715 Y93.263 E41.18527
G1 X106.737 Y91.285 E41.31981
G1 X106.619 Y91.091 E41.33073
;WIDTH:0.404381
G1 X106.63 Y91.132 E41.33253
G1 X106.559 Y91.151 E41.33565
G1 X106.578 Y91.08 E41.33877
;WIDTH:0.45
G1 X107.282 Y91.285 E41.37404
G1 X108.715 Y91.285 E41.44296
G1 X108.715 Y92.718 E41.51188
G1 X107.419 Y91.422 E41.60003
G1 X108.28 Y91.65 F7800
;WIDTH:0.517749
G1 F1200
G1 X108.24 Y91.69 E41.60323
G1 X108.255 Y91.745 E41.60645
G1 X108.31 Y91.76 E41.60967
G1 X108.35 Y91.72 E41.61287
G1 X108.335 Y91.665 E41.61609
M106 S244.8
;LAYER_CHANGE
;Z:1.25
;HEIGHT:0.3
G1 E39.61609 F2400
G92 E0
G1 Z1.25 F7800
G1 X109.004 Y109.004
G1 E2 F2400
;TYPE:Perimeter
;WIDTH:0.45
G1 F3600
G1 X90.996 Y109.004 E2.86612
G1 X90.996 Y90.996 E3.73224
G1 X109.004 Y90.996 E4.59836
G1 X109.004 Y108.944 E5.4616
G1 X109.389 Y109.389 F7800
G1 F3600
G1 X90.611 Y109.389 E6.36476
G1 X90.611 Y90.611 E7.26792
G1 X109.389 Y90.611 E8.17108
G1 X109.389 Y109.329 E9.07135
G1 X109.775 Y109.775 F7800
;TYPE:External perimeter
G1 F1800
G1 X90.225 Y109.775 E10.01164
G1 X90.225 Y90.225 E10.95193
G1 X109.775 Y90.225 E11.89222
G1 X109.775 Y109.715 E12.82962
G1 X109.379 Y109.774 F7800
G1 E10.82962 F2400
G92 E0
G1 X105.967 Y108.715 F7800
G1 E2 F2400
;TYPE:Internal infill
;WIDTH:0.45
G1 F4800
G1 X103.653 Y108.715 E2.1113
G1 X108.323 Y91.285 E2.97919
G1 X107.646 Y91.285 E3.01175
G1 X108.715 Y92.354 E3.08446
G1 X108.715 Y94.671 E3.1959
G1 X91.285 Y99.341 E4.06379
G1 X91.285 Y99.466 E4.0698
G1 X100.534 Y108.715 E4.69891
G1 X101 Y108.715 E4.72132
G1 X108.715 Y106.647 E5.10548
G1 X108.715 Y108.715 E5.20494
G1 X91.285 Y91.285 E6.39051
G1 X91.285 Y93.353 E6.48997
G1 X99 Y91.285 E6.87413
G1 X99.466 Y91.285 E6.89654
G1 X108.715 Y100.534 E7.52565
G1 X108.715 Y100.659 E7.53166
G1 X91.285 Y105.329 E8.39955
G1 X91.285 Y107.646 E8.51099
G1 X92.354 Y108.715 E8.5837
G1 X91.677 Y108.715 E8.61626
G1 X96.347 Y91.285 E9.48415
