; generated by PrusaSlicer 2.9.6-beta1 on 2026-06-18 at 00:35:50 UTC

; 

; external perimeters extrusion width = 0.45mm
; perimeters extrusion width = 0.45mm
; infill extrusion width = 0.45mm
; solid infill extrusion width = 0.45mm
; top infill extrusion width = 0.40mm
; first layer extrusion width = 0.70mm

M104 S200 ; set temperature
;TYPE:Custom
G28 ; home all axes
G1 Z5 F5000 ; lift nozzle
M109 S200 ; set temperature and wait for it to be reached
G21 ; set units to millimeters
G90 ; use absolute coordinates
M82 ; use absolute distances for extrusion
G92 E0
; Filament gcode
M107
;LAYER_CHANGE
;Z:0.1
;HEIGHT:0.1
G1 E-2 F2400
G92 E0
G1 Z.1 F7800
G1 X104.549 Y85.871
G1 E2 F2400
;TYPE:Skirt/Brim
;WIDTH:0.7
G1 F1800
G1 X106.29 Y84.465 Z0 E2.06313
G1 X109.324 Y83.688 Z0 E2.15148
G1 X110 Y83.688 Z0 E2.17055
G1 X112.203 Y84.084 Z.59 E2.23369
G1 X114.129 Y85.225 Z1.106 E2.29684
G1 X115.535 Y86.966 Z1.483 E2.35997
G1 X116.312 Y90 Z1.691 E2.44832
G1 X116.312 Y110 Z1.691 E3.01253
G1 X115.916 Y112.203 Z1.585 E3.07567
G1 X114.775 Y114.129 Z1.279 E3.13882
G1 X113.034 Y115.535 Z.813 E3.20195
G1 X110 Y116.312 Z0 E3.2903
G1 X109.324 Y116.312 Z0 E3.30937
G1 X107.121 Y115.916 Z0 E3.37251
G1 X105.195 Y114.775 Z0 E3.43566
G1 X103.788 Y113.034 Z0 E3.49881
G1 X103.011 Y110 Z0 E3.58716
G1 X103.011 Y90 Z0 E4.15137
G1 X103.408 Y87.797 Z0 E4.21452
G1 X104.518 Y85.923 Z0 E4.27596
G1 E2.27596 F2400
G92 E0
G1 Z.1 F7800
G92 E0
G1 X109.662 Y109.662
G1 E2 F2400
;TYPE:Perimeter
;WIDTH:0.31907
G1 F1800
G1 X109.662 Y90.338 Z0 E2.2391
G1 E.2391 F2400
G92 E0
G1 Z.1 F7800
G1 X109.9 Y109.9
G1 E2 F2400
;TYPE:External perimeter
;WIDTH:0.199999
G1 F1800
G1 X109.424 Y109.9 Z0 E2.00353
G1 X109.424 Y90.1 Z0 E2.1505
G1 X109.9 Y90.1 Z0 E2.15403
G1 X109.9 Y109.84 Z0 E2.30056
G1 X109.504 Y109.899 F7800
;LAYER_CHANGE
;Z:0.11
;HEIGHT:0.01
G1 Z.11 F7800
G1 X109.319 Y109.319
;TYPE:Perimeter
;WIDTH:0.483725
;HEIGHT:0.05
G1 F711
G1 X109.124 Y109.319 Z.076 E2.30248
;TYPE:Overhang perimeter
;WIDTH:0.4
;HEIGHT:0.4
G1 F900
G1 X108.846 Y109.319 Z.001 E2.317
G1 X108.846 Y90.681 Z.001 E3.29074
G1 X109.124 Y90.681 Z.076 E3.30526
;TYPE:Perimeter
;WIDTH:0.483725
;HEIGHT:0.05
G1 F711
G1 X109.319 Y90.681 Z.128 E3.30718
G1 X109.319 Y109.259 Z.128 E3.48985
G1 Z.11 F7800
G1 X109.775 Y109.775
;TYPE:External perimeter
;WIDTH:0.449999
G1 F711
G1 X109.124 Y109.775 Z.076 E3.49579
;TYPE:Overhang perimeter
;WIDTH:0.4
;HEIGHT:0.4
G1 F3600
G1 X108.39 Y109.775 Z0 E3.53414
G1 X108.39 Y90.225 Z0 E4.55553
G1 X109.124 Y90.225 Z.076 E4.59388
;TYPE:External perimeter
;WIDTH:0.449999
;HEIGHT:0.05
G1 F711
G1 X109.775 Y90.225 Z.25 E4.59982
G1 X109.775 Y109.715 Z.25 E4.77779
G1 X109.379 Y109.774 F7800
;LAYER_CHANGE
;Z:0.12
;HEIGHT:0.01
G1 Z.12 F7800
G1 X108.809 Y108.809
;TYPE:Perimeter
;WIDTH:0.624012
;HEIGHT:0.05
G1 F900
G1 X108.196 Y108.809 Z.138 E4.7856
G1 X108.196 Y91.191 Z.138 E5.01021
G1 X108.809 Y91.191 Z.302 E5.01802
G1 X108.809 Y108.749 Z.302 E5.24186
G1 Z.12 F7800
G1 X109.336 Y109.336
;WIDTH:0.449999
G1 F900
G1 X107.965 Y109.336 Z.076 E5.25438
;TYPE:Overhang perimeter
;WIDTH:0.4
;HEIGHT:0.4
G1 X107.67 Y109.336 Z0 E5.26979
G1 X107.67 Y90.664 Z0 E6.24531
G1 X107.965 Y90.664 Z.076 E6.26072
;TYPE:Perimeter
;WIDTH:0.449999
;HEIGHT:0.05
G1 X109.336 Y90.664 Z.443 E6.27324
G1 X109.336 Y109.276 Z.443 E6.44319
G1 Z.12 F7800
G1 X109.775 Y109.775
;TYPE:External perimeter
G1 F1800
G1 X107.965 Y109.775 Z.076 E6.45972
;TYPE:Overhang perimeter
;WIDTH:0.4
;HEIGHT:0.4
G1 F3600
G1 X107.231 Y109.775 Z0 E6.49807
G1 X107.231 Y90.225 Z0 E7.51946
G1 X107.965 Y90.225 Z.076 E7.55781
;TYPE:External perimeter
;WIDTH:0.449999
;HEIGHT:0.05
G1 F1800
G1 X109.775 Y90.225 Z.561 E7.57434
G1 X109.775 Y109.715 Z.561 E7.75231
G1 X109.379 Y109.774 F7800
M106 S244.8
;LAYER_CHANGE
;Z:0.13
;HEIGHT:0.01
G1 Z.13 F7800
G1 X108.896 Y108.896
;TYPE:Perimeter
;HEIGHT:0.05
G1 F900
G1 X106.95 Y108.896 Z.115 E7.77008
G1 X106.95 Y91.104 Z.115 E7.93254
G1 X108.896 Y91.104 Z.636 E7.95031
G1 X108.896 Y108.836 Z.636 E8.11223
G1 Z.13 F7800
G1 X109.336 Y109.336
G1 F3600
G1 X106.806 Y109.336 Z.076 E8.13533
;TYPE:Overhang perimeter
;WIDTH:0.4
;HEIGHT:0.4
M106 S255
G1 X106.511 Y109.336 Z0 E8.15074
G1 X106.511 Y90.664 Z0 E9.12626
G1 X106.806 Y90.664 Z.076 E9.14167
M106 S244.8
;TYPE:Perimeter
;WIDTH:0.449999
;HEIGHT:0.05
G1 X109.336 Y90.664 Z.754 E9.16477
G1 X109.336 Y109.276 Z.754 E9.33472
G1 Z.13 F7800
G1 X109.775 Y109.775
;TYPE:External perimeter
G1 F1800
G1 X106.806 Y109.775 Z.076 E9.36183
;TYPE:Overhang perimeter
;WIDTH:0.4
;HEIGHT:0.4
M106 S255
G1 F3600
G1 X106.072 Y109.775 Z0 E9.40018
G1 X106.072 Y90.225 Z0 E10.42157
G1 X106.806 Y90.225 Z.076 E10.45992
M106 S244.8
;TYPE:External perimeter
;WIDTH:0.449999
;HEIGHT:0.05
G1 F1800
G1 X109.775 Y90.225 Z.871 E10.48703
G1 X109.775 Y109.715 Z.871 E10.665
G1 X109.379 Y109.774 F7800
G1 E8.665 F2400
G92 E0
G1 Z.13 F7800
G1 X107.28 Y91.433
G1 E2 F2400
;TYPE:Solid infill
G1 F1200
G1 X108.567 Y91.433 Z.548 E2.01175
G1 X108.567 Y108.567 Z.548 E2.16821
G1 X107.28 Y108.567 Z.203 E2.17996
G1 X107.28 Y91.653 Z.203 E2.33441
G1 X107.711 Y91.865 Z.318 E2.3388
;WIDTH:0.434847
G1 X108.135 Y91.865 Z.432 E2.34254
G1 X108.135 Y108.135 Z.432 E2.48598
G1 X107.711 Y108.135 Z.318 E2.48972
G1 X107.711 Y92.084 Z.318 E2.63123
M106 S242.25
;LAYER_CHANGE
;Z:0.14
;HEIGHT:0.01
G1 E.63123 F2400
G92 E0
G1 Z.14 F7800
G1 X108.896 Y108.896
G1 E2 F2400
;TYPE:Perimeter
;WIDTH:0.449999
;HEIGHT:0.05
G1 F3600
G1 X105.791 Y108.896 Z.115 E2.02835
G1 X105.791 Y91.104 Z.115 E2.19081
G1 X108.896 Y91.104 Z.947 E2.21916
G1 X108.896 Y108.836 Z.947 E2.38108
G1 Z.14 F7800
G1 X109.336 Y109.336
G1 F3600
G1 X105.647 Y109.336 Z.076 E2.41477
;TYPE:Overhang perimeter
;WIDTH:0.4
;HEIGHT:0.4
M106 S255
G1 X105.352 Y109.336 Z0 E2.43018
G1 X105.352 Y90.664 Z0 E3.4057
G1 X105.647 Y90.664 Z.076 E3.42111
M106 S242.25
;TYPE:Perimeter
;WIDTH:0.449999
;HEIGHT:0.05
G1 X109.336 Y90.664 Z1.064 E3.4548
G1 X109.336 Y109.276 Z1.064 E3.62475
G1 Z.14 F7800
G1 X109.775 Y109.775
;TYPE:External perimeter
G1 F1800
G1 X105.647 Y109.775 Z.076 E3.66244
;TYPE:Overhang perimeter
;WIDTH:0.4
;HEIGHT:0.4
M106 S255
G1 F3600
G1 X104.912 Y109.775 Z0 E3.70084
G1 X104.912 Y90.225 Z0 E4.72223
G1 X105.647 Y90.225 Z.076 E4.76063
M106 S242.25
;TYPE:External perimeter
;WIDTH:0.449999
;HEIGHT:0.05
G1 F1800
G1 X109.775 Y90.225 Z1.182 E4.79832
G1 X109.775 Y109.715 Z1.182 E4.97629
G1 X109.379 Y109.774 F7800
G1 E2.97629 F2400
G92 E0
G1 Z.14 F7800
G1 X106.12 Y108.567
G1 E2 F2400
;TYPE:Solid infill
G1 F1200
G1 X106.12 Y91.433 Z.203 E2.15646
G1 X108.567 Y91.433 Z.858 E2.1788
G1 X108.567 Y108.567 Z.858 E2.33526
G1 X106.34 Y108.567 Z.262 E2.3556
G1 X106.56 Y108.128 Z.321 E2.36008
G1 X106.56 Y91.872 Z.321 E2.50852
G1 X108.128 Y91.872 Z.741 E2.52284
G1 X108.128 Y108.128 Z.741 E2.67128
G1 X106.779 Y108.128 Z.379 E2.6836
G1 X107.062 Y107.626 Z.455 E2.68886
;WIDTH:0.575133
G1 X107.062 Y92.374 Z.455 E2.86781
G1 X107.626 Y92.374 Z.606 E2.87443
G1 X107.626 Y107.626 Z.606 E3.05338
G1 X107.281 Y107.626 Z.514 E3.05743
M106 S244.8
;LAYER_CHANGE
;Z:0.15
;HEIGHT:0.01
G1 E1.05743 F2400
G92 E0
G1 Z.15 F7800
G1 X108.896 Y108.896
G1 E2 F2400
;TYPE:Perimeter
;WIDTH:0.449999
;HEIGHT:0.05
G1 F3600
G1 X104.632 Y108.896 Z.115 E2.03894
G1 X104.632 Y91.104 Z.115 E2.2014
G1 X108.896 Y91.104 Z1.257 E2.24034
G1 X108.896 Y108.836 Z1.257 E2.40226
G1 Z.15 F7800
G1 X109.336 Y109.336
G1 F3600
G1 X104.487 Y109.336 Z.076 E2.44654
;TYPE:Overhang perimeter
;WIDTH:0.4
;HEIGHT:0.4
M106 S255
G1 X104.193 Y109.336 Z0 E2.4619
G1 X104.193 Y90.664 Z0 E3.43742
G1 X104.487 Y90.664 Z.076 E3.45278
M106 S244.8
;TYPE:Perimeter
;WIDTH:0.449999
;HEIGHT:0.05
G1 X109.336 Y90.664 Z1.375 E3.49706
G1 X109.336 Y109.276 Z1.375 E3.66701
G1 Z.15 F7800
G1 X109.775 Y109.775
;TYPE:External perimeter
G1 F1800
G1 X104.487 Y109.775 Z.076 E3.7153
;TYPE:Overhang perimeter
;WIDTH:0.4
;HEIGHT:0.4
M106 S255
G1 F3600
G1 X103.753 Y109.775 Z0 E3.75365
G1 X103.753 Y90.225 Z0 E4.77504
G1 X104.487 Y90.225 Z.076 E4.81339
M106 S244.8
;TYPE:External perimeter
;WIDTH:0.449999
;HEIGHT:0.05
G1 F1800
G1 X109.775 Y90.225 Z1.493 E4.86168
G1 X109.775 Y109.715 Z1.493 E5.03965
G1 X109.379 Y109.774 F7800
G1 E3.03965 F2400
G92 E0
G1 Z.15 F7800
G1 X107.345 Y107.538
G1 E2 F2400
;TYPE:Internal infill
;WIDTH:0.45
G1 F4800
G1 X107.345 Y108.594 Z.842 E2.00964
G1 X108.594 Y108.594 Z1.176 E2.02105
G1 X107.345 Y107.345 Z.842 E2.03718
G1 X107.345 Y107.014 Z.842 E2.0402
G1 X108.594 Y106.68 Z1.176 E2.05201
G1 X108.594 Y104.366 Z1.176 E2.07314
G1 Z.15 F7800
G1 X107.345 Y103.34
G1 F4800
G1 X107.345 Y101.026 Z.842 E2.09427
G1 X108.594 Y100.691 Z1.176 E2.10608
G1 X108.594 Y100.414 Z1.176 E2.10861
G1 X107.345 Y99.165 Z.842 E2.12474
G1 X107.345 Y96.851 Z.842 E2.14587
G1 Z.15 F7800
G1 X108.594 Y97.017
G1 F4800
G1 X108.594 Y94.703 Z1.176 E2.167
G1 X107.345 Y95.038 Z.842 E2.17881
G1 X108.291 Y91.406 Z1.095 E2.21308
G1 X107.767 Y91.406 Z.955 E2.21786
G1 X108.594 Y92.233 Z1.176 E2.22854
G1 X108.594 Y94.51 Z1.176 E2.24933
G1 E.24933 F2400
G92 E0
G1 Z.15 F7800
G1 X104.961 Y91.433
G1 E2 F2400
;TYPE:Solid infill
;WIDTH:0.449999
G1 F1200
G1 X106.932 Y91.433 Z.731 E2.018
G1 X106.932 Y108.567 Z.731 E2.17446
G1 X104.961 Y108.567 Z.203 E2.19246
G1 X104.961 Y91.653 Z.203 E2.34691
G1 X105.401 Y91.872 Z.321 E2.3514
G1 X106.493 Y91.872 Z.613 E2.36137
G1 X106.493 Y108.128 Z.613 E2.50981
G1 X105.401 Y108.128 Z.321 E2.51978
G1 X105.401 Y92.092 Z.321 E2.66621
G1 X105.947 Y92.419 Z.467 E2.67202
;WIDTH:0.664124
G1 X105.947 Y107.581 Z.467 E2.87796
M106 S242.25
;LAYER_CHANGE
;Z:0.16
;HEIGHT:0.00999999
G1 E.87796 F2400
G92 E0
G1 Z.16 F7800
G1 X108.896 Y108.896
G1 E2 F2400
;TYPE:Perimeter
;WIDTH:0.449999
;HEIGHT:0.05
G1 F3600
G1 X103.473 Y108.896 Z.115 E2.04952
G1 X103.473 Y91.104 Z.115 E2.21198
G1 X108.896 Y91.104 Z1.568 E2.2615
G1 X108.896 Y108.836 Z1.568 E2.42342
G1 Z.16 F7800
G1 X109.336 Y109.336
G1 F3600
G1 X103.328 Y109.336 Z.076 E2.47828
;TYPE:Overhang perimeter
;WIDTH:0.4
;HEIGHT:0.4
M106 S255
G1 X103.033 Y109.336 Z0 E2.49369
G1 X103.033 Y90.664 Z0 E3.46921
G1 X103.328 Y90.664 Z.076 E3.48462
M106 S242.25
;TYPE:Perimeter
;WIDTH:0.449999
;HEIGHT:0.05
G1 X109.336 Y90.664 Z1.686 E3.53948
G1 X109.336 Y109.276 Z1.686 E3.70943
G1 Z.16 F7800
G1 X109.775 Y109.775
;TYPE:External perimeter
G1 F1800
G1 X103.328 Y109.775 Z.076 E3.7683
;TYPE:Overhang perimeter
;WIDTH:0.4
;HEIGHT:0.4
M106 S255
G1 F3600
G1 X102.594 Y109.775 Z0 E3.80665
G1 X102.594 Y90.225 Z0 E4.82804
G1 X103.328 Y90.225 Z.076 E4.86639
M106 S242.25
;TYPE:External perimeter
;WIDTH:0.449999
;HEIGHT:0.05
G1 F1800
G1 X109.775 Y90.225 Z1.803 E4.92526
G1 X109.775 Y109.715 Z1.803 E5.10323
G1 X109.379 Y109.774 F7800
G1 E3.10323 F2400
G92 E0
G1 Z.16 F7800
G1 X106.28 Y108.594
G1 E2 F2400
;TYPE:Internal infill
;WIDTH:0.45
G1 F4800
G1 X108.594 Y108.594 Z1.487 E2.02113
G1 X106.186 Y106.186 Z.842 E2.05223
G1 X106.186 Y107.325 Z.842 E2.06263
G1 X108.594 Y106.68 Z1.487 E2.08539
G1 X108.594 Y104.366 Z1.487 E2.10652
G1 E.10652 F2400
G92 E0
G1 Z.16 F7800
G1 X103.802 Y108.567
G1 E2 F2400
;TYPE:Solid infill
;WIDTH:0.449999
G1 F1200
G1 X103.802 Y91.433 Z.203 E2.15646
G1 X105.773 Y91.433 Z.731 E2.17446
G1 X105.773 Y108.567 Z.731 E2.33092
G1 X104.022 Y108.567 Z.262 E2.34691
G1 X104.241 Y108.128 Z.32 E2.35139
G1 X104.241 Y91.872 Z.32 E2.49983
G1 X105.334 Y91.872 Z.613 E2.50981
G1 X105.334 Y108.128 Z.613 E2.65825
G1 X104.461 Y108.128 Z.379 E2.66622
G1 X104.788 Y107.581 Z.467 E2.67204
;WIDTH:0.664122
G1 X104.788 Y92.419 Z.467 E2.87798
G1 Z.16 F7800
G1 X106.186 Y93.035
;TYPE:Internal infill
;WIDTH:0.45
G1 F4800
G1 X106.186 Y95.348 Z.842 E2.8991
G1 X108.594 Y94.703 Z1.487 E2.92186
G1 X108.594 Y92.233 Z1.487 E2.94441
G1 X107.767 Y91.406 Z1.265 E2.95509
G1 X108.291 Y91.406 Z1.406 E2.95987
G1 X106.186 Y99.263 Z.842 E3.03415
G1 X106.186 Y101.337 Z.842 E3.05309
G1 X108.594 Y100.691 Z1.487 E3.07586
G1 X108.594 Y100.414 Z1.487 E3.07839
G1 X106.186 Y98.006 Z.842 E3.10949
G1 X106.186 Y95.692 Z.842 E3.13062
;LAYER_CHANGE
;Z:0.17
;HEIGHT:0.01
G1 E1.13062 F2400
G92 E0
G1 Z.17 F7800
G1 X108.896 Y108.896
G1 E2 F2400
;TYPE:Perimeter
;WIDTH:0.449999
;HEIGHT:0.05
G1 F3600
G1 X102.314 Y108.896 Z.115 E2.0601
G1 X102.314 Y91.104 Z.115 E2.22256
G1 X108.896 Y91.104 Z1.878 E2.28266
G1 X108.896 Y108.836 Z1.878 E2.44458
G1 Z.17 F7800
G1 X109.336 Y109.336
G1 F3600
G1 X102.169 Y109.336 Z.076 E2.51002
;TYPE:Overhang perimeter
;WIDTH:0.4
;HEIGHT:0.4
M106 S255
G1 X101.874 Y109.336 Z0 E2.52543
G1 X101.874 Y90.664 Z0 E3.50095
G1 X102.169 Y90.664 Z.076 E3.51636
M106 S242.25
;TYPE:Perimeter
;WIDTH:0.449999
;HEIGHT:0.05
G1 X109.336 Y90.664 Z1.996 E3.5818
G1 X109.336 Y109.276 Z1.996 E3.75175
G1 Z.17 F7800
G1 X109.775 Y109.775
;TYPE:External perimeter
G1 F1800
G1 X102.169 Y109.775 Z.076 E3.8212
;TYPE:Overhang perimeter
;WIDTH:0.4
;HEIGHT:0.4
M106 S255
G1 F3600
G1 X101.435 Y109.775 Z0 E3.85955
G1 X101.435 Y90.225 Z0 E4.88094
G1 X102.169 Y90.225 Z.076 E4.91929
M106 S242.25
;TYPE:External perimeter
;WIDTH:0.449999
;HEIGHT:0.05
G1 F1800
G1 X109.775 Y90.225 Z2.114 E4.98874
G1 X109.775 Y109.715 Z2.114 E5.16671
G1 X109.379 Y109.774 F7800
G1 E3.16671 F2400
G92 E0
G1 Z.17 F7800
G1 X106.382 Y108.594
G1 E2 F2400
;TYPE:Internal infill
;WIDTH:0.45
G1 F4800
G1 X105.027 Y108.594 Z.842 E2.01237
G1 X105.027 Y107.636 Z.842 E2.02112
G1 X108.594 Y106.68 Z1.797 E2.05484
G1 X108.594 Y108.594 Z1.797 E2.07232
G1 X105.027 Y105.027 Z.842 E2.11838
G1 X105.027 Y103.589 Z.842 E2.13151
G1 X108.291 Y91.406 Z1.716 E2.24668
G1 X107.767 Y91.406 Z1.576 E2.25146
G1 X108.594 Y92.233 Z1.797 E2.26214
G1 X108.594 Y94.703 Z1.797 E2.28469
G1 X105.027 Y95.659 Z.842 E2.31841
G1 X105.027 Y96.846 Z.842 E2.32925
G1 X108.594 Y100.414 Z1.797 E2.37532
G1 X108.594 Y100.691 Z1.797 E2.37785
G1 X105.027 Y101.647 Z.842 E2.41157
G1 X105.027 Y99.334 Z.842 E2.43269
G1 E.43269 F2400
G92 E0
G1 Z.17 F7800
G1 X102.643 Y91.433
G1 E2 F2400
;TYPE:Solid infill
;WIDTH:0.449999
G1 F1200
G1 X104.614 Y91.433 Z.731 E2.018
G1 X104.614 Y108.567 Z.731 E2.17446
G1 X102.643 Y108.567 Z.203 E2.19246
G1 X102.643 Y91.653 Z.203 E2.34691
G1 X103.082 Y91.872 Z.32 E2.35139
G1 X104.175 Y91.872 Z.613 E2.36137
G1 X104.175 Y108.128 Z.613 E2.50981
G1 X103.082 Y108.128 Z.32 E2.51979
G1 X103.082 Y92.092 Z.32 E2.66622
G1 X103.629 Y92.419 Z.467 E2.67204
;WIDTH:0.664122
G1 X103.629 Y107.581 Z.467 E2.87798
;LAYER_CHANGE
;Z:0.18
;HEIGHT:0.01
G1 E.87798 F2400
G92 E0
G1 Z.18 F7800
G1 X108.896 Y108.896
G1 E2 F2400
;TYPE:Perimeter
;WIDTH:0.449999
;HEIGHT:0.05
G1 F3600
G1 X101.155 Y108.896 Z.115 E2.07069
G1 X101.155 Y91.104 Z.115 E2.23315
G1 X108.896 Y91.104 Z2.189 E2.30384
G1 X108.896 Y108.836 Z2.189 E2.46576
G1 Z.18 F7800
G1 X109.336 Y109.336
G1 F3600
G1 X101.01 Y109.336 Z.076 E2.54179
;TYPE:Overhang perimeter
;WIDTH:0.4
;HEIGHT:0.4
M106 S255
G1 X100.715 Y109.336 Z0 E2.5572
G1 X100.715 Y90.664 Z0 E3.53272
G1 X101.01 Y90.664 Z.076 E3.54813
M106 S242.25
;TYPE:Perimeter
;WIDTH:0.449999
;HEIGHT:0.05
G1 X109.336 Y90.664 Z2.307 E3.62416
G1 X109.336 Y109.276 Z2.307 E3.79411
G1 Z.18 F7800
G1 X109.775 Y109.775
;TYPE:External perimeter
G1 F1800
G1 X101.01 Y109.775 Z.076 E3.87415
;TYPE:Overhang perimeter
;WIDTH:0.4
;HEIGHT:0.4
M106 S255
G1 F3600
G1 X100.276 Y109.775 Z0 E3.9125
G1 X100.276 Y90.225 Z0 E4.93389
G1 X101.01 Y90.225 Z.076 E4.97224
M106 S242.25
;TYPE:External perimeter
;WIDTH:0.449999
;HEIGHT:0.05
G1 F1800
G1 X109.775 Y90.225 Z2.424 E5.05228
G1 X109.775 Y109.715 Z2.424 E5.23025
G1 X109.379 Y109.774 F7800
G1 E3.23025 F2400
G92 E0
G1 Z.18 F7800
G1 X101.484 Y108.567
G1 E2 F2400
;TYPE:Solid infill
G1 F1200
G1 X101.484 Y91.433 Z.203 E2.15646
G1 X103.455 Y91.433 Z.731 E2.17446
G1 X103.455 Y108.567 Z.731 E2.33092
G1 X101.704 Y108.567 Z.262 E2.34691
G1 X101.923 Y108.128 Z.32 E2.35139
G1 X101.923 Y91.872 Z.32 E2.49983
G1 X103.016 Y91.872 Z.613 E2.50981
G1 X103.016 Y108.128 Z.613 E2.65825
G1 X102.143 Y108.128 Z.379 E2.66622
G1 X102.47 Y107.581 Z.467 E2.67204
;WIDTH:0.664124
G1 X102.47 Y92.419 Z.467 E2.87798
G1 E.87798 F2400
G92 E0
G1 Z.18 F7800
G1 X108.594 Y94.51
G1 E2 F2400
;TYPE:Internal infill
;WIDTH:0.45
G1 F4800
G1 X108.594 Y92.233 Z2.108 E2.02079
G1 X107.767 Y91.406 Z1.886 E2.03147
G1 X108.291 Y91.406 Z2.027 E2.03625
