; generated by PrusaSlicer 2.9.6-beta1 on 2026-06-18 at 01:37:45 UTC

; 

; external perimeters extrusion width = 0.45mm
; perimeters extrusion width = 0.45mm
; infill extrusion width = 0.45mm
; solid infill extrusion width = 0.45mm
; top infill extrusion width = 0.40mm
; first layer extrusion width = 0.70mm

M104 S200 ; set temperature
;TYPE:Custom
G28 ; home all axes
G1 Z5 F5000 ; lift nozzle
M109 S200 ; set temperature and wait for it to be reached
G21 ; set units to millimeters
G90 ; use absolute coordinates
M82 ; use absolute distances for extrusion
G92 E0
; Filament gcode
M107
;LAYER_CHANGE
;Z:0.1
;HEIGHT:0.1
G1 E-2 F2400
G92 E0
G1 Z.1 F7800
G92 E0
G1 X90.338 Y109.662
G1 E2 F2400
;TYPE:Perimeter
;WIDTH:0.31907
G1 F943
G1 X109.662 Y109.662 Z0 E2.2391
G1 X109.9 Y109.9 F7800
;TYPE:External perimeter
;WIDTH:0.199999
G1 F943
G1 X90.1 Y109.9 Z0 E2.38607
G1 X90.1 Y109.424 Z0 E2.3896
G1 X109.9 Y109.424 Z0 E2.53657
G1 X109.9 Y109.84 Z0 E2.53966
G1 X109.504 Y109.899 F7800
;LAYER_CHANGE
;Z:0.11
;HEIGHT:0.01
G1 Z.11 F7800
G1 X109.319 Y109.319
;TYPE:Perimeter
;WIDTH:0.483725
;HEIGHT:0.05
G1 F711
G1 X90.681 Y109.319 Z.128 E2.72292
G1 X90.681 Y109.124 Z.076 E2.72484
;TYPE:Overhang perimeter
;WIDTH:0.4
;HEIGHT:0.4
G1 F900
G1 X90.681 Y108.846 Z.001 E2.73936
G1 X109.319 Y108.846 Z.001 E3.7131
G1 X109.319 Y109.124 Z.076 E3.72762
;TYPE:Perimeter
;WIDTH:0.483725
;HEIGHT:0.05
G1 F711
G1 X109.319 Y109.259 Z.112 E3.72895
G1 X109.775 Y109.775 F7800
G1 Z.25
;TYPE:External perimeter
;WIDTH:0.449999
G1 F711
G1 X90.225 Y109.775 Z.25 E3.90747
G1 X90.225 Y109.124 Z.076 E3.91341
;TYPE:Overhang perimeter
;WIDTH:0.4
;HEIGHT:0.4
G1 F3600
G1 X90.225 Y108.39 Z0 E3.95176
G1 X109.775 Y108.39 Z0 E4.97315
G1 X109.775 Y109.124 Z.076 E5.0115
;TYPE:External perimeter
;WIDTH:0.449999
;HEIGHT:0.05
G1 F711
G1 X109.775 Y109.715 Z.234 E5.0169
G1 X109.379 Y109.774 F7800
;LAYER_CHANGE
;Z:0.12
;HEIGHT:0.01
G1 Z.12 F7800
G1 X108.809 Y108.809
;TYPE:Perimeter
;WIDTH:0.624012
;HEIGHT:0.05
G1 F900
G1 X91.191 Y108.809 Z.302 E5.24151
G1 X91.191 Y108.196 Z.138 E5.24932
G1 X108.809 Y108.196 Z.138 E5.47393
G1 X108.809 Y108.749 Z.286 E5.48098
G1 X109.336 Y109.336 F7800
G1 Z.443
;WIDTH:0.449999
G1 F900
G1 X90.664 Y109.336 Z.443 E5.65148
G1 X90.664 Y107.965 Z.076 E5.664
;TYPE:Overhang perimeter
;WIDTH:0.4
;HEIGHT:0.4
G1 X90.664 Y107.67 Z0 E5.67941
G1 X109.336 Y107.67 Z0 E6.65493
G1 X109.336 Y107.965 Z.076 E6.67034
;TYPE:Perimeter
;WIDTH:0.449999
;HEIGHT:0.05
G1 X109.336 Y109.276 Z.427 E6.68231
G1 X109.775 Y109.775 F7800
G1 Z.561
;TYPE:External perimeter
G1 F1800
G1 X90.225 Y109.775 Z.561 E6.86083
G1 X90.225 Y107.965 Z.076 E6.87736
;TYPE:Overhang perimeter
;WIDTH:0.4
;HEIGHT:0.4
G1 F3600
G1 X90.225 Y107.231 Z0 E6.91571
G1 X109.775 Y107.231 Z0 E7.9371
G1 X109.775 Y107.965 Z.076 E7.97545
;TYPE:External perimeter
;WIDTH:0.449999
;HEIGHT:0.05
G1 F1800
G1 X109.775 Y109.715 Z.545 E7.99143
G1 X109.379 Y109.774 F7800
M106 S244.8
;LAYER_CHANGE
;Z:0.13
;HEIGHT:0.01
G1 Z.13 F7800
G1 X108.896 Y108.896
;TYPE:Perimeter
;HEIGHT:0.05
G1 F900
G1 X91.104 Y108.896 Z.636 E8.15389
G1 X91.104 Y106.95 Z.115 E8.17166
G1 X108.896 Y106.95 Z.115 E8.33412
G1 X108.896 Y108.836 Z.62 E8.35134
G1 X109.336 Y109.336 F7800
G1 Z.754
G1 F3600
G1 X90.664 Y109.336 Z.754 E8.52184
G1 X90.664 Y106.806 Z.076 E8.54494
;TYPE:Overhang perimeter
;WIDTH:0.4
;HEIGHT:0.4
M106 S255
G1 X90.664 Y106.511 Z0 E8.56035
G1 X109.336 Y106.511 Z0 E9.53587
G1 X109.336 Y106.806 Z.076 E9.55128
M106 S244.8
;TYPE:Perimeter
;WIDTH:0.449999
;HEIGHT:0.05
G1 X109.336 Y109.276 Z.738 E9.57383
G1 X109.775 Y109.775 F7800
G1 Z.871
;TYPE:External perimeter
G1 F1800
G1 X90.225 Y109.775 Z.871 E9.75235
G1 X90.225 Y106.806 Z.076 E9.77946
;TYPE:Overhang perimeter
;WIDTH:0.4
;HEIGHT:0.4
M106 S255
G1 F3600
G1 X90.225 Y106.072 Z0 E9.81781
G1 X109.775 Y106.072 Z0 E10.8392
G1 X109.775 Y106.806 Z.076 E10.87755
M106 S244.8
;TYPE:External perimeter
;WIDTH:0.449999
;HEIGHT:0.05
G1 F1800
G1 X109.775 Y109.715 Z.855 E10.90411
G1 X109.379 Y109.774 F7800
G1 E8.90411 F2400
G92 E0
G1 Z.871 F7800
G1 X108.347 Y107.28
G1 Z.203
G1 E2 F2400
;TYPE:Solid infill
G1 F1200
G1 X91.433 Y107.28 Z.203 E2.15445
G1 X91.433 Y108.567 Z.548 E2.1662
G1 X108.567 Y108.567 Z.548 E2.32266
G1 X108.567 Y107.28 Z.203 E2.33441
G1 X108.135 Y107.711 Z.318 E2.33998
;WIDTH:0.434846
G1 X108.135 Y108.135 Z.432 E2.34372
G1 X91.865 Y108.135 Z.432 E2.48716
G1 X91.865 Y107.711 Z.318 E2.4909
G1 X107.916 Y107.711 Z.318 E2.63241
;LAYER_CHANGE
;Z:0.14
;HEIGHT:0.01
G1 Z.14 F7800
G1 X108.896 Y108.896
;TYPE:Perimeter
;WIDTH:0.449999
;HEIGHT:0.05
G1 F3600
G1 X91.104 Y108.896 Z.947 E2.79487
G1 X91.104 Y105.791 Z.115 E2.82322
G1 X108.896 Y105.791 Z.115 E2.98568
G1 X108.896 Y108.836 Z.93 E3.01348
G1 X109.336 Y109.336 F7800
G1 Z1.064
G1 F3600
G1 X90.664 Y109.336 Z1.064 E3.18398
G1 X90.664 Y105.647 Z.076 E3.21767
;TYPE:Overhang perimeter
;WIDTH:0.4
;HEIGHT:0.4
M106 S255
G1 X90.664 Y105.352 Z0 E3.23308
G1 X109.336 Y105.352 Z0 E4.2086
G1 X109.336 Y105.647 Z.076 E4.22401
M106 S244.8
;TYPE:Perimeter
;WIDTH:0.449999
;HEIGHT:0.05
G1 X109.336 Y109.276 Z1.048 E4.25715
G1 X109.775 Y109.775 F7800
G1 Z1.182
;TYPE:External perimeter
G1 F1800
G1 X90.225 Y109.775 Z1.182 E4.43567
G1 X90.225 Y105.647 Z.076 E4.47336
;TYPE:Overhang perimeter
;WIDTH:0.4
;HEIGHT:0.4
M106 S255
G1 F3600
G1 X90.225 Y104.912 Z0 E4.51176
G1 X109.775 Y104.912 Z0 E5.53315
G1 X109.775 Y105.647 Z.076 E5.57155
M106 S244.8
;TYPE:External perimeter
;WIDTH:0.449999
;HEIGHT:0.05
G1 F1800
G1 X109.775 Y109.715 Z1.166 E5.6087
G1 X109.379 Y109.774 F7800
G1 E3.6087 F2400
G92 E0
G1 Z1.182 F7800
G1 X91.433 Y108.567
G1 Z.858
G1 E2 F2400
;TYPE:Solid infill
G1 F1200
G1 X91.433 Y106.12 Z.203 E2.02234
G1 X108.567 Y106.12 Z.203 E2.1788
G1 X108.567 Y108.567 Z.858 E2.20114
G1 X91.653 Y108.567 Z.858 E2.35559
G1 X91.872 Y108.128 Z.741 E2.36007
G1 X91.872 Y106.56 Z.321 E2.37439
G1 X108.128 Y106.56 Z.321 E2.52283
G1 X108.128 Y108.128 Z.741 E2.53715
G1 X92.092 Y108.128 Z.741 E2.68358
G1 X92.374 Y107.626 Z.606 E2.68884
;WIDTH:0.575134
G1 X92.374 Y107.062 Z.455 E2.69546
G1 X107.626 Y107.062 Z.455 E2.87441
G1 X107.626 Y107.626 Z.606 E2.88103
G1 X92.594 Y107.626 Z.606 E3.05739
;LAYER_CHANGE
;Z:0.15
;HEIGHT:0.01
G1 E1.05739 F2400
G92 E0
G1 Z.15 F7800
G1 X108.896 Y108.896
G1 E2 F2400
;TYPE:Perimeter
;WIDTH:0.449999
;HEIGHT:0.05
G1 F3600
G1 X91.104 Y108.896 Z1.257 E2.16246
G1 X91.104 Y104.632 Z.115 E2.2014
G1 X108.896 Y104.632 Z.115 E2.36386
G1 X108.896 Y108.836 Z1.241 E2.40225
G1 X109.336 Y109.336 F7800
G1 Z1.375
G1 F3600
G1 X90.664 Y109.336 Z1.375 E2.57275
G1 X90.664 Y104.487 Z.076 E2.61703
;TYPE:Overhang perimeter
;WIDTH:0.4
;HEIGHT:0.4
M106 S255
G1 X90.664 Y104.193 Z0 E2.63239
G1 X109.336 Y104.193 Z0 E3.60791
G1 X109.336 Y104.487 Z.076 E3.62327
M106 S244.8
;TYPE:Perimeter
;WIDTH:0.449999
;HEIGHT:0.05
G1 X109.336 Y109.276 Z1.359 E3.667
G1 X109.775 Y109.775 F7800
G1 Z1.493
;TYPE:External perimeter
G1 F1800
G1 X90.225 Y109.775 Z1.493 E3.84552
G1 X90.225 Y104.487 Z.076 E3.89381
;TYPE:Overhang perimeter
;WIDTH:0.4
;HEIGHT:0.4
M106 S255
G1 F3600
G1 X90.225 Y103.753 Z0 E3.93216
G1 X109.775 Y103.753 Z0 E4.95355
G1 X109.775 Y104.487 Z.076 E4.9919
M106 S244.8
;TYPE:External perimeter
;WIDTH:0.449999
;HEIGHT:0.05
G1 F1800
G1 X109.775 Y109.715 Z1.477 E5.03964
G1 X109.379 Y109.774 F7800
G1 E3.03964 F2400
G92 E0
G1 Z1.492 F7800
G1 X108.347 Y104.961
G1 Z.203
G1 E2 F2400
;TYPE:Solid infill
G1 F1200
G1 X91.433 Y104.961 Z.203 E2.15445
G1 X91.433 Y106.932 Z.731 E2.17245
G1 X108.567 Y106.932 Z.731 E2.32891
G1 X108.567 Y104.961 Z.203 E2.34691
G1 X108.128 Y105.401 Z.321 E2.35259
G1 X108.128 Y106.493 Z.613 E2.36256
G1 X91.872 Y106.493 Z.613 E2.511
G1 X91.872 Y105.401 Z.321 E2.52097
G1 X107.908 Y105.401 Z.321 E2.6674
G1 X107.581 Y105.947 Z.467 E2.67321
;WIDTH:0.664124
G1 X92.419 Y105.947 Z.467 E2.87915
G1 E.87915 F2400
G92 E0
G1 X91.516 Y108.594 F7800
G1 Z1.176
G1 E2 F2400
;TYPE:Internal infill
;WIDTH:0.45
G1 F4800
G1 X91.406 Y108.594 Z1.176 E2.001
G1 X91.406 Y107.767 Z.955 E2.00855
G1 X92.233 Y108.594 Z1.176 E2.01923
G1 X91.709 Y108.594 Z1.176 E2.02401
G1 X92.044 Y107.345 Z.842 E2.03582
G1 X94.357 Y107.345 Z.842 E2.05694
G1 X95.384 Y108.594 F7800
G1 Z1.176
G1 F4800
G1 X97.697 Y108.594 Z1.176 E2.07806
G1 X98.032 Y107.345 Z.842 E2.08987
G1 X99.165 Y107.345 Z.842 E2.10022
G1 X100.414 Y108.594 Z1.176 E2.11635
G1 X101.451 Y108.594 Z1.176 E2.12582
G1 X106.111 Y107.345 Z.842 E2.16987
G1 X107.345 Y107.345 Z.842 E2.18114
G1 X108.594 Y108.594 Z1.176 E2.19727
G1 X103.686 Y108.594 Z1.176 E2.24209
G1 X104.02 Y107.345 Z.842 E2.2539
G1 X101.707 Y107.345 Z.842 E2.27502
M106 S242.25
;LAYER_CHANGE
;Z:0.16
;HEIGHT:0.00999999
G1 E.27502 F2400
G92 E0
G1 Z.16 F7800
G1 X108.896 Y108.896
G1 E2 F2400
;TYPE:Perimeter
;WIDTH:0.449999
;HEIGHT:0.05
G1 F3600
G1 X91.104 Y108.896 Z1.568 E2.16246
G1 X91.104 Y103.473 Z.115 E2.21198
G1 X108.896 Y103.473 Z.115 E2.37444
G1 X108.896 Y108.836 Z1.552 E2.42341
G1 X109.336 Y109.336 F7800
G1 Z1.686
G1 F3600
G1 X90.664 Y109.336 Z1.686 E2.59391
G1 X90.664 Y103.328 Z.076 E2.64877
;TYPE:Overhang perimeter
;WIDTH:0.4
;HEIGHT:0.4
M106 S255
G1 X90.664 Y103.033 Z0 E2.66418
G1 X109.336 Y103.033 Z0 E3.6397
G1 X109.336 Y103.328 Z.076 E3.65511
M106 S242.25
;TYPE:Perimeter
;WIDTH:0.449999
;HEIGHT:0.05
G1 X109.336 Y109.276 Z1.67 E3.70942
G1 X109.775 Y109.775 F7800
G1 Z1.803
;TYPE:External perimeter
G1 F1800
G1 X90.225 Y109.775 Z1.803 E3.88794
G1 X90.225 Y103.328 Z.076 E3.94681
;TYPE:Overhang perimeter
;WIDTH:0.4
;HEIGHT:0.4
M106 S255
G1 F3600
G1 X90.225 Y102.594 Z0 E3.98516
G1 X109.775 Y102.594 Z0 E5.00655
G1 X109.775 Y103.328 Z.076 E5.0449
M106 S242.25
;TYPE:External perimeter
;WIDTH:0.449999
;HEIGHT:0.05
G1 F1800
G1 X109.775 Y109.715 Z1.787 E5.10322
G1 X109.379 Y109.774 F7800
G1 E3.10322 F2400
G92 E0
G1 Z1.803 F7800
G1 X105.999 Y108.594
G1 Z1.487
G1 E2 F2400
;TYPE:Internal infill
;WIDTH:0.45
G1 F4800
G1 X103.686 Y108.594 Z1.487 E2.02112
G1 X104.331 Y106.186 Z.842 E2.04388
G1 X106.186 Y106.186 Z.842 E2.06082
G1 X108.594 Y108.594 Z1.487 E2.09192
G1 X108.594 Y106.68 Z.974 E2.1094
G1 X101.451 Y108.594 Z1.487 E2.17693
G1 X100.414 Y108.594 Z1.487 E2.1864
G1 X98.006 Y106.186 Z.842 E2.2175
G1 X98.343 Y106.186 Z.842 E2.22058
G1 X97.697 Y108.594 Z1.487 E2.24335
G1 X95.384 Y108.594 Z1.487 E2.26447
G1 E.26447 F2400
G92 E0
G1 X94.668 Y106.186 F7800
G1 Z.841
G1 E2 F2400
G1 F4800
G1 X92.354 Y106.186 Z.842 E2.02113
G1 X91.709 Y108.594 Z1.487 E2.04389
G1 X92.233 Y108.594 Z1.487 E2.04867
G1 X91.406 Y107.767 Z1.265 E2.05935
G1 X91.406 Y106.186 Z.842 E2.07379
G1 X92.139 Y106.186 Z.842 E2.08048
G1 E.08048 F2400
G92 E0
G1 X91.433 Y104.022 F7800
G1 Z.262
G1 E2 F2400
;TYPE:Solid infill
;WIDTH:0.449999
G1 F1200
G1 X91.433 Y105.773 Z.731 E2.01599
G1 X108.567 Y105.773 Z.731 E2.17245
G1 X108.567 Y103.802 Z.203 E2.19045
G1 X91.433 Y103.802 Z.203 E2.34691
G1 X91.872 Y104.241 Z.32 E2.35258
G1 X108.128 Y104.241 Z.32 E2.50102
G1 X108.128 Y105.334 Z.613 E2.511
G1 X91.872 Y105.334 Z.613 E2.65944
G1 X91.872 Y104.461 Z.379 E2.66741
G1 X92.419 Y104.788 Z.467 E2.67323
;WIDTH:0.664122
G1 X107.581 Y104.788 Z.467 E2.87917
;LAYER_CHANGE
;Z:0.17
;HEIGHT:0.01
G1 E.87917 F2400
G92 E0
G1 Z.17 F7800
G1 X108.896 Y108.896
G1 E2 F2400
;TYPE:Perimeter
;WIDTH:0.449999
;HEIGHT:0.05
G1 F3600
G1 X91.104 Y108.896 Z1.878 E2.16246
G1 X91.104 Y102.314 Z.115 E2.22256
G1 X108.896 Y102.314 Z.115 E2.38502
G1 X108.896 Y108.836 Z1.862 E2.44457
G1 X109.336 Y109.336 F7800
G1 Z1.996
G1 F3600
G1 X90.664 Y109.336 Z1.996 E2.61507
G1 X90.664 Y102.169 Z.076 E2.68051
;TYPE:Overhang perimeter
;WIDTH:0.4
;HEIGHT:0.4
M106 S255
G1 X90.664 Y101.874 Z0 E2.69592
G1 X109.336 Y101.874 Z0 E3.67144
G1 X109.336 Y102.169 Z.076 E3.68685
M106 S242.25
;TYPE:Perimeter
;WIDTH:0.449999
;HEIGHT:0.05
G1 X109.336 Y109.276 Z1.98 E3.75175
G1 X109.775 Y109.775 F7800
G1 Z2.114
;TYPE:External perimeter
G1 F1800
G1 X90.225 Y109.775 Z2.114 E3.93027
G1 X90.225 Y102.169 Z.076 E3.99972
;TYPE:Overhang perimeter
;WIDTH:0.4
;HEIGHT:0.4
M106 S255
G1 F3600
G1 X90.225 Y101.435 Z0 E4.03807
G1 X109.775 Y101.435 Z0 E5.05946
G1 X109.775 Y102.169 Z.076 E5.09781
M106 S242.25
;TYPE:External perimeter
;WIDTH:0.449999
;HEIGHT:0.05
G1 F1800
G1 X109.775 Y109.715 Z2.098 E5.16672
G1 X109.379 Y109.774 F7800
G1 E3.16672 F2400
G92 E0
G1 Z2.114 F7800
G1 X105.999 Y108.594
G1 Z1.797
G1 E2 F2400
;TYPE:Internal infill
;WIDTH:0.45
G1 F4800
G1 X103.686 Y108.594 Z1.797 E2.02112
G1 X104.641 Y105.027 Z.842 E2.05484
G1 X105.027 Y105.027 Z.842 E2.05836
G1 X108.594 Y108.594 Z1.797 E2.10442
G1 X108.594 Y106.68 Z1.284 E2.1219
G1 X101.451 Y108.594 Z1.797 E2.18943
G1 X100.414 Y108.594 Z1.797 E2.1989
G1 X96.846 Y105.027 Z.842 E2.24497
G1 X98.653 Y105.027 Z.842 E2.26147
G1 X97.697 Y108.594 Z1.797 E2.29519
G1 X95.384 Y108.594 Z1.797 E2.31631
G1 E.31631 F2400
G92 E0
G1 X92.222 Y105.027 F7800
G1 Z.841
G1 E2 F2400
G1 F4800
G1 X91.406 Y105.027 Z.842 E2.00745
G1 X91.406 Y105.297 Z.914 E2.00992
G1 X92.414 Y105.027 Z.842 E2.01945
G1 X92.665 Y105.027 Z.842 E2.02174
G1 X91.709 Y108.594 Z1.797 E2.05546
G1 X92.233 Y108.594 Z1.797 E2.06024
G1 X91.406 Y107.767 Z1.576 E2.07092
G1 X91.406 Y105.49 Z.966 E2.09171
G1 E.09171 F2400
G92 E0
G1 X108.347 Y102.643 F7800
G1 Z.203
G1 E2 F2400
;TYPE:Solid infill
;WIDTH:0.449999
G1 F1200
G1 X91.433 Y102.643 Z.203 E2.15445
G1 X91.433 Y104.614 Z.731 E2.17245
G1 X108.567 Y104.614 Z.731 E2.32891
G1 X108.567 Y102.643 Z.203 E2.34691
G1 X108.128 Y103.082 Z.32 E2.35258
G1 X108.128 Y104.175 Z.613 E2.36256
G1 X91.872 Y104.175 Z.613 E2.511
G1 X91.872 Y103.082 Z.32 E2.52098
G1 X107.908 Y103.082 Z.32 E2.66741
G1 X107.581 Y103.629 Z.467 E2.67323
;WIDTH:0.664122
G1 X92.419 Y103.629 Z.467 E2.87917
M106 S239.7
;LAYER_CHANGE
;Z:0.18
;HEIGHT:0.01
G1 E.87917 F2400
G92 E0
G1 Z.18 F7800
G1 X108.896 Y108.896
G1 E2 F2400
;TYPE:Perimeter
;WIDTH:0.449999
;HEIGHT:0.05
G1 F3600
G1 X91.104 Y108.896 Z2.189 E2.16246
G1 X91.104 Y101.155 Z.115 E2.23315
G1 X108.896 Y101.155 Z.115 E2.39561
G1 X108.896 Y108.836 Z2.173 E2.46575
G1 X109.336 Y109.336 F7800
G1 Z2.307
G1 F3600
G1 X90.664 Y109.336 Z2.307 E2.63625
G1 X90.664 Y101.01 Z.076 E2.71228
;TYPE:Overhang perimeter
;WIDTH:0.4
;HEIGHT:0.4
M106 S255
G1 X90.664 Y100.715 Z0 E2.72769
G1 X109.336 Y100.715 Z0 E3.70321
G1 X109.336 Y101.01 Z.076 E3.71862
M106 S239.7
;TYPE:Perimeter
;WIDTH:0.449999
;HEIGHT:0.05
G1 X109.336 Y109.276 Z2.291 E3.7941
G1 X109.775 Y109.775 F7800
G1 Z2.424
;TYPE:External perimeter
G1 F1800
G1 X90.225 Y109.775 Z2.424 E3.97262
G1 X90.225 Y101.01 Z.076 E4.05266
;TYPE:Overhang perimeter
;WIDTH:0.4
;HEIGHT:0.4
M106 S255
G1 F3600
G1 X90.225 Y100.276 Z0 E4.09101
G1 X109.775 Y100.276 Z0 E5.1124
G1 X109.775 Y101.01 Z.076 E5.15075
M106 S239.7
;TYPE:External perimeter
;WIDTH:0.449999
;HEIGHT:0.05
G1 F1800
G1 X109.775 Y109.715 Z2.408 E5.23024
G1 X109.379 Y109.774 F7800
G1 E3.23024 F2400
G92 E0
G1 Z2.424 F7800
G1 X105.999 Y108.594
G1 Z2.108
G1 E2 F2400
;TYPE:Internal infill
;WIDTH:0.45
G1 F4800
G1 X103.686 Y108.594 Z2.108 E2.02112
G1 X104.952 Y103.868 Z.842 E2.0658
G1 X103.868 Y103.868 Z.842 E2.0757
G1 X108.594 Y108.594 Z2.108 E2.13673
G1 X108.594 Y106.68 Z1.595 E2.15421
G1 X101.451 Y108.594 Z2.108 E2.22174
G1 X100.414 Y108.594 Z2.108 E2.23121
G1 X95.687 Y103.868 Z.842 E2.29225
G1 E.29225 F2400
G92 E0
G1 X95.384 Y108.594 F7800
G1 Z2.108
G1 E2 F2400
G1 F4800
G1 X97.697 Y108.594 Z2.108 E2.02112
G1 X98.964 Y103.868 Z.842 E2.0658
G1 X96.74 Y103.868 Z.842 E2.08611
G1 X91.406 Y105.297 Z1.224 E2.13653
G1 X91.406 Y107.767 Z1.886 E2.15908
G1 X92.233 Y108.594 Z2.108 E2.16976
G1 X91.709 Y108.594 Z2.108 E2.17454
G1 X92.975 Y103.868 Z.842 E2.21922
G1 X91.406 Y103.868 Z.842 E2.23355
G1 X91.406 Y104.612 Z1.041 E2.24034
G1 E.24034 F2400
G92 E0
G1 X91.433 Y101.704 F7800
G1 Z.262
G1 E2 F2400
;TYPE:Solid infill
;WIDTH:0.449999
G1 F1200
G1 X91.433 Y103.455 Z.731 E2.01599
G1 X108.567 Y103.455 Z.731 E2.17245
G1 X108.567 Y101.484 Z.203 E2.19045
G1 X91.433 Y101.484 Z.203 E2.34691
G1 X91.872 Y101.923 Z.32 E2.35258
G1 X108.128 Y101.923 Z.32 E2.50102
G1 X108.128 Y103.016 Z.613 E2.511
G1 X91.872 Y103.016 Z.613 E2.65944
G1 X91.872 Y102.143 Z.379 E2.66741
G1 X92.419 Y102.47 Z.467 E2.67323
;WIDTH:0.664122
