; generated by PrusaSlicer 2.9.6-beta1 on 2026-06-17 at 23:30:40 UTC

; 

; external perimeters extrusion width = 0.45mm
; perimeters extrusion width = 0.45mm
; infill extrusion width = 0.45mm
; solid infill extrusion width = 0.45mm
; top infill extrusion width = 0.40mm
; first layer extrusion width = 0.70mm

M104 S200 ; set temperature
;TYPE:Custom
G28 ; home all axes
G1 Z5 F5000 ; lift nozzle
M109 S200 ; set temperature and wait for it to be reached
G21 ; set units to millimeters
G90 ; use absolute coordinates
M82 ; use absolute distances for extrusion
G92 E0
; Filament gcode
M107
;LAYER_CHANGE
;Z:0.296927
;HEIGHT:0.296927
G1 E-2 F2400
G92 E0
G1 Z.297 F7800
G1 X85.225 Y94.763
G1 E2 F2400
;TYPE:Skirt/Brim
;WIDTH:0.7
G1 F1800
G1 X86.966 Y93.356 Z0 E2.17583
G1 X90 Y92.579 Z0 E2.42183
G1 X110 Y92.579 Z0 E3.99278
G1 X112.203 Y92.976 Z0 E4.16861
G1 X114.129 Y94.117 Z0 E4.34445
G1 X115.535 Y95.858 Z0 E4.52023
G1 X116.312 Y98.892 Z0 E4.76623
G1 X116.312 Y110 Z2.976 E5.63873
G1 X115.916 Y112.203 Z3.567 E5.81454
G1 X114.775 Y114.129 Z4.083 E5.99038
G1 X113.034 Y115.535 Z4.46 E6.16616
G1 X110 Y116.312 Z4.668 E6.41216
G1 X90 Y116.312 Z4.668 E7.98311
G1 X87.797 Y115.916 Z4.562 E8.15892
G1 X85.871 Y114.775 Z4.256 E8.33476
G1 X84.465 Y113.034 Z3.789 E8.51054
G1 X83.688 Y110 Z2.976 E8.75654
G1 X83.688 Y98.892 Z0 E9.62904
G1 X84.084 Y96.689 Z0 E9.80485
G1 X85.194 Y94.815 Z0 E9.97593
G1 E7.97593 F2400
G92 E0
G1 Z.297 F7800
G92 E0
G1 X108.643 Y108.643
G1 E2 F2400
;TYPE:Perimeter
;WIDTH:0.593854
G1 F1800
G1 X91.357 Y108.643 Z2.613 E3.13126
G1 X91.357 Y100.249 Z.364 E3.6806
G1 X108.643 Y100.249 Z.364 E4.81186
G1 X108.643 Y108.583 Z2.597 E5.35727
G1 Z.297 F7800
G1 X109.173 Y109.173
G1 F1800
G1 X90.827 Y109.173 Z2.755 E6.5579
G1 X90.827 Y99.719 Z.222 E7.17661
G1 X109.173 Y99.719 Z.222 E8.37724
G1 X109.173 Y109.113 Z2.739 E8.99202
G1 Z.297 F7800
G1 X109.703 Y109.703
;TYPE:External perimeter
G1 F1800
G1 X90.297 Y109.703 Z2.897 E10.26202
G1 X90.297 Y99.189 Z.08 E10.9501
G1 X109.703 Y99.189 Z.08 E12.2201
G1 X109.703 Y109.643 Z2.881 E12.90425
G1 X109.308 Y109.702 F7800
G1 E10.90425 F2400
G92 E0
G1 Z.297 F7800
G1 X107.394 Y100.408
G1 E2 F2400
;TYPE:Solid infill
;WIDTH:0.602605
G1 F1800
G1 X108.245 Y101.26 Z.635 E2.08011
G1 X108.245 Y102.022 Z.839 E2.1308
G1 X106.87 Y100.647 Z.47 E2.26016
G1 X106.108 Y100.647 Z.47 E2.31085
G1 X108.245 Y102.784 Z1.043 E2.5119
G1 X108.245 Y103.546 Z1.247 E2.56259
G1 X105.346 Y100.647 Z.47 E2.83533
G1 X104.584 Y100.647 Z.47 E2.88602
G1 X108.245 Y104.308 Z1.451 E3.23044
G1 X108.245 Y105.07 Z1.655 E3.28113
G1 X103.822 Y100.647 Z.47 E3.69724
G1 X103.06 Y100.647 Z.47 E3.74793
G1 X108.245 Y105.832 Z1.86 E4.23573
G1 X108.245 Y106.594 Z2.064 E4.28642
G1 X102.297 Y100.647 Z.47 E4.84596
G1 X101.535 Y100.647 Z.47 E4.89665
G1 X108.245 Y107.357 Z2.268 E5.52792
G1 X108.245 Y108.119 Z2.472 E5.57861
G1 X100.773 Y100.647 Z.47 E6.28157
G1 X100.011 Y100.647 Z.47 E6.33226
G1 X107.61 Y108.245 Z2.506 E7.04712
G1 X106.848 Y108.245 Z2.506 E7.09781
G1 X99.249 Y100.647 Z.47 E7.81267
G1 X98.487 Y100.647 Z.47 E7.86336
G1 X106.086 Y108.245 Z2.506 E8.57822
G1 X105.323 Y108.245 Z2.506 E8.62898
G1 X97.725 Y100.647 Z.47 E9.34379
G1 X96.963 Y100.647 Z.47 E9.39448
G1 X104.561 Y108.245 Z2.506 E10.10929
G1 X103.799 Y108.245 Z2.506 E10.15998
G1 X96.201 Y100.647 Z.47 E10.87479
G1 X95.439 Y100.647 Z.47 E10.92548
G1 X103.037 Y108.245 Z2.506 E11.64029
G1 X102.275 Y108.245 Z2.506 E11.69098
G1 X94.676 Y100.647 Z.47 E12.40584
G1 X93.914 Y100.647 Z.47 E12.45653
G1 X101.513 Y108.245 Z2.506 E13.17139
G1 X100.751 Y108.245 Z2.506 E13.22208
G1 X93.152 Y100.647 Z.47 E13.93694
G1 X92.39 Y100.647 Z.47 E13.98763
G1 X99.989 Y108.245 Z2.506 E14.70249
G1 X99.227 Y108.245 Z2.506 E14.75318
G1 X91.755 Y100.773 Z.504 E15.45614
G1 X91.755 Y101.535 Z.708 E15.50683
G1 X98.465 Y108.245 Z2.506 E16.1381
G1 X97.702 Y108.245 Z2.506 E16.18886
G1 X91.755 Y102.298 Z.913 E16.74835
G1 X91.755 Y103.06 Z1.117 E16.79904
G1 X96.94 Y108.245 Z2.506 E17.28684
G1 X96.178 Y108.245 Z2.506 E17.33753
G1 X91.755 Y103.822 Z1.321 E17.75364
G1 X91.755 Y104.584 Z1.525 E17.80433
G1 X95.416 Y108.245 Z2.506 E18.14875
G1 X94.654 Y108.245 Z2.506 E18.19944
G1 X91.755 Y105.346 Z1.729 E18.47218
G1 X91.755 Y106.108 Z1.934 E18.52287
G1 X93.892 Y108.245 Z2.506 E18.72392
G1 X93.13 Y108.245 Z2.506 E18.77461
G1 X91.755 Y106.87 Z2.138 E18.90397
G1 X91.755 Y107.632 Z2.342 E18.95466
G1 X92.606 Y108.484 Z2.57 E19.03477
;LAYER_CHANGE
;Z:0.60751
;HEIGHT:0.310583
G1 E17.03477 F2400
G92 E0
G1 Z.608 F7800
G1 X109.008 Y109.008
G1 E2 F2400
;TYPE:Perimeter
;WIDTH:0.45
G1 F3600
G1 X90.992 Y109.008 Z3.021 E2.89179
G1 X90.992 Y98.724 Z.266 E3.40085
G1 X109.008 Y98.724 Z.266 E4.29264
G1 X109.008 Y108.948 Z3.005 E4.79873
G1 Z.608 F7800
G1 X109.392 Y109.392
G1 F3600
G1 X90.608 Y109.392 Z3.124 E5.72854
G1 X90.608 Y98.692 Z.257 E6.25819
;TYPE:Overhang perimeter
;WIDTH:0.4
;HEIGHT:0.4
G1 X90.608 Y98.341 Z.163 E6.27653
G1 X109.392 Y98.341 Z.163 E7.2579
G1 X109.392 Y98.692 Z.257 E7.27624
;TYPE:Perimeter
;WIDTH:0.45
;HEIGHT:0.310583
G1 X109.392 Y109.332 Z3.108 E7.80292
G1 Z.608 F7800
G1 X109.775 Y109.775
;TYPE:External perimeter
G1 F1800
G1 X90.225 Y109.775 Z3.227 E8.77064
G1 X90.225 Y98.692 Z.257 E9.31925
;TYPE:Overhang perimeter
;WIDTH:0.4
;HEIGHT:0.4
G1 F3600
G1 X90.225 Y97.958 Z.06 E9.3576
G1 X109.775 Y97.958 Z.06 E10.37899
G1 X109.775 Y98.692 Z.257 E10.41734
;TYPE:External perimeter
;WIDTH:0.45
;HEIGHT:0.310583
G1 F1800
G1 X109.775 Y109.715 Z3.211 E10.96298
G1 X109.379 Y109.774 F7800
G1 E8.96298 F2400
G92 E0
G1 Z.608 F7800
G1 X91.383 Y101.059
G1 E2 F2400
;TYPE:Solid infill
;WIDTH:0.543008
G1 F1200
G1 X91.341 Y101.017 Z.88 E2.00365
G1 X91.284 Y101.033 Z.884 E2.00729
G1 X91.268 Y101.09 Z.9 E2.01093
G1 X91.31 Y101.132 Z.911 E2.01458
G1 X91.368 Y101.117 Z.907 E2.01826
;WIDTH:0.45
G1 X91.279 Y101.729 Z1.071 E2.04887
G1 X91.98 Y101.028 Z.883 E2.09794
G1 X92.522 Y101.028 Z.883 E2.12477
G1 X91.279 Y102.271 Z1.216 E2.21178
G1 X91.279 Y102.813 Z1.361 E2.23861
G1 X93.064 Y101.028 Z.883 E2.36357
G1 X93.607 Y101.028 Z.883 E2.39045
G1 X91.279 Y103.355 Z1.506 E2.55338
G1 X91.279 Y103.898 Z1.652 E2.58026
G1 X94.149 Y101.028 Z.883 E2.78117
G1 X94.691 Y101.028 Z.883 E2.808
G1 X91.279 Y104.44 Z1.797 E3.04685
G1 X91.279 Y104.982 Z1.942 E3.07368
G1 X95.233 Y101.028 Z.883 E3.35047
G1 X95.775 Y101.028 Z.883 E3.3773
G1 X91.279 Y105.524 Z2.088 E3.69204
G1 X91.279 Y106.066 Z2.233 E3.71887
G1 X96.317 Y101.028 Z.883 E4.07155
G1 X96.859 Y101.028 Z.883 E4.09838
G1 X91.279 Y106.608 Z2.378 E4.489
G1 X91.279 Y107.15 Z2.523 E4.51583
G1 X97.401 Y101.028 Z.883 E4.94439
G1 X97.944 Y101.028 Z.883 E4.97127
G1 X91.279 Y107.693 Z2.669 E5.43784
G1 X91.279 Y108.235 Z2.814 E5.46467
G1 X98.486 Y101.028 Z.883 E5.96919
G1 X99.028 Y101.028 Z.883 E5.99602
G1 X91.335 Y108.721 Z2.944 E6.53456
G1 X91.138 Y108.761 Z2.955 E6.54451
;WIDTH:0.406652
G1 X91.143 Y108.857 Z2.981 E6.54873
;WIDTH:0.45
G1 X91.877 Y108.721 Z2.944 E6.58568
G1 X99.57 Y101.028 Z.883 E7.12422
G1 X100.112 Y101.028 Z.883 E7.15105
G1 X92.42 Y108.721 Z2.944 E7.68955
G1 X92.962 Y108.721 Z2.944 E7.71638
G1 X100.654 Y101.028 Z.883 E8.25488
G1 X101.196 Y101.028 Z.883 E8.28171
G1 X93.504 Y108.721 Z2.944 E8.82021
G1 X94.046 Y108.721 Z2.944 E8.84704
G1 X101.739 Y101.028 Z.883 E9.38558
G1 X102.281 Y101.028 Z.883 E9.41241
G1 X94.588 Y108.721 Z2.944 E9.95095
G1 X95.13 Y108.721 Z2.944 E9.97778
G1 X102.823 Y101.028 Z.883 E10.51632
G1 X103.365 Y101.028 Z.883 E10.54315
G1 X95.672 Y108.721 Z2.944 E11.08169
G1 X96.214 Y108.721 Z2.944 E11.10852
G1 X103.907 Y101.028 Z.883 E11.64706
G1 X104.449 Y101.028 Z.883 E11.67389
G1 X96.757 Y108.721 Z2.944 E12.21239
G1 X97.299 Y108.721 Z2.944 E12.23922
G1 X104.991 Y101.028 Z.883 E12.77772
G1 X105.534 Y101.028 Z.883 E12.8046
G1 X97.841 Y108.721 Z2.944 E13.34314
G1 X98.383 Y108.721 Z2.944 E13.36997
G1 X106.076 Y101.028 Z.883 E13.90851
G1 X106.618 Y101.028 Z.883 E13.93534
G1 X98.925 Y108.721 Z2.944 E14.47388
G1 X99.467 Y108.721 Z2.944 E14.50071
G1 X107.16 Y101.028 Z.883 E15.03925
G1 X107.702 Y101.028 Z.883 E15.06608
G1 X100.009 Y108.721 Z2.944 E15.60462
G1 X100.552 Y108.721 Z2.944 E15.6315
G1 X108.244 Y101.028 Z.883 E16.17
G1 X108.71 Y100.887 Z.845 E16.1941
;WIDTH:0.406652
G1 X108.852 Y100.897 Z.848 E16.20035
;WIDTH:0.45
G1 X108.721 Y101.094 Z.901 E16.21206
G1 X101.094 Y108.721 Z2.944 E16.74598
G1 X101.636 Y108.721 Z2.944 E16.77281
G1 X108.721 Y101.636 Z1.046 E17.26878
G1 X108.721 Y102.178 Z1.191 E17.29561
G1 X102.178 Y108.721 Z2.944 E17.75364
G1 X102.72 Y108.721 Z2.944 E17.78047
G1 X108.721 Y102.72 Z1.336 E18.20056
G1 X108.721 Y103.262 Z1.482 E18.22739
G1 X103.262 Y108.721 Z2.944 E18.60954
G1 X103.804 Y108.721 Z2.944 E18.63637
G1 X108.721 Y103.804 Z1.627 E18.98058
G1 X108.721 Y104.347 Z1.772 E19.00746
G1 X104.347 Y108.721 Z2.944 E19.31366
G1 X104.889 Y108.721 Z2.944 E19.34049
G1 X108.721 Y104.889 Z1.918 E19.60874
G1 X108.721 Y105.431 Z2.063 E19.63557
G1 X105.431 Y108.721 Z2.944 E19.86588
G1 X105.973 Y108.721 Z2.944 E19.89271
G1 X108.721 Y105.973 Z2.208 E20.08508
G1 X108.721 Y106.515 Z2.353 E20.11191
G1 X106.515 Y108.721 Z2.944 E20.26634
G1 E18.26634 F2400
G92 E0
G1 Z.608 F7800
G1 X108.585 Y107.193
G1 E2 F2400
G1 F1200
G1 X107.057 Y108.721 Z2.944 E2.10697
G1 X108.721 Y108.721 Z2.944 E2.18934
G1 X108.721 Y107.057 Z2.498 E2.27171
G1 Z.608 F7800
G1 X108.381 Y107.877
;WIDTH:0.362234
G1 F1200
G1 X108.381 Y108.381 Z2.853 E2.29095
G1 X107.877 Y108.381 Z2.853 E2.31019
G1 X108.246 Y108.012 Z2.754 E2.33011
G1 E.33011 F2400
G92 E0
G1 Z.608 F7800
G1 X91.11 Y99.072
G1 E2 F2400
;TYPE:Bridge infill
;WIDTH:0.454042
;HEIGHT:0.4
G1 F3600
G1 X108.687 Y99.072 Z.359 E3.18321
G1 X108.687 Y99.576 Z.494 E3.21714
G1 X91.313 Y99.576 Z.494 E4.38668
G1 X91.313 Y100.08 Z.629 E4.42061
G1 X108.687 Y100.08 Z.629 E5.59015
G1 X108.687 Y100.584 Z.764 E5.62408
G1 X91.11 Y100.584 Z.764 E6.80729
;LAYER_CHANGE
;Z:0.918093
;HEIGHT:0.310583
G1 E4.80729 F2400
G92 E0
G1 Z.918 F7800
G1 X109.008 Y109.008
G1 E2 F2400
;TYPE:Perimeter
;WIDTH:0.45
G1 F3600
G1 X90.992 Y109.008 Z3.332 E2.89179
G1 X90.992 Y97.565 Z.266 E3.45822
G1 X109.008 Y97.565 Z.266 E4.35001
G1 X109.008 Y108.948 Z3.316 E4.91347
G1 Z.918 F7800
G1 X109.392 Y109.392
G1 F3600
G1 X90.608 Y109.392 Z3.435 E5.84328
G1 X90.608 Y97.533 Z.257 E6.4303
;TYPE:Overhang perimeter
;WIDTH:0.4
;HEIGHT:0.4
G1 X90.608 Y97.182 Z.163 E6.44864
G1 X109.392 Y97.182 Z.163 E7.43001
G1 X109.392 Y97.533 Z.257 E7.44835
;TYPE:Perimeter
;WIDTH:0.45
;HEIGHT:0.310583
G1 X109.392 Y109.332 Z3.419 E8.0324
G1 Z.918 F7800
G1 X109.775 Y109.775
;TYPE:External perimeter
G1 F1800
G1 X90.225 Y109.775 Z3.537 E9.00012
G1 X90.225 Y97.533 Z.257 E9.6061
;TYPE:Overhang perimeter
;WIDTH:0.4
;HEIGHT:0.4
G1 F3600
G1 X90.225 Y96.799 Z.06 E9.64445
G1 X109.775 Y96.799 Z.06 E10.66584
G1 X109.775 Y97.533 Z.257 E10.70419
;TYPE:External perimeter
;WIDTH:0.45
;HEIGHT:0.310583
G1 F1800
G1 X109.775 Y109.715 Z3.521 E11.3072
G1 X109.379 Y109.774 F7800
G1 E9.3072 F2400
G92 E0
G1 Z.918 F7800
G1 X91.31 Y108.617
G1 E2 F2400
;TYPE:Solid infill
;WIDTH:0.543008
G1 F1200
G1 X91.268 Y108.659 Z3.238 E2.00365
G1 X91.284 Y108.716 Z3.254 E2.00729
G1 X91.341 Y108.732 Z3.258 E2.01093
G1 X91.383 Y108.69 Z3.247 E2.01458
G1 X91.368 Y108.632 Z3.231 E2.01826
;WIDTH:0.45
G1 X91.279 Y108.02 Z3.067 E2.04887
G1 X91.98 Y108.721 Z3.255 E2.09794
G1 X92.522 Y108.721 Z3.255 E2.12477
G1 X91.279 Y107.478 Z2.922 E2.21178
G1 X91.279 Y106.936 Z2.777 E2.23861
G1 X93.064 Y108.721 Z3.255 E2.36357
G1 X93.607 Y108.721 Z3.255 E2.39045
G1 X91.279 Y106.393 Z2.631 E2.55342
G1 X91.279 Y105.851 Z2.486 E2.58025
G1 X94.149 Y108.721 Z3.255 E2.78116
G1 X94.691 Y108.721 Z3.255 E2.80799
G1 X91.279 Y105.309 Z2.341 E3.04684
G1 X91.279 Y104.767 Z2.195 E3.07367
G1 X95.233 Y108.721 Z3.255 E3.35046
G1 X95.775 Y108.721 Z3.255 E3.37729
G1 X91.279 Y104.225 Z2.05 E3.69203
G1 X91.279 Y103.683 Z1.905 E3.71886
G1 X96.317 Y108.721 Z3.255 E4.07154
G1 X96.859 Y108.721 Z3.255 E4.09837
G1 X91.279 Y103.141 Z1.76 E4.48899
G1 X91.279 Y102.599 Z1.614 E4.51582
G1 X97.401 Y108.721 Z3.255 E4.94438
G1 X97.944 Y108.721 Z3.255 E4.97126
G1 X91.279 Y102.056 Z1.469 E5.43783
G1 X91.279 Y101.514 Z1.324 E5.46466
G1 X98.486 Y108.721 Z3.255 E5.96918
G1 X99.028 Y108.721 Z3.255 E5.99601
G1 X91.279 Y100.972 Z1.179 E6.53847
G1 X91.279 Y100.43 Z1.033 E6.5653
G1 X99.57 Y108.721 Z3.255 E7.1457
G1 X100.112 Y108.721 Z3.255 E7.17253
G1 X91.279 Y99.888 Z.888 E7.79087
G1 X91.803 Y99.869 Z.883 E7.81683
G1 X100.654 Y108.721 Z3.255 E8.43647
G1 X101.196 Y108.721 Z3.255 E8.4633
G1 X92.345 Y99.869 Z.883 E9.08294
G1 X92.887 Y99.869 Z.883 E9.10977
G1 X101.739 Y108.721 Z3.255 E9.72944
G1 X102.281 Y108.721 Z3.255 E9.75627
G1 X93.429 Y99.869 Z.883 E10.37594
G1 X93.971 Y99.869 Z.883 E10.40277
G1 X102.823 Y108.721 Z3.255 E11.02244
G1 X103.365 Y108.721 Z3.255 E11.04927
G1 X94.513 Y99.869 Z.883 E11.66894
G1 X95.055 Y99.869 Z.883 E11.69577
G1 X103.907 Y108.721 Z3.255 E12.31544
G1 X104.449 Y108.721 Z3.255 E12.34227
G1 X95.597 Y99.869 Z.883 E12.96194
G1 X96.14 Y99.869 Z.883 E12.98882
G1 X104.991 Y108.721 Z3.255 E13.60846
G1 X105.534 Y108.721 Z3.255 E13.63534
G1 X96.682 Y99.869 Z.883 E14.25501
G1 X97.224 Y99.869 Z.883 E14.28184
G1 X106.076 Y108.721 Z3.255 E14.90151
G1 X106.618 Y108.721 Z3.255 E14.92834
G1 X97.766 Y99.869 Z.883 E15.54801
G1 X98.308 Y99.869 Z.883 E15.57484
G1 X107.16 Y108.721 Z3.255 E16.19451
G1 X107.702 Y108.721 Z3.255 E16.22134
G1 X98.85 Y99.869 Z.883 E16.84101
G1 X99.392 Y99.869 Z.883 E16.86784
G1 X108.244 Y108.721 Z3.255 E17.48751
G1 X108.852 Y108.852 Z3.29 E17.5183
;WIDTH:0.406652
G1 X108.71 Y108.862 Z3.293 E17.52455
;WIDTH:0.45
G1 X108.721 Y108.655 Z3.237 E17.53481
G1 X99.935 Y99.869 Z.883 E18.14986
G1 X100.477 Y99.869 Z.883 E18.17669
G1 X108.721 Y108.113 Z3.092 E18.7538
G1 X108.721 Y107.571 Z2.947 E18.78063
G1 X101.019 Y99.869 Z.883 E19.3198
G1 X101.561 Y99.869 Z.883 E19.34663
G1 X108.721 Y107.029 Z2.802 E19.84785
G1 X108.721 Y106.487 Z2.656 E19.87468
G1 X102.103 Y99.869 Z.883 E20.33796
G1 X102.645 Y99.869 Z.883 E20.36479
G1 X108.721 Y105.945 Z2.511 E20.79013
G1 X108.721 Y105.402 Z2.366 E20.81701
G1 X103.187 Y99.869 Z.883 E21.20437
G1 X103.73 Y99.869 Z.883 E21.23125
G1 X108.721 Y104.86 Z2.22 E21.58064
G1 X108.721 Y104.318 Z2.075 E21.60747
G1 X104.272 Y99.869 Z.883 E21.91892
G1 X104.814 Y99.869 Z.883 E21.94575
G1 X108.721 Y103.776 Z1.93 E22.21925
G1 X108.721 Y103.234 Z1.785 E22.24608
G1 X105.356 Y99.869 Z.883 E22.48164
G1 X105.898 Y99.869 Z.883 E22.50847
G1 X108.721 Y102.692 Z1.639 E22.70609
G1 X108.721 Y102.15 Z1.494 E22.73292
G1 X106.44 Y99.869 Z.883 E22.8926
G1 X108.721 Y99.869 Z.883 E23.00551
G1 X108.721 Y101.607 Z1.349 E23.09154
G1 X107.118 Y100.005 Z.919 E23.20372
G1 X107.828 Y100.219 Z.977 E23.24043
;WIDTH:0.384154
G1 X108.37 Y100.219 Z.977 E23.26265
G1 X108.37 Y100.761 Z1.122 E23.28487
G1 X107.964 Y100.355 Z1.013 E23.30841
G1 E21.30841 F2400
G92 E0
G1 Z.918 F7800
G1 X91.11 Y97.913
G1 E2 F2400
;TYPE:Bridge infill
;WIDTH:0.454043
;HEIGHT:0.4
G1 F3600
G1 X108.687 Y97.913 Z.359 E3.18321
G1 X108.687 Y98.417 Z.494 E3.21714
G1 X91.313 Y98.417 Z.494 E4.38669
G1 X91.313 Y98.921 Z.629 E4.42062
G1 X108.687 Y98.921 Z.629 E5.59017
G1 X108.687 Y99.425 Z.764 E5.6241
G1 X91.11 Y99.425 Z.764 E6.80731
M106 S244.8
;LAYER_CHANGE
;Z:1.22868
;HEIGHT:0.310583
G1 E4.80731 F2400
G92 E0
G1 Z1.229 F7800
G1 X109.008 Y109.008
G1 E2 F2400
;TYPE:Perimeter
;WIDTH:0.45
G1 F3600
G1 X90.992 Y109.008 Z3.642 E2.89179
G1 X90.992 Y96.406 Z.266 E3.51559
G1 X109.008 Y96.406 Z.266 E4.40738
G1 X109.008 Y108.948 Z3.626 E5.02821
G1 Z1.229 F7800
G1 X109.392 Y109.392
G1 F3600
G1 X90.608 Y109.392 Z3.745 E5.95802
G1 X90.608 Y96.374 Z.257 E6.60241
;TYPE:Overhang perimeter
;WIDTH:0.4
;HEIGHT:0.4
M106 S255
G1 X90.608 Y96.023 Z.163 E6.62075
G1 X109.392 Y96.023 Z.163 E7.60212
G1 X109.392 Y96.374 Z.257 E7.62046
M106 S244.8
;TYPE:Perimeter
;WIDTH:0.45
;HEIGHT:0.310583
G1 X109.392 Y109.332 Z3.729 E8.26188
G1 Z1.229 F7800
G1 X109.775 Y109.775
;TYPE:External perimeter
G1 F1800
G1 X90.225 Y109.775 Z3.848 E9.2296
G1 X90.225 Y96.374 Z.257 E9.89295
;TYPE:Overhang perimeter
;WIDTH:0.4
;HEIGHT:0.4
M106 S255
G1 F3600
G1 X90.225 Y95.64 Z.06 E9.9313
