; generated by PrusaSlicer 2.9.6-beta1 on 2026-06-18 at 01:37:29 UTC

; 

; external perimeters extrusion width = 0.45mm
; perimeters extrusion width = 0.45mm
; infill extrusion width = 0.45mm
; solid infill extrusion width = 0.45mm
; top infill extrusion width = 0.40mm
; first layer extrusion width = 0.70mm

M104 S200 ; set temperature
;TYPE:Custom
G28 ; home all axes
G1 Z5 F5000 ; lift nozzle
M109 S200 ; set temperature and wait for it to be reached
G21 ; set units to millimeters
G90 ; use absolute coordinates
M82 ; use absolute distances for extrusion
G92 E0
; Filament gcode
M107
;LAYER_CHANGE
;Z:0.1
;HEIGHT:0.1
G1 E-2 F2400
G92 E0
G1 Z.1 F7800
G92 E0
G1 X109.872 Y109.826
G1 E2 F2400
;TYPE:External perimeter
;WIDTH:0.28995
G1 F600
G1 X109.821 Y109.855 Z0 E2.00065
G1 X109.872 Y109.884 Z0 E2.0013
G1 X109.889 Y109.855 Z0 E2.00168
;LAYER_CHANGE
;Z:0.11
;HEIGHT:0.01
G1 Z.11 F7800
G1 X109.801 Y109.801
;WIDTH:0.398868
;HEIGHT:0.05
G1 F600
G1 X109.422 Y109.801 Z.029 E2.00474
;TYPE:Overhang perimeter
;WIDTH:0.4
;HEIGHT:0.4
G1 F900
G1 X109.138 Y109.801 Z0 E2.01958
G1 X109.801 Y109.138 Z0 E2.06857
G1 X109.801 Y109.422 Z.029 E2.08341
;TYPE:External perimeter
;WIDTH:0.398868
;HEIGHT:0.05
G1 F600
G1 X109.801 Y109.741 Z.159 E2.08598
G1 X109.405 Y109.8 F7800
;LAYER_CHANGE
;Z:0.12
;HEIGHT:0.01
G1 Z.12 F7800
G1 X109.407 Y109.358
;TYPE:Perimeter
;WIDTH:0.405524
;HEIGHT:0.05
G1 F600
G1 X109.383 Y109.401 Z.196 E2.08638
G1 X109.309 Y109.358 Z.149 E2.08708
G1 X109.383 Y109.315 Z.161 E2.08778
G1 X109.775 Y109.775 F7800
G1 Z.509
;TYPE:External perimeter
;WIDTH:0.449999
G1 F600
G1 X108.599 Y109.775 Z.029 E2.09852
;TYPE:Overhang perimeter
;WIDTH:0.4
;HEIGHT:0.4
G1 F900
G1 X108.351 Y109.775 Z0 E2.11148
G1 X109.775 Y108.351 Z0 E2.21669
G1 X109.775 Y108.599 Z.029 E2.22965
;TYPE:External perimeter
;WIDTH:0.449999
;HEIGHT:0.05
G1 F600
G1 X109.775 Y109.715 Z.485 E2.23984
G1 X109.379 Y109.774 F7800
M106 S255
;LAYER_CHANGE
;Z:0.13
;HEIGHT:0.01
G1 Z.13 F7800
G1 X109.332 Y109.332
;TYPE:Perimeter
;WIDTH:0.456655
;HEIGHT:0.05
G1 F600
G1 X108.571 Y109.332 Z.183 E2.24689
G1 X109.332 Y108.571 Z.183 E2.25687
G1 X109.332 Y109.272 Z.469 E2.26337
G1 X109.775 Y109.775 F7800
G1 Z.856
;TYPE:External perimeter
;WIDTH:0.449999
G1 F600
G1 X107.75 Y109.775 Z.029 E2.28186
;TYPE:Overhang perimeter
;WIDTH:0.4
;HEIGHT:0.4
G1 F900
G1 X107.503 Y109.775 Z0 E2.29476
G1 X109.775 Y107.503 Z0 E2.46263
G1 X109.775 Y107.75 Z.029 E2.47553
;TYPE:External perimeter
;WIDTH:0.449999
;HEIGHT:0.05
G1 F600
G1 X109.775 Y109.715 Z.831 E2.49347
G1 X109.379 Y109.774 F7800
;LAYER_CHANGE
;Z:0.14
;HEIGHT:0.01
G1 Z.14 F7800
G1 X108.925 Y108.861
;TYPE:Perimeter
;WIDTH:0.5211
;HEIGHT:0.05
G1 F600
G1 X108.893 Y108.916 Z.491 E2.49415
G1 X108.829 Y108.916 Z.465 E2.49483
G1 X108.797 Y108.861 Z.43 E2.49551
G1 X108.829 Y108.806 Z.42 E2.49619
G1 X108.893 Y108.806 Z.446 E2.49687
G1 X109.336 Y109.336 F7800
G1 Z.843
;WIDTH:0.449999
G1 F600
G1 X107.715 Y109.336 Z.182 E2.51167
G1 X109.336 Y107.715 Z.182 E2.5326
G1 X109.336 Y109.276 Z.819 E2.54685
G1 X109.775 Y109.775 F7800
G1 Z1.202
;TYPE:External perimeter
G1 F600
G1 X106.902 Y109.775 Z.029 E2.57308
;TYPE:Overhang perimeter
;WIDTH:0.4
;HEIGHT:0.4
G1 F900
G1 X106.654 Y109.775 Z0 E2.58604
G1 X109.775 Y106.654 Z0 E2.81664
G1 X109.775 Y106.902 Z.029 E2.8296
;TYPE:External perimeter
;WIDTH:0.449999
;HEIGHT:0.05
G1 F600
G1 X109.775 Y109.715 Z1.177 E2.85529
G1 X109.379 Y109.774 F7800
;LAYER_CHANGE
;Z:0.15
;HEIGHT:0.01
G1 Z.15 F7800
G1 X108.864 Y108.864
;TYPE:Perimeter
;WIDTH:0.514443
;HEIGHT:0.05
G1 F600
G1 X108.004 Y108.864 Z.453 E2.8643
G1 X108.864 Y108.004 Z.453 E2.87704
G1 X108.864 Y108.804 Z.78 E2.88542
G1 X109.336 Y109.336 F7800
G1 Z1.19
;WIDTH:0.449999
G1 F600
G1 X106.866 Y109.336 Z.182 E2.90797
G1 X109.336 Y106.866 Z.182 E2.93987
G1 X109.336 Y109.276 Z1.165 E2.96188
G1 X109.775 Y109.775 F7800
G1 Z1.548
;TYPE:External perimeter
G1 F600
G1 X106.053 Y109.775 Z.029 E2.99587
;TYPE:Overhang perimeter
;WIDTH:0.4
;HEIGHT:0.4
G1 F900
G1 X105.806 Y109.775 Z0 E3.00877
G1 X109.775 Y105.806 Z0 E3.30202
G1 X109.775 Y106.053 Z.029 E3.31492
;TYPE:External perimeter
;WIDTH:0.449999
;HEIGHT:0.05
G1 F600
G1 X109.775 Y109.715 Z1.524 E3.34836
G1 X109.379 Y109.774 F7800
;LAYER_CHANGE
;Z:0.16
;HEIGHT:0.00999999
G1 Z.16 F7800
G1 X108.896 Y108.896
;TYPE:Perimeter
;HEIGHT:0.05
G1 F600
G1 X107.078 Y108.896 Z.435 E3.36496
G1 X108.896 Y107.078 Z.435 E3.38844
G1 X108.896 Y108.836 Z1.153 E3.40449
G1 X109.336 Y109.336 F7800
G1 Z1.536
G1 F600
G1 X106.018 Y109.336 Z.182 E3.43479
G1 X109.336 Y106.018 Z.182 E3.47764
G1 X109.336 Y109.276 Z1.512 E3.50739
G1 X109.775 Y109.775 F7800
G1 Z1.895
;TYPE:External perimeter
G1 F600
G1 X105.205 Y109.775 Z.029 E3.54912
;TYPE:Overhang perimeter
;WIDTH:0.4
;HEIGHT:0.4
G1 F900
G1 X104.957 Y109.775 Z0 E3.56208
G1 X109.775 Y104.957 Z0 E3.91806
G1 X109.775 Y105.205 Z.029 E3.93102
;TYPE:External perimeter
;WIDTH:0.449999
;HEIGHT:0.05
G1 F600
G1 X109.775 Y109.715 Z1.87 E3.9722
G1 X109.379 Y109.774 F7800
G1 Z1.733
G1 X107.854 Y108.575
G1 Z.621
;TYPE:Solid infill
;WIDTH:0.433519
G1 F600
G1 X108.575 Y107.854 Z.621 E3.98116
G1 X108.575 Y108.575 Z.915 E3.9875
G1 X108.073 Y108.575 Z.71 E3.99191
;LAYER_CHANGE
;Z:0.17
;HEIGHT:0.01
G1 Z.17 F7800
G1 X108.896 Y108.896
;TYPE:Perimeter
;WIDTH:0.449999
;HEIGHT:0.05
G1 F600
G1 X106.23 Y108.896 Z.435 E4.01625
G1 X108.896 Y106.23 Z.435 E4.05068
G1 X108.896 Y108.836 Z1.499 E4.07448
G1 X109.336 Y109.336 F7800
G1 Z1.882
G1 F600
G1 X105.169 Y109.336 Z.182 E4.11253
G1 X109.336 Y105.169 Z.182 E4.16634
G1 X109.336 Y109.276 Z1.858 E4.20384
G1 X109.775 Y109.775 F7800
G1 Z2.241
;TYPE:External perimeter
G1 F600
G1 X104.356 Y109.775 Z.029 E4.25332
;TYPE:Overhang perimeter
;WIDTH:0.4
;HEIGHT:0.4
G1 F900
G1 X104.109 Y109.775 Z0 E4.26622
G1 X109.775 Y104.109 Z0 E4.68485
G1 X109.775 Y104.356 Z.029 E4.69775
;TYPE:External perimeter
;WIDTH:0.449999
;HEIGHT:0.05
G1 F600
G1 X109.775 Y109.715 Z2.217 E4.74668
G1 X109.379 Y109.774 F7800
G1 E2.74668 F2400
G92 E0
G1 Z2.079 F7800
G1 X108.567 Y107.025
G1 Z.625
G1 E2 F2400
;TYPE:Solid infill
G1 F600
G1 X108.567 Y108.567 Z1.255 E2.01408
G1 X107.025 Y108.567 Z.625 E2.02816
G1 X108.412 Y107.18 Z.625 E2.04607
G1 X108.171 Y108.1 F7800
G1 Z.903
;WIDTH:0.474828
G1 F600
G1 X108.13 Y108.059 Z.869 E2.04663
G1 X108.074 Y108.074 Z.852 E2.04719
G1 X108.059 Y108.13 Z.869 E2.04775
G1 X108.1 Y108.171 Z.903 E2.04831
G1 X108.156 Y108.156 Z.919 E2.04887
M106 S252.45
;LAYER_CHANGE
;Z:0.18
;HEIGHT:0.01
G1 Z.18 F7800
G1 X108.896 Y108.896
;TYPE:Perimeter
;WIDTH:0.449999
;HEIGHT:0.05
G1 F784
G1 X105.381 Y108.896 Z.435 E2.08097
G1 X108.896 Y105.381 Z.435 E2.12636
G1 X108.896 Y108.836 Z1.845 E2.15791
G1 X109.336 Y109.336 F7800
G1 Z2.229
G1 F784
G1 X104.32 Y109.336 Z.181 E2.20371
G1 X109.336 Y104.32 Z.181 E2.26848
G1 X109.336 Y109.276 Z2.205 E2.31373
G1 X109.775 Y109.775 F7800
G1 Z2.588
;TYPE:External perimeter
G1 F784
G1 X103.507 Y109.775 Z.029 E2.37097
;TYPE:Overhang perimeter
;WIDTH:0.4
;HEIGHT:0.4
M106 S255
G1 F900
G1 X103.26 Y109.775 Z0 E2.38387
G1 X109.775 Y103.26 Z0 E2.86523
G1 X109.775 Y103.507 Z.029 E2.87813
M106 S252.45
;TYPE:External perimeter
;WIDTH:0.449999
;HEIGHT:0.05
G1 F784
G1 X109.775 Y109.715 Z2.563 E2.93482
G1 X109.379 Y109.774 F7800
G1 E.93482 F2400
G92 E0
G1 Z2.426 F7800
G1 X106.176 Y108.567
G1 Z.625
G1 E2 F2400
;TYPE:Solid infill
G1 F784
G1 X108.567 Y106.176 Z.625 E2.03088
G1 X108.567 Y108.567 Z1.601 E2.05271
G1 X106.396 Y108.567 Z.715 E2.07253
G1 X107.287 Y108.107 F7800
G1 Z.891
;WIDTH:0.491306
G1 F784
G1 X108.107 Y107.287 Z.891 E2.08411
G1 X108.107 Y108.107 Z1.226 E2.0923
G1 X107.506 Y108.107 Z.98 E2.0983
;LAYER_CHANGE
;Z:0.19
;HEIGHT:0.00999999
G1 Z.19 F7800
G1 X108.896 Y108.896
;TYPE:Perimeter
;WIDTH:0.449999
;HEIGHT:0.05
G1 F900
G1 X104.532 Y108.896 Z.435 E2.13815
G1 X108.896 Y104.532 Z.435 E2.19451
G1 X108.896 Y108.836 Z2.192 E2.23381
G1 X109.336 Y109.336 F7800
G1 Z2.575
G1 F900
G1 X103.472 Y109.336 Z.182 E2.28736
G1 X109.336 Y103.472 Z.182 E2.36309
G1 X109.336 Y109.276 Z2.551 E2.41609
G1 X109.775 Y109.775 F7800
G1 Z2.934
;TYPE:External perimeter
G1 F900
G1 X102.659 Y109.775 Z.029 E2.48107
;TYPE:Overhang perimeter
;WIDTH:0.4
;HEIGHT:0.4
M106 S255
G1 X102.411 Y109.775 Z0 E2.49403
G1 X109.775 Y102.411 Z0 E3.03812
G1 X109.775 Y102.659 Z.029 E3.05108
M106 S252.45
;TYPE:External perimeter
;WIDTH:0.449999
;HEIGHT:0.05
G1 X109.775 Y109.715 Z2.909 E3.11551
G1 X109.379 Y109.774 F7800
G1 E1.11551 F2400
G92 E0
G1 Z2.772 F7800
G1 X108.628 Y105.181
G1 Z.59
G1 E2 F2400
;TYPE:Solid infill
;WIDTH:0.35073
G1 F1200
G1 X108.489 Y105.25 Z.562 E2.0011
G1 X105.25 Y108.489 Z.562 E2.03347
G1 X105.181 Y108.628 Z.59 E2.03457
;WIDTH:0.449999
G1 X105.638 Y108.567 Z.752 E2.03878
G1 X108.567 Y105.638 Z.752 E2.0766
G1 X108.567 Y106.26 Z1.006 E2.08228
G1 X106.26 Y108.567 Z1.006 E2.11207
G1 X106.742 Y108.785 Z1.292 E2.1169
;WIDTH:0.35073
G1 X106.701 Y108.796 Z1.279 E2.1172
G1 X106.682 Y108.724 Z1.242 E2.11773
G1 X106.753 Y108.743 Z1.279 E2.11825
;WIDTH:0.400365
G1 X106.817 Y108.655 Z1.269 E2.11913
;WIDTH:0.449999
G1 X106.881 Y108.567 Z1.259 E2.12012
G1 X108.567 Y106.881 Z1.259 E2.14189
G1 X108.521 Y107.613 Z1.539 E2.14859
;WIDTH:0.54227
G1 X108.521 Y108.521 Z1.91 E2.15862
G1 X107.613 Y108.521 Z1.539 E2.16865
G1 X108.366 Y107.769 Z1.54 E2.18041
M106 S249.9
;LAYER_CHANGE
;Z:0.2
;HEIGHT:0.01
G1 Z.2 F7800
G1 X108.896 Y108.896
;TYPE:Perimeter
;WIDTH:0.449999
;HEIGHT:0.05
G1 F900
G1 X103.684 Y108.896 Z.435 E2.228
G1 X108.896 Y103.684 Z.435 E2.29531
G1 X108.896 Y108.836 Z2.538 E2.34235
G1 X109.336 Y109.336 F7800
G1 Z2.922
G1 F900
G1 X102.623 Y109.336 Z.181 E2.40365
G1 X109.336 Y102.623 Z.181 E2.49034
G1 X109.336 Y109.276 Z2.897 E2.55109
G1 X109.775 Y109.775 F7800
G1 Z3.28
;TYPE:External perimeter
G1 F900
G1 X101.81 Y109.775 Z.029 E2.62382
;TYPE:Overhang perimeter
;WIDTH:0.4
;HEIGHT:0.4
M106 S255
G1 X101.563 Y109.775 Z0 E2.63672
G1 X109.775 Y101.563 Z0 E3.24347
G1 X109.775 Y101.81 Z.029 E3.25637
M106 S249.9
;TYPE:External perimeter
;WIDTH:0.449999
;HEIGHT:0.05
G1 X109.775 Y109.715 Z3.256 E3.32855
G1 X109.379 Y109.774 F7800
G1 E1.32855 F2400
G92 E0
G1 Z3.119 F7800
G1 X104.479 Y108.567
G1 Z.625
G1 E2 F2400
;TYPE:Solid infill
G1 F1200
G1 X108.567 Y104.479 Z.625 E2.05279
G1 X108.567 Y108.567 Z2.294 E2.09012
G1 X104.699 Y108.567 Z.715 E2.12544
G1 X105.54 Y108.128 F7800
G1 Z.879
G1 F1200
G1 X108.128 Y105.54 Z.879 E2.15886
G1 X108.128 Y108.128 Z1.936 E2.18249
G1 X105.759 Y108.128 Z.968 E2.20412
G1 X106.72 Y107.639 F7800
G1 Z1.161
;WIDTH:0.549093
G1 F1200
G1 X107.639 Y106.72 Z1.161 E2.21866
G1 X107.639 Y107.639 Z1.536 E2.22894
G1 X106.94 Y107.639 Z1.251 E2.23676
M106 S244.8
;LAYER_CHANGE
;Z:0.21
;HEIGHT:0.00999999
G1 E.23676 F2400
G92 E0
G1 Z.21 F7800
G1 X108.896 Y108.896
G1 E2 F2400
;TYPE:Perimeter
;WIDTH:0.449999
;HEIGHT:0.05
G1 F900
G1 X102.835 Y108.896 Z.435 E2.05535
G1 X108.896 Y102.835 Z.435 E2.13362
G1 X108.896 Y108.836 Z2.885 E2.18842
G1 X109.336 Y109.336 F7800
G1 Z3.268
G1 F900
G1 X101.775 Y109.336 Z.182 E2.25746
G1 X109.336 Y101.775 Z.182 E2.3551
G1 X109.336 Y109.276 Z3.244 E2.42359
G1 X109.775 Y109.775 F7800
G1 Z3.627
;TYPE:External perimeter
G1 F900
G1 X100.962 Y109.775 Z.029 E2.50406
;TYPE:Overhang perimeter
;WIDTH:0.4
;HEIGHT:0.4
M106 S255
G1 X100.714 Y109.775 Z0 E2.51702
G1 X109.775 Y100.714 Z0 E3.1865
G1 X109.775 Y100.962 Z.029 E3.19946
M106 S244.8
;TYPE:External perimeter
;WIDTH:0.449999
;HEIGHT:0.05
G1 X109.775 Y109.715 Z3.602 E3.27939
G1 X109.379 Y109.774 F7800
G1 E1.27939 F2400
G92 E0
G1 Z3.465 F7800
G1 X108.628 Y103.484
G1 Z.59
G1 E2 F2400
;TYPE:Solid infill
;WIDTH:0.35073
G1 F1200
G1 X108.489 Y103.553 Z.562 E2.0011
G1 X103.553 Y108.489 Z.562 E2.05044
G1 X103.484 Y108.628 Z.59 E2.05154
;WIDTH:0.449999
G1 X103.941 Y108.567 Z.752 E2.05575
G1 X108.567 Y103.941 Z.752 E2.11549
G1 X108.567 Y104.563 Z1.006 E2.12117
G1 X104.563 Y108.567 Z1.006 E2.17288
G1 X105.184 Y108.567 Z1.259 E2.17855
G1 X108.567 Y105.184 Z1.259 E2.22224
G1 X108.567 Y105.805 Z1.513 E2.22791
G1 X105.805 Y108.567 Z1.513 E2.26358
G1 X106.426 Y108.567 Z1.766 E2.26925
G1 X108.567 Y106.426 Z1.766 E2.2969
G1 X108.567 Y108.567 Z2.64 E2.31645
G1 X107.047 Y108.567 Z2.02 E2.33033
G1 X108.412 Y107.203 Z2.02 E2.34795
G1 X108.176 Y108.107 F7800
G1 Z2.293
;WIDTH:0.461582
G1 F1200
G1 X108.137 Y108.068 Z2.261 E2.34847
G1 X108.082 Y108.082 Z2.244 E2.349
G1 X108.068 Y108.137 Z2.261 E2.34953
G1 X108.107 Y108.176 Z2.293 E2.35005
G1 X108.162 Y108.162 Z2.31 E2.35058
M106 S242.25
;LAYER_CHANGE
;Z:0.22
;HEIGHT:0.01
G1 Z.22 F7800
G1 X108.896 Y108.896
;TYPE:Perimeter
;WIDTH:0.449999
;HEIGHT:0.05
G1 F900
G1 X101.987 Y108.896 Z.435 E2.41367
G1 X108.896 Y101.987 Z.435 E2.50289
G1 X108.896 Y108.836 Z3.231 E2.56543
G1 X109.336 Y109.336 F7800
G1 Z3.615
G1 F900
G1 X100.926 Y109.336 Z.181 E2.64222
G1 X109.336 Y100.926 Z.181 E2.75082
G1 X109.336 Y109.276 Z3.59 E2.82707
G1 X109.775 Y109.775 F7800
G1 Z3.973
;TYPE:External perimeter
G1 F900
G1 X100.113 Y109.775 Z.029 E2.9153
;TYPE:Overhang perimeter
;WIDTH:0.4
;HEIGHT:0.4
M106 S255
G1 X99.866 Y109.775 Z0 E2.9282
G1 X109.775 Y99.866 Z0 E3.66033
G1 X109.775 Y100.113 Z.029 E3.67323
M106 S242.25
;TYPE:External perimeter
;WIDTH:0.449999
;HEIGHT:0.05
G1 X109.775 Y109.715 Z3.949 E3.76091
G1 X109.379 Y109.774 F7800
G1 E1.76091 F2400
G92 E0
G1 Z3.811 F7800
G1 X102.782 Y108.567
G1 Z.625
G1 E2 F2400
;TYPE:Solid infill
G1 F1200
G1 X108.567 Y102.782 Z.625 E2.07471
G1 X108.567 Y108.567 Z2.987 E2.12753
G1 X103.002 Y108.567 Z.715 E2.17835
G1 X103.843 Y108.128 F7800
G1 Z.879
G1 F1200
G1 X108.128 Y103.843 Z.879 E2.23369
G1 X108.128 Y108.128 Z2.628 E2.27282
G1 X104.062 Y108.128 Z.969 E2.30995
G1 X104.903 Y107.688 F7800
G1 Z1.132
G1 F1200
G1 X107.688 Y104.903 Z1.132 E2.34591
G1 X107.688 Y107.688 Z2.269 E2.37134
G1 X105.123 Y107.688 Z1.222 E2.39476
G1 X106.153 Y107.171 F7800
G1 Z1.431
;WIDTH:0.60688
G1 F1200
G1 X107.171 Y106.153 Z1.431 E2.4126
G1 X107.171 Y107.171 Z1.847 E2.42522
G1 X106.373 Y107.171 Z1.521 E2.43511
M106 S237.15
;LAYER_CHANGE
;Z:0.23
;HEIGHT:0.01
G1 E.43511 F2400
G92 E0
G1 Z.23 F7800
G1 X108.896 Y108.896
G1 E2 F2400
;TYPE:Perimeter
;WIDTH:0.449999
;HEIGHT:0.05
G1 F900
G1 X101.138 Y108.896 Z.435 E2.07084
G1 X108.896 Y101.138 Z.435 E2.17102
G1 X108.896 Y108.836 Z3.577 E2.24131
G1 X109.336 Y109.336 F7800
G1 Z3.961
G1 F900
G1 X100.078 Y109.336 Z.182 E2.32585
G1 X109.336 Y100.078 Z.182 E2.4454
G1 X109.336 Y109.276 Z3.937 E2.52939
G1 X109.775 Y109.775 F7800
G1 Z4.32
;TYPE:External perimeter
G1 F900
G1 X99.265 Y109.775 Z.029 E2.62536
;TYPE:Overhang perimeter
;WIDTH:0.4
;HEIGHT:0.4
M106 S255
G1 X99.017 Y109.775 Z0 E2.63832
G1 X109.775 Y99.017 Z0 E3.43318
G1 X109.775 Y99.265 Z.029 E3.44614
M106 S237.15
;TYPE:External perimeter
;WIDTH:0.449999
;HEIGHT:0.05
G1 X109.775 Y109.715 Z4.295 E3.54156
G1 X109.379 Y109.774 F7800
G1 E1.54156 F2400
G92 E0
G1 Z4.158 F7800
G1 X108.628 Y101.787
G1 Z.59
G1 E2 F2400
;TYPE:Solid infill
;WIDTH:0.35073
G1 F1200
G1 X108.489 Y101.856 Z.562 E2.0011
G1 X101.856 Y108.489 Z.562 E2.0674
G1 X101.787 Y108.628 Z.59 E2.0685
;WIDTH:0.449999
G1 X102.244 Y108.567 Z.752 E2.07271
G1 X108.567 Y102.244 Z.752 E2.15436
G1 X108.567 Y102.866 Z1.006 E2.16004
G1 X102.866 Y108.567 Z1.006 E2.23366
G1 X103.487 Y108.567 Z1.259 E2.23933
G1 X108.567 Y103.487 Z1.259 E2.30493
G1 X108.567 Y104.108 Z1.513 E2.3106
G1 X104.108 Y108.567 Z1.513 E2.36818
G1 X104.729 Y108.567 Z1.766 E2.37385
G1 X108.567 Y104.729 Z1.766 E2.42341
G1 X108.567 Y105.35 Z2.02 E2.42908
G1 X105.35 Y108.567 Z2.02 E2.47062
G1 X105.972 Y108.567 Z2.274 E2.4763
G1 X108.567 Y105.972 Z2.274 E2.50981
G1 X108.567 Y106.593 Z2.527 E2.51548
G1 X106.593 Y108.567 Z2.527 E2.54097
G1 E.54097 F2400
G92 E0
G1 X108.412 Y107.369 F7800
G1 Z2.781
G1 E2 F2400
G1 F1200
G1 X107.214 Y108.567 Z2.781 E2.01547
G1 X108.567 Y108.567 Z3.333 E2.02782
G1 X108.567 Y107.214 Z2.781 E2.04017
M106 S232.05
;LAYER_CHANGE
;Z:0.24
;HEIGHT:0.00999999
G1 Z.24 F7800
G1 X108.896 Y108.896
;TYPE:Perimeter
;HEIGHT:0.05
G1 F900
G1 X100.29 Y108.896 Z.435 E2.11875
G1 X108.896 Y100.29 Z.435 E2.22989
G1 X108.896 Y108.836 Z3.924 E2.30793
G1 X109.336 Y109.336 F7800
G1 Z4.307
G1 F900
G1 X99.229 Y109.336 Z.181 E2.40022
