; generated by PrusaSlicer 2.9.6-beta1 on 2026-06-18 at 01:37:45 UTC

; 

; external perimeters extrusion width = 0.45mm
; perimeters extrusion width = 0.45mm
; infill extrusion width = 0.45mm
; solid infill extrusion width = 0.45mm
; top infill extrusion width = 0.40mm
; first layer extrusion width = 0.70mm

M104 S200 ; set temperature
;TYPE:Custom
G28 ; home all axes
G1 Z5 F5000 ; lift nozzle
M109 S200 ; set temperature and wait for it to be reached
G21 ; set units to millimeters
G90 ; use absolute coordinates
M82 ; use absolute distances for extrusion
G92 E0
; Filament gcode
M107
;LAYER_CHANGE
;Z:0.35
;HEIGHT:0.35
G1 E-2 F2400
G92 E0
G1 Z.35 F7800
G1 X88.504 Y88.503
G1 E2 F2400
;TYPE:Skirt/Brim
;WIDTH:0.7
G1 F1800
G1 X89.086 Y87.921 E2.07484
G1 X91.157 Y86.332 E2.3122
G1 X92.584 Y85.508 E2.46204
G1 X94.996 Y84.509 E2.69943
G1 X96.588 Y84.082 E2.84931
G1 X99.176 Y83.742 E3.08666
G1 X100.869 Y83.748 E3.2406
G1 X103.412 Y84.082 E3.47382
G1 X105.004 Y84.509 E3.6237
G1 X107.416 Y85.508 E3.86109
G1 X108.843 Y86.332 E4.01093
G1 X110.914 Y87.921 E4.24829
G1 X112.079 Y89.086 E4.3981
G1 X113.668 Y91.157 E4.63546
G1 X114.492 Y92.584 E4.7853
G1 X115.491 Y94.996 E5.02269
G1 X115.918 Y96.588 E5.17257
G1 X116.258 Y99.176 E5.40992
G1 X116.258 Y100.824 E5.55977
G1 X115.918 Y103.412 E5.79712
G1 X115.491 Y105.004 E5.947
G1 X114.492 Y107.416 E6.18439
G1 X113.668 Y108.843 E6.33423
G1 X112.079 Y110.914 E6.57159
G1 X110.914 Y112.079 E6.7214
G1 X108.843 Y113.668 E6.95876
G1 X107.416 Y114.492 E7.1086
G1 X105.004 Y115.491 E7.34599
G1 X103.412 Y115.918 E7.49587
G1 X100.824 Y116.258 E7.73322
G1 X99.176 Y116.258 E7.88307
G1 X96.588 Y115.918 E8.12042
G1 X94.996 Y115.491 E8.2703
G1 X92.584 Y114.492 E8.50769
G1 X91.157 Y113.668 E8.65753
G1 X89.086 Y112.079 E8.89489
G1 X87.921 Y110.914 E9.0447
G1 X86.332 Y108.843 E9.28206
G1 X85.508 Y107.416 E9.4319
G1 X84.509 Y105.004 E9.66929
G1 X84.082 Y103.412 E9.81917
G1 X83.742 Y100.824 E10.05652
G1 X83.742 Y99.176 E10.20637
G1 X84.082 Y96.588 E10.44372
G1 X84.509 Y94.996 E10.5936
G1 X85.508 Y92.584 E10.83099
G1 X86.332 Y91.157 E10.98083
G1 X87.921 Y89.086 E11.21819
G1 X88.462 Y88.545 E11.28776
G1 E9.28776 F2400
G92 E0
G92 E0
G1 X105.93 Y105.93 F7800
G1 E2 F2400
;TYPE:Perimeter
;WIDTH:0.7
G1 F1800
G1 X104.193 Y107.263 E2.19909
G1 X102.171 Y108.101 E2.39811
G1 X100 Y108.386 E2.59721
G1 X97.829 Y108.101 E2.79631
G1 X95.807 Y107.263 E2.99533
G1 X94.073 Y105.932 E3.1941
G1 X92.721 Y104.154 E3.3972
G1 X91.899 Y102.171 E3.59239
G1 X91.614 Y100 E3.79149
G1 X91.899 Y97.829 E3.99059
G1 X92.737 Y95.807 E4.18961
G1 X94.07 Y94.07 E4.3887
G1 X95.807 Y92.737 E4.58779
G1 X97.826 Y91.901 E4.78649
G1 X100.042 Y91.619 E4.98961
G1 X102.171 Y91.899 E5.18487
G1 X104.193 Y92.737 E5.38389
G1 X105.93 Y94.07 E5.58298
G1 X107.263 Y95.807 E5.78207
G1 X108.101 Y97.829 E5.98109
G1 X108.386 Y100 E6.18019
G1 X108.101 Y102.171 E6.37929
G1 X107.263 Y104.193 E6.57831
G1 X105.967 Y105.882 E6.77189
G1 X106.376 Y106.376 F7800
G1 F1800
G1 X104.508 Y107.809 E6.98597
G1 X102.334 Y108.709 E7.19992
G1 X100 Y109.017 E7.41399
G1 X97.666 Y108.709 E7.62806
G1 X95.492 Y107.809 E7.84201
G1 X93.626 Y106.377 E8.05589
G1 X92.175 Y104.468 E8.27393
G1 X91.291 Y102.334 E8.48396
G1 X90.983 Y100 E8.69803
G1 X91.291 Y97.666 E8.9121
G1 X92.191 Y95.492 E9.12605
G1 X93.624 Y93.624 E9.34013
G1 X95.492 Y92.191 E9.55421
G1 X97.664 Y91.291 E9.76799
G1 X100.043 Y90.989 E9.98605
G1 X102.334 Y91.291 E10.19617
G1 X104.508 Y92.191 E10.41012
G1 X106.376 Y93.624 E10.6242
G1 X107.809 Y95.492 E10.83828
G1 X108.709 Y97.666 E11.05223
G1 X109.017 Y100 E11.2663
G1 X108.709 Y102.334 E11.48037
G1 X107.809 Y104.508 E11.69432
G1 X106.412 Y106.328 E11.90294
G1 X106.821 Y106.821 F7800
;TYPE:External perimeter
G1 F1800
G1 X104.823 Y108.355 E12.13199
G1 X102.497 Y109.318 E12.3609
G1 X100 Y109.647 E12.58991
G1 X97.503 Y109.318 E12.81892
G1 X95.177 Y108.355 E13.04783
G1 X93.179 Y106.822 E13.27682
G1 X91.628 Y104.782 E13.50984
G1 X90.682 Y102.497 E13.73472
G1 X90.353 Y100 E13.96373
G1 X90.682 Y97.503 E14.19274
G1 X91.645 Y95.177 E14.42165
G1 X93.179 Y93.179 E14.6507
G1 X95.177 Y91.645 E14.87975
G1 X97.502 Y90.682 E15.10858
G1 X100.045 Y90.359 E15.34167
G1 X102.497 Y90.682 E15.56656
G1 X104.823 Y91.645 E15.79547
G1 X106.821 Y93.179 E16.02452
G1 X108.355 Y95.177 E16.25357
G1 X109.318 Y97.503 E16.48248
G1 X109.647 Y100 E16.71149
G1 X109.318 Y102.497 E16.9405
G1 X108.355 Y104.823 E17.16941
G1 X106.858 Y106.774 E17.39302
G1 X106.549 Y107.028 F7800
G1 E15.39302 F2400
G92 E0
G1 X104.085 Y92.895 F7800
G1 E2 F2400
;TYPE:Solid infill
;WIDTH:0.708079
G1 F1800
G1 X105.602 Y94.413 E2.19766
G1 X106.853 Y96.043 E2.38691
G1 X107.218 Y96.924 E2.47474
G1 X103.076 Y92.782 E3.01426
G1 X102.048 Y92.356 E3.11675
G1 X101.711 Y92.312 E3.14805
G1 X107.688 Y98.289 E3.92659
G1 X107.824 Y99.32 E4.02237
G1 X100.68 Y92.176 E4.95292
G1 X100.041 Y92.092 E5.01228
G1 X99.739 Y92.13 E5.04032
G1 X107.878 Y100.269 E6.10048
G1 X107.774 Y101.06 E6.17396
G1 X98.945 Y92.231 E7.32399
G1 X98.151 Y92.332 E7.39771
G1 X107.67 Y101.851 E8.63762
G1 X107.644 Y102.048 E8.65592
G1 X107.447 Y102.524 E8.70337
G1 X97.476 Y92.553 E10.00216
G1 X96.844 Y92.815 E10.06517
G1 X107.185 Y103.157 E11.41222
G1 X106.923 Y103.789 E11.47523
G1 X96.211 Y93.077 E12.87054
G1 X96.043 Y93.147 E12.8873
G1 X95.671 Y93.432 E12.93046
G1 X106.568 Y104.329 E14.34986
G1 X106.179 Y104.836 E14.40872
G1 X95.164 Y93.821 E15.84349
G1 X94.658 Y94.21 E15.90228
G1 X105.79 Y105.342 E17.35229
G1 X105.596 Y105.596 E17.38173
G1 X105.343 Y105.79 E17.41109
G1 X94.21 Y94.657 E18.86123
G1 X93.821 Y95.164 E18.92009
G1 X104.836 Y106.179 E20.35486
G1 X104.33 Y106.567 E20.41359
G1 X93.433 Y95.67 E21.83299
G1 X93.147 Y96.043 E21.87628
G1 X93.077 Y96.21 E21.89296
G1 X103.79 Y106.923 E23.2884
G1 X103.157 Y107.185 E23.3515
G1 X92.815 Y96.843 E24.69861
G1 X92.553 Y97.476 E24.76171
G1 X102.524 Y107.447 E26.0605
G1 X102.048 Y107.644 E26.10795
G1 X101.852 Y107.67 E26.12616
G1 X92.33 Y98.148 E27.36646
G1 X92.226 Y98.939 E27.43994
G1 X101.061 Y107.774 E28.59075
G1 X100.27 Y107.878 E28.66423
G1 X92.122 Y99.73 E29.72556
G1 X92.086 Y100 E29.75065
G1 X92.176 Y100.679 E29.81374
G1 X99.321 Y107.824 E30.74442
G1 X98.29 Y107.689 E30.84019
G1 X92.311 Y101.71 E31.61899
G1 X92.356 Y102.048 E31.6504
G1 X92.781 Y103.075 E31.75277
G1 X96.925 Y107.219 E32.29255
G1 X96.043 Y106.853 E32.3805
G1 X94.415 Y105.604 E32.56949
G1 X92.929 Y104.118 E32.76305
;LAYER_CHANGE
;Z:0.65
;HEIGHT:0.3
G1 E30.76305 F2400
G92 E0
G1 Z.65 F7800
G1 X106.361 Y106.361
G1 E2 F2400
;TYPE:Perimeter
;WIDTH:0.45
G1 F3600
G1 X104.498 Y107.79 E2.11293
G1 X102.328 Y108.689 E2.2259
G1 X100 Y108.995 E2.33883
G1 X97.672 Y108.689 E2.45176
G1 X95.502 Y107.79 E2.56473
G1 X93.639 Y106.361 E2.67766
G1 X92.21 Y104.498 E2.79059
G1 X91.311 Y102.328 E2.90356
G1 X91.005 Y100 E3.01649
G1 X91.311 Y97.672 E3.12942
G1 X92.21 Y95.502 E3.24239
G1 X93.639 Y93.639 E3.35532
G1 X95.502 Y92.21 E3.46825
G1 X97.672 Y91.311 E3.58122
G1 X100 Y91.005 E3.69415
G1 X102.328 Y91.311 E3.80708
G1 X104.498 Y92.21 E3.92005
G1 X106.361 Y93.639 E4.03298
G1 X107.79 Y95.502 E4.14591
G1 X108.689 Y97.672 E4.25888
G1 X108.995 Y100 E4.37181
G1 X108.689 Y102.328 E4.48474
G1 X107.79 Y104.498 E4.59771
G1 X106.397 Y106.313 E4.70775
G1 X106.636 Y106.636 F7800
G1 F3600
G1 X104.692 Y108.127 E4.82558
G1 X102.429 Y109.064 E4.94338
G1 X100 Y109.384 E5.06122
G1 X97.571 Y109.064 E5.17906
G1 X95.308 Y108.127 E5.29686
G1 X93.364 Y106.636 E5.41469
G1 X91.873 Y104.692 E5.53252
G1 X90.936 Y102.429 E5.65032
G1 X90.616 Y100 E5.76816
G1 X90.936 Y97.571 E5.886
G1 X91.873 Y95.308 E6.0038
G1 X93.364 Y93.364 E6.12163
G1 X95.308 Y91.873 E6.23946
G1 X97.571 Y90.936 E6.35726
G1 X100 Y90.616 E6.4751
G1 X102.429 Y90.936 E6.59294
G1 X104.692 Y91.873 E6.71074
G1 X106.636 Y93.364 E6.82857
G1 X108.127 Y95.308 E6.9464
G1 X109.064 Y97.571 E7.0642
G1 X109.384 Y100 E7.18204
G1 X109.064 Y102.429 E7.29988
G1 X108.127 Y104.692 E7.41768
G1 X106.672 Y106.588 E7.53263
G1 X106.911 Y106.911 F7800
;TYPE:External perimeter
G1 F1800
G1 X104.887 Y108.464 E7.65533
G1 X102.529 Y109.44 E7.77807
G1 X100 Y109.773 E7.90076
G1 X97.471 Y109.44 E8.02345
G1 X95.113 Y108.464 E8.14619
G1 X93.089 Y106.911 E8.26889
G1 X91.536 Y104.887 E8.39159
G1 X90.56 Y102.529 E8.51433
G1 X90.227 Y100 E8.63702
G1 X90.56 Y97.471 E8.75971
G1 X91.536 Y95.113 E8.88245
G1 X93.089 Y93.089 E9.00515
G1 X95.113 Y91.536 E9.12785
G1 X97.471 Y90.56 E9.25059
G1 X100 Y90.227 E9.37328
G1 X102.529 Y90.56 E9.49597
G1 X104.887 Y91.536 E9.61871
G1 X106.911 Y93.089 E9.74141
G1 X108.464 Y95.113 E9.86411
G1 X109.44 Y97.471 E9.98685
G1 X109.773 Y100 E10.10954
G1 X109.44 Y102.529 E10.23223
G1 X108.464 Y104.887 E10.35497
G1 X106.947 Y106.863 E10.47479
G1 X106.638 Y107.117 F7800
G1 E8.47479 F2400
G92 E0
G1 X95.621 Y92.416 F7800
G1 E2 F2400
;TYPE:Solid infill
;WIDTH:0.404381
G1 F1200
G1 X95.28 Y92.715 E2.01923
;WIDTH:0.45
G1 X95.008 Y92.954 E2.03664
G1 X92.954 Y95.008 E2.17635
G1 X92.715 Y95.28 E2.19376
;WIDTH:0.404381
G1 X92.417 Y95.62 E2.21293
G1 X92.033 Y96.627 F7800
G1 F1200
G1 X91.992 Y96.638 E2.21473
G1 X91.973 Y96.567 E2.21785
G1 X92.044 Y96.586 E2.22097
;WIDTH:0.45
G1 X92.182 Y96.325 E2.23517
G1 X96.325 Y92.182 E2.51697
G1 X97.567 Y91.603 F7800
;WIDTH:0.404381
G1 F1200
G1 X97.496 Y91.584 E2.52009
G1 X97.515 Y91.655 E2.52321
G1 X97.556 Y91.644 E2.52501
;WIDTH:0.45
G1 X97.256 Y91.797 E2.54121
G1 X91.797 Y97.256 E2.91252
G1 X91.656 Y97.517 E2.92679
;WIDTH:0.404381
G1 X91.585 Y97.498 E2.92991
G1 X91.604 Y97.569 E2.93303
G1 X91.645 Y97.558 E2.93483
;WIDTH:0.45
G1 X91.554 Y98.044 E2.95861
G1 X98.044 Y91.554 E3.40005
G1 X98.672 Y91.471 E3.43052
G1 X91.471 Y98.672 E3.92032
G1 X91.389 Y99.3 E3.95078
G1 X99.3 Y91.389 E4.48888
G1 X99.928 Y91.306 E4.51935
G1 X91.306 Y99.928 E5.10581
G1 X91.353 Y100.427 E5.12992
G1 X100.427 Y91.353 E5.74712
G1 X100.908 Y91.416 E5.77045
G1 X91.416 Y100.908 E6.41608
G1 X91.48 Y101.39 E6.43947
G1 X101.39 Y91.48 E7.11354
G1 X101.872 Y91.543 E7.13692
G1 X91.543 Y101.872 E7.83949
G1 X91.627 Y102.334 E7.86207
G1 X102.334 Y91.627 E8.59035
G1 X102.719 Y91.786 E8.61038
G1 X91.786 Y102.719 E9.35403
G1 X91.946 Y103.105 E9.37413
G1 X103.105 Y91.946 E10.13315
G1 X103.491 Y92.106 E10.15325
G1 X92.106 Y103.491 E10.92764
G1 X92.266 Y103.876 E10.94769
G1 X103.876 Y92.266 E11.73739
G1 X104.262 Y92.425 E11.75747
G1 X92.425 Y104.262 E12.56261
G1 X92.644 Y104.588 E12.5815
G1 X104.588 Y92.644 E13.39392
G1 X104.897 Y92.881 E13.41265
G1 X92.881 Y104.897 E14.22996
G1 X93.118 Y105.206 E14.24869
G1 X105.206 Y93.118 E15.0709
G1 X105.514 Y93.355 E15.08959
G1 X93.355 Y105.514 E15.91663
G1 X93.591 Y105.823 E15.93533
G1 X105.823 Y93.591 E16.76734
G1 X106.131 Y93.828 E16.78603
G1 X93.828 Y106.131 E17.62286
G1 X94.131 Y106.373 E17.64151
G1 X106.373 Y94.131 E18.4742
G1 X106.61 Y94.44 E18.49293
G1 X94.44 Y106.61 E19.32072
G1 X94.748 Y106.847 E19.33941
G1 X106.847 Y94.748 E20.16237
G1 X107.084 Y95.057 E20.1811
G1 X95.057 Y107.084 E20.99916
G1 X95.366 Y107.321 E21.01789
G1 X107.321 Y95.366 E21.83105
G1 X107.551 Y95.681 E21.84981
G1 X95.681 Y107.551 E22.65719
G1 X96.066 Y107.711 E22.67724
G1 X107.711 Y96.066 E23.46932
G1 X107.87 Y96.452 E23.4894
G1 X96.452 Y107.87 E24.26604
G1 X96.838 Y108.03 E24.28614
G1 X108.03 Y96.838 E25.04741
G1 X108.19 Y97.223 E25.06746
G1 X97.223 Y108.19 E25.81342
G1 X97.609 Y108.349 E25.8335
G1 X108.349 Y97.609 E26.56402
G1 X108.448 Y98.056 E26.58604
G1 X98.056 Y108.448 E27.29289
G1 X98.538 Y108.511 E27.31627
G1 X108.511 Y98.538 E27.99462
G1 X108.574 Y99.02 E28.018
G1 X99.02 Y108.574 E28.66785
G1 X99.502 Y108.638 E28.69124
G1 X108.638 Y99.502 E29.31266
G1 X108.701 Y99.984 E29.33604
G1 X99.984 Y108.701 E29.92896
G1 X100.607 Y108.624 E29.95915
G1 X108.624 Y100.607 E30.50446
G1 X108.541 Y101.235 E30.53493
G1 X101.235 Y108.541 E31.03188
G1 E29.03188 F2400
G92 E0
G1 X108.466 Y102.451 F7800
G1 E2 F2400
;WIDTH:0.404381
G1 F1200
G1 X108.593 Y101.928 E2.02282
;WIDTH:0.45
G1 X108.458 Y101.863 E2.03003
G1 X101.863 Y108.458 E2.47861
G1 X101.928 Y108.593 E2.48582
;WIDTH:0.404381
G1 X102.451 Y108.466 E2.50864
;WIDTH:0.45
G1 X102.606 Y108.261 E2.521
G1 X108.261 Y102.606 E2.90565
G1 X108.095 Y103.253 E2.93778
;WIDTH:0.404381
G1 X108.024 Y103.234 E2.9409
G1 X108.043 Y103.305 E2.94402
G1 X108.084 Y103.294 E2.94582
;WIDTH:0.45
G1 X107.875 Y103.537 E2.96124
G1 X103.537 Y107.875 E3.25631
G1 X103.297 Y108.088 E3.27174
;WIDTH:0.404381
G1 X103.256 Y108.099 E3.27354
G1 X103.237 Y108.028 E3.27666
G1 X103.308 Y108.047 E3.27978
G1 X104.364 Y107.559 F7800
;WIDTH:0.453226
G1 F1200
G1 X104.648 Y107.31 E3.2981
;WIDTH:0.502071
G1 X104.931 Y107.061 E3.31868
;WIDTH:0.550916
G1 X105.215 Y106.812 E3.3416
;WIDTH:0.599761
G1 X105.499 Y106.564 E3.36678
;WIDTH:0.648606
G1 X105.782 Y106.315 E3.39425
;WIDTH:0.697451
G1 X106.066 Y106.066 E3.42407
G1 X106.315 Y105.783 E3.45383
;WIDTH:0.648606
G1 X106.563 Y105.499 E3.4813
;WIDTH:0.599761
G1 X106.812 Y105.216 E3.50647
;WIDTH:0.550916
G1 X107.06 Y104.932 E3.52935
;WIDTH:0.502071
G1 X107.309 Y104.649 E3.54993
;WIDTH:0.453226
G1 X107.557 Y104.366 E3.56818
;LAYER_CHANGE
;Z:0.95
;HEIGHT:0.3
G1 E1.56818 F2400
G92 E0
G1 Z.95 F7800
G1 X106.361 Y106.361
G1 E2 F2400
;TYPE:Perimeter
;WIDTH:0.45
G1 F3600
G1 X104.498 Y107.79 E2.11293
G1 X102.328 Y108.689 E2.2259
G1 X100 Y108.995 E2.33883
G1 X97.672 Y108.689 E2.45176
G1 X95.502 Y107.79 E2.56473
G1 X93.639 Y106.361 E2.67766
G1 X92.21 Y104.498 E2.79059
G1 X91.311 Y102.328 E2.90356
G1 X91.005 Y100 E3.01649
G1 X91.311 Y97.672 E3.12942
G1 X92.21 Y95.502 E3.24239
G1 X93.639 Y93.639 E3.35532
G1 X95.502 Y92.21 E3.46825
G1 X97.672 Y91.311 E3.58122
G1 X100 Y91.005 E3.69415
G1 X102.328 Y91.311 E3.80708
G1 X104.498 Y92.21 E3.92005
G1 X106.361 Y93.639 E4.03298
G1 X107.79 Y95.502 E4.14591
G1 X108.689 Y97.672 E4.25888
G1 X108.995 Y100 E4.37181
G1 X108.689 Y102.328 E4.48474
G1 X107.79 Y104.498 E4.59771
G1 X106.397 Y106.313 E4.70775
G1 X106.636 Y106.636 F7800
G1 F3600
G1 X104.692 Y108.127 E4.82558
G1 X102.429 Y109.064 E4.94338
G1 X100 Y109.384 E5.06122
G1 X97.571 Y109.064 E5.17906
G1 X95.308 Y108.127 E5.29686
G1 X93.364 Y106.636 E5.41469
G1 X91.873 Y104.692 E5.53252
G1 X90.936 Y102.429 E5.65032
G1 X90.616 Y100 E5.76816
G1 X90.936 Y97.571 E5.886
G1 X91.873 Y95.308 E6.0038
G1 X93.364 Y93.364 E6.12163
G1 X95.308 Y91.873 E6.23946
G1 X97.571 Y90.936 E6.35726
G1 X100 Y90.616 E6.4751
G1 X102.429 Y90.936 E6.59294
G1 X104.692 Y91.873 E6.71074
G1 X106.636 Y93.364 E6.82857
G1 X108.127 Y95.308 E6.9464
G1 X109.064 Y97.571 E7.0642
G1 X109.384 Y100 E7.18204
G1 X109.064 Y102.429 E7.29988
G1 X108.127 Y104.692 E7.41768
G1 X106.672 Y106.588 E7.53263
G1 X106.911 Y106.911 F7800
;TYPE:External perimeter
G1 F1800
G1 X104.887 Y108.464 E7.65533
G1 X102.529 Y109.44 E7.77807
G1 X100 Y109.773 E7.90076
G1 X97.471 Y109.44 E8.02345
G1 X95.113 Y108.464 E8.14619
G1 X93.089 Y106.911 E8.26889
G1 X91.536 Y104.887 E8.39159
G1 X90.56 Y102.529 E8.51433
G1 X90.227 Y100 E8.63702
G1 X90.56 Y97.471 E8.75971
G1 X91.536 Y95.113 E8.88245
G1 X93.089 Y93.089 E9.00515
G1 X95.113 Y91.536 E9.12785
G1 X97.471 Y90.56 E9.25059
G1 X100 Y90.227 E9.37328
G1 X102.529 Y90.56 E9.49597
G1 X104.887 Y91.536 E9.61871
G1 X106.911 Y93.089 E9.74141
G1 X108.464 Y95.113 E9.86411
G1 X109.44 Y97.471 E9.98685
G1 X109.773 Y100 E10.10954
G1 X109.44 Y102.529 E10.23223
G1 X108.464 Y104.887 E10.35497
G1 X106.947 Y106.863 E10.47479
G1 X106.638 Y107.117 F7800
G1 E8.47479 F2400
G92 E0
G1 X92.416 Y104.379 F7800
G1 E2 F2400
;TYPE:Solid infill
;WIDTH:0.404381
G1 F1200
G1 X92.715 Y104.72 E2.01923
;WIDTH:0.45
G1 X92.954 Y104.992 E2.03664
G1 X95.008 Y107.046 E2.17635
G1 X95.28 Y107.285 E2.19376
;WIDTH:0.404381
G1 X95.62 Y107.583 E2.21293
G1 X96.627 Y107.967 F7800
G1 F1200
G1 X96.638 Y108.008 E2.21473
G1 X96.567 Y108.027 E2.21785
G1 X96.586 Y107.956 E2.22097
;WIDTH:0.45
G1 X96.325 Y107.818 E2.23517
G1 X92.182 Y103.675 E2.51697
G1 X91.603 Y102.433 F7800
;WIDTH:0.404381
G1 F1200
G1 X91.584 Y102.504 E2.52009
G1 X91.655 Y102.485 E2.52321
G1 X91.644 Y102.444 E2.52501
;WIDTH:0.45
G1 X91.797 Y102.744 E2.54121
G1 X97.256 Y108.203 E2.91252
G1 X97.517 Y108.344 E2.92679
;WIDTH:0.404381
G1 X97.498 Y108.415 E2.92991
