; generated by PrusaSlicer 2.9.6-beta1 on 2026-06-18 at 01:37:45 UTC

; 

; external perimeters extrusion width = 0.45mm
; perimeters extrusion width = 0.45mm
; infill extrusion width = 0.45mm
; solid infill extrusion width = 0.45mm
; top infill extrusion width = 0.40mm
; first layer extrusion width = 0.70mm

M104 S200 ; set temperature
;TYPE:Custom
G28 ; home all axes
G1 Z5 F5000 ; lift nozzle
M109 S200 ; set temperature and wait for it to be reached
G21 ; set units to millimeters
G90 ; use absolute coordinates
M82 ; use absolute distances for extrusion
G92 E0
; Filament gcode
M107
;LAYER_CHANGE
;Z:0.1
;HEIGHT:0.1
G1 E-2 F2400
G92 E0
G1 Z.1 F7800
G92 E0
G1 X109.494 Y97.458
G1 E2 F2400
;TYPE:External perimeter
;WIDTH:0.376228
G1 F600
G1 X109.512 Y97.734 Z0 E2.00408
G1 E.00408 F2400
G92 E0
G1 X109.494 Y102.544 F7800
G1 E2 F2400
;WIDTH:0.376226
G1 F600
G1 X109.512 Y102.266 Z0 E2.00411
G1 E.00411 F2400
G92 E0
G1 X109.514 Y97.739 F7800
G1 E2 F2400
;WIDTH:0.376228
G1 F600
G1 X109.544 Y97.831 Z0 E2.00143
;WIDTH:0.338422
G1 X109.575 Y97.927 Z0 E2.00276
;WIDTH:0.300617
G1 X109.607 Y98.024 Z0 E2.00395
;WIDTH:0.262811
G1 X109.639 Y98.12 Z0 E2.00497
;WIDTH:0.265787
G1 X109.701 Y98.747 Z0 E2.01137
;WIDTH:0.306569
G1 X109.762 Y99.373 Z0 E2.01883
;WIDTH:0.347351
G1 X109.824 Y100 Z0 E2.02737
G1 X109.762 Y100.627 Z0 E2.03591
;WIDTH:0.306569
G1 X109.701 Y101.253 Z0 E2.04337
;WIDTH:0.265787
G1 X109.639 Y101.88 Z0 E2.04977
;WIDTH:0.26281
G1 X109.607 Y101.976 Z0 E2.05079
;WIDTH:0.300616
G1 X109.575 Y102.073 Z0 E2.05198
;WIDTH:0.338421
G1 X109.544 Y102.169 Z0 E2.05331
;WIDTH:0.376226
G1 X109.512 Y102.266 Z0 E2.05482
G1 X109.493 Y102.166 Z0 E2.05632
;WIDTH:0.338421
G1 X109.474 Y102.066 Z0 E2.05766
;WIDTH:0.300616
G1 X109.455 Y101.966 Z0 E2.05884
;WIDTH:0.26281
G1 X109.436 Y101.867 Z0 E2.05985
;WIDTH:0.265787
G1 X109.457 Y101.244 Z0 E2.06618
;WIDTH:0.306569
G1 X109.477 Y100.622 Z0 E2.07356
;WIDTH:0.347351
G1 X109.498 Y100 Z0 E2.08199
G1 X109.477 Y99.378 Z0 E2.09042
;WIDTH:0.306569
G1 X109.457 Y98.756 Z0 E2.0978
;WIDTH:0.265787
G1 X109.436 Y98.133 Z0 E2.10413
;WIDTH:0.262811
G1 X109.455 Y98.034 Z0 E2.10514
;WIDTH:0.300617
G1 X109.474 Y97.934 Z0 E2.10632
;WIDTH:0.338422
G1 X109.493 Y97.834 Z0 E2.10766
;WIDTH:0.376228
G1 X109.502 Y97.788 Z0 E2.10835
G1 X109.655 Y98.158 F7800
;LAYER_CHANGE
;Z:0.11
;HEIGHT:0.01
G1 Z.11 F7800
G1 X108.928 Y97.712
;TYPE:Overhang perimeter
;WIDTH:0.4
;HEIGHT:0.4
G1 F900
G1 X109.124 Y98.085 Z.076 E2.13036
;TYPE:Perimeter
;WIDTH:0.551895
;HEIGHT:0.05
G1 F600
G1 X109.124 Y98.086 Z.076 E2.13037
;WIDTH:0.502919
G1 X109.125 Y98.087 Z.076 E2.13038
;WIDTH:0.453944
G1 X109.125 Y98.088 Z.076 E2.13039
;WIDTH:0.404968
G1 X109.126 Y98.089 Z.076 E2.1304
;WIDTH:0.397255
G1 X109.189 Y98.726 Z.093 E2.13554
;WIDTH:0.438519
G1 X109.251 Y99.363 Z.11 E2.14123
;WIDTH:0.479782
G1 X109.314 Y100 Z.127 E2.14747
G1 X109.251 Y100.637 Z.11 E2.15371
;WIDTH:0.438519
G1 X109.189 Y101.274 Z.093 E2.1594
;WIDTH:0.397255
G1 X109.126 Y101.911 Z.076 E2.16454
;WIDTH:0.355992
G1 X109.125 Y101.912 Z.076 E2.16455
;WIDTH:0.309047
G1 X109.124 Y101.914 Z.076 E2.16456
;WIDTH:0.262102
G1 X109.124 Y101.915 Z.076 E2.16457
;TYPE:Overhang perimeter
;WIDTH:0.4
;HEIGHT:0.4
G1 F900
G1 X108.928 Y102.288 Z.023 E2.18658
G1 X108.782 Y101.889 Z0 E2.20878
G1 X108.844 Y100 Z.001 E2.30752
G1 X108.782 Y98.111 Z0 E2.40626
G1 X108.908 Y97.769 Z.018 E2.4253
G1 X109.124 Y96.707 F7800
G1 Z.076
;TYPE:External perimeter
;WIDTH:0.449999
;HEIGHT:0.05
G1 F600
G1 X109.44 Y97.471 Z.161 E2.43285
G1 X109.773 Y100 Z.25 E2.45614
G1 X109.44 Y102.529 Z.161 E2.47943
G1 X109.124 Y103.293 Z.076 E2.48698
;TYPE:Overhang perimeter
;WIDTH:0.4
;HEIGHT:0.4
G1 F900
G1 X108.466 Y104.882 Z0 E2.57683
G1 X108.39 Y104.983 Z0 E2.58343
G1 X108.39 Y95.022 Z0 E3.10384
G1 X108.465 Y95.116 Z0 E3.11012
G1 X109.101 Y96.652 Z.07 E3.19698
G1 X109.254 Y97.021 F7800
;LAYER_CHANGE
;Z:0.12
;HEIGHT:0.01
G1 Z.12 F7800
G1 X108.303 Y97.047
;TYPE:Perimeter
;WIDTH:0.470938
;HEIGHT:0.05
G1 F669
G1 X108.575 Y97.706 Z.239 E3.2038
;WIDTH:0.519818
G1 X108.651 Y98.471 Z.26 E3.21194
;WIDTH:0.568698
G1 X108.726 Y99.235 Z.28 E3.22084
;WIDTH:0.617578
G1 X108.801 Y100 Z.3 E3.23054
G1 X108.726 Y100.765 Z.28 E3.24024
;WIDTH:0.568698
G1 X108.651 Y101.529 Z.26 E3.24914
;WIDTH:0.519818
G1 X108.575 Y102.294 Z.239 E3.25728
;WIDTH:0.470938
G1 X108.12 Y103.394 Z.117 E3.26867
G1 X108.12 Y102.237 Z.117 E3.27974
;WIDTH:0.519818
G1 X108.144 Y101.492 Z.124 E3.28763
;WIDTH:0.568698
G1 X108.169 Y100.746 Z.131 E3.29629
;WIDTH:0.617578
G1 X108.193 Y100 Z.137 E3.30571
G1 X108.169 Y99.254 Z.131 E3.31513
;WIDTH:0.568698
G1 X108.144 Y98.508 Z.124 E3.32379
;WIDTH:0.519818
G1 X108.12 Y97.763 Z.117 E3.33168
;WIDTH:0.470938
G1 X108.12 Y96.606 Z.117 E3.34275
G1 X108.28 Y96.992 Z.16 E3.34675
G1 X108.718 Y96.875 F7800
G1 Z.278
;WIDTH:0.449999
G1 F669
G1 X109.012 Y97.585 Z.356 E3.35377
G1 X109.316 Y99.892 Z.438 E3.37502
G1 X109.316 Y100.108 Z.438 E3.37699
G1 X109.012 Y102.415 Z.356 E3.39824
G1 X108.08 Y104.665 Z.107 E3.42048
G1 X107.965 Y104.815 Z.076 E3.42221
;TYPE:Overhang perimeter
;WIDTH:0.4
;HEIGHT:0.4
G1 F900
G1 X107.67 Y105.199 Z0 E3.44751
G1 X107.67 Y94.801 Z0 E3.99075
G1 X107.965 Y95.185 Z.076 E4.01605
;TYPE:Perimeter
;WIDTH:0.449999
;HEIGHT:0.05
G1 F669
G1 X108.08 Y95.335 Z.107 E4.01778
G1 X108.695 Y96.82 Z.271 E4.03246
G1 X109.124 Y96.707 F7800
G1 Z.386
;TYPE:External perimeter
G1 F669
G1 X109.44 Y97.471 Z.471 E4.04001
G1 X109.751 Y99.835 Z.554 E4.06178
G1 X109.751 Y100.165 Z.554 E4.06479
G1 X109.44 Y102.529 Z.471 E4.08656
G1 X108.464 Y104.887 Z.21 E4.10986
G1 X107.965 Y105.537 Z.076 E4.11734
;TYPE:Overhang perimeter
;WIDTH:0.4
;HEIGHT:0.4
G1 F900
G1 X107.231 Y106.494 Z0 E4.18035
G1 X107.231 Y93.506 Z0 E4.85891
G1 X107.965 Y94.463 Z.076 E4.92192
;TYPE:External perimeter
;WIDTH:0.449999
;HEIGHT:0.05
G1 F669
G1 X108.464 Y95.113 Z.21 E4.9294
G1 X109.101 Y96.652 Z.38 E4.94461
G1 X109.254 Y97.021 F7800
M106 S247.35
;LAYER_CHANGE
;Z:0.13
;HEIGHT:0.01
G1 Z.13 F7800
G1 X108.312 Y97.043
;TYPE:Perimeter
;HEIGHT:0.05
G1 F900
G1 X108.584 Y97.7 Z.552 E4.9511
G1 X108.87 Y99.874 Z.629 E4.97112
G1 X108.87 Y100.126 Z.629 E4.97342
G1 X108.584 Y102.3 Z.552 E4.99344
G1 X107.696 Y104.443 Z.314 E5.01462
G1 X106.95 Y105.416 Z.115 E5.02582
G1 X106.95 Y94.584 Z.115 E5.12473
G1 X107.696 Y95.557 Z.314 E5.13593
G1 X108.289 Y96.988 Z.473 E5.15007
G1 X108.718 Y96.875 F7800
G1 Z.588
G1 F900
G1 X109.012 Y97.585 Z.667 E5.15709
G1 X109.306 Y99.817 Z.746 E5.17765
G1 X109.306 Y100.183 Z.746 E5.18099
G1 X109.012 Y102.415 Z.667 E5.20155
G1 X108.08 Y104.665 Z.417 E5.22379
G1 X106.806 Y106.326 Z.076 E5.2429
;TYPE:Overhang perimeter
;WIDTH:0.4
;HEIGHT:0.4
M106 S255
G1 X106.601 Y106.592 Z.021 E5.26045
G1 X106.511 Y106.664 Z0 E5.26647
G1 X106.511 Y93.336 Z0 E5.96279
G1 X106.597 Y93.403 Z.02 E5.96849
G1 X106.806 Y93.674 Z.076 E5.98637
M106 S247.35
;TYPE:Perimeter
;WIDTH:0.449999
;HEIGHT:0.05
G1 X108.08 Y95.335 Z.417 E6.00548
G1 X108.695 Y96.82 Z.582 E6.02016
G1 X109.124 Y96.707 F7800
G1 Z.697
;TYPE:External perimeter
G1 F900
G1 X109.44 Y97.471 Z.782 E6.02771
G1 X109.773 Y100 Z.871 E6.051
G1 X109.44 Y102.529 Z.782 E6.07429
G1 X108.464 Y104.887 Z.52 E6.09759
G1 X106.911 Y106.911 Z.104 E6.12089
G1 X106.806 Y106.991 Z.076 E6.1221
;TYPE:Overhang perimeter
;WIDTH:0.4
;HEIGHT:0.4
M106 S255
G1 X106.072 Y107.554 Z0 E6.17043
G1 X106.072 Y92.446 Z0 E6.95975
G1 X106.806 Y93.009 Z.076 E7.00808
M106 S247.35
;TYPE:External perimeter
;WIDTH:0.449999
;HEIGHT:0.05
G1 X106.911 Y93.089 Z.104 E7.00929
G1 X108.464 Y95.113 Z.52 E7.03259
G1 X109.101 Y96.652 Z.691 E7.0478
G1 X109.254 Y97.021 F7800
G1 E5.0478 F2400
G92 E0
G1 Z.732 F7800
G1 X107.28 Y95.583
G1 Z.203
G1 E2 F2400
;TYPE:Solid infill
G1 F1200
G1 X107.394 Y95.704 Z.233 E2.00152
G1 X108.263 Y97.786 Z.466 E2.02212
G1 X108.555 Y100 Z.545 E2.04251
G1 X108.238 Y102.275 Z.46 E2.06348
G1 X107.409 Y104.277 Z.237 E2.08327
G1 X107.319 Y104.394 Z.213 E2.08462
G1 X107.28 Y104.397 Z.203 E2.08498
G1 X107.28 Y95.802 Z.203 E2.16346
G1 E.16346 F2400
G92 E0
G1 X107.778 Y97.917 F7800
G1 Z.336
G1 E2 F2400
;WIDTH:0.608483
G1 F1200
G1 X107.798 Y98.225 Z.342 E2.00384
;WIDTH:0.648934
G1 X107.818 Y98.534 Z.347 E2.00795
G1 X107.799 Y98.585 Z.342 E2.00867
;WIDTH:0.611102
G1 X107.78 Y98.637 Z.337 E2.00936
;WIDTH:0.57327
G1 X107.762 Y98.689 Z.332 E2.01
;WIDTH:0.535437
G1 X107.743 Y98.74 Z.327 E2.01059
;WIDTH:0.497605
G1 X107.719 Y98.804 Z.321 E2.01128
;WIDTH:0.450401
G1 X107.695 Y98.869 Z.314 E2.01191
;WIDTH:0.403196
G1 X107.672 Y98.933 Z.308 E2.01246
;WIDTH:0.390958
G1 X107.689 Y99.467 Z.313 E2.01668
;WIDTH:0.425923
G1 X107.707 Y100 Z.317 E2.02128
G1 X107.689 Y100.533 Z.313 E2.02588
;WIDTH:0.390958
G1 X107.672 Y101.067 Z.308 E2.0301
;WIDTH:0.404815
G1 X107.696 Y101.133 Z.314 E2.03068
;WIDTH:0.453639
G1 X107.721 Y101.2 Z.321 E2.03134
;WIDTH:0.502462
G1 X107.745 Y101.266 Z.328 E2.03206
;WIDTH:0.551285
G1 X107.769 Y101.333 Z.334 E2.03286
;WIDTH:0.600109
G1 X107.794 Y101.4 Z.341 E2.03374
;WIDTH:0.648932
G1 X107.818 Y101.466 Z.347 E2.03467
G1 X107.851 Y101.403 Z.356 E2.03561
;WIDTH:0.600109
G1 X107.884 Y101.341 Z.365 E2.03647
;WIDTH:0.551285
G1 X107.917 Y101.278 Z.374 E2.03727
;WIDTH:0.502462
G1 X107.95 Y101.215 Z.382 E2.038
;WIDTH:0.453639
G1 X107.983 Y101.152 Z.391 E2.03865
;WIDTH:0.404815
G1 X108.016 Y101.089 Z.4 E2.03923
;WIDTH:0.390958
G1 X108.069 Y100.545 Z.414 E2.04355
;WIDTH:0.425923
G1 X108.123 Y100 Z.429 E2.04828
G1 X108.069 Y99.455 Z.414 E2.05301
;WIDTH:0.390958
G1 X108.016 Y98.911 Z.4 E2.05733
;WIDTH:0.404816
G1 X107.983 Y98.848 Z.391 E2.05791
;WIDTH:0.453639
G1 X107.95 Y98.785 Z.382 E2.05856
;WIDTH:0.502463
G1 X107.917 Y98.722 Z.374 E2.05929
;WIDTH:0.551287
G1 X107.884 Y98.659 Z.365 E2.06009
;WIDTH:0.60011
G1 X107.851 Y98.597 Z.356 E2.06095
;WIDTH:0.648934
G1 X107.818 Y98.534 Z.347 E2.06189
G1 E.06189 F2400
G92 E0
G1 X107.818 Y101.466 F7800
G1 E2 F2400
;WIDTH:0.648932
G1 F1200
G1 X107.798 Y101.775 Z.342 E2.00411
;WIDTH:0.608428
G1 X107.778 Y102.084 Z.336 E2.00796
M106 S239.7
;LAYER_CHANGE
;Z:0.14
;HEIGHT:0.01
G1 E.00796 F2400
G92 E0
G1 Z.14 F7800
G1 X108.312 Y97.043
G1 E2 F2400
;TYPE:Perimeter
;WIDTH:0.449999
;HEIGHT:0.05
G1 F900
G1 X108.584 Y97.7 Z.863 E2.00649
G1 X108.887 Y100 Z.944 E2.02767
G1 X108.584 Y102.3 Z.863 E2.04885
G1 X107.696 Y104.443 Z.625 E2.07003
G1 X106.284 Y106.284 Z.247 E2.09122
G1 X105.791 Y106.662 Z.115 E2.09689
G1 X105.791 Y93.338 Z.115 E2.21856
G1 X106.284 Y93.716 Z.247 E2.22423
G1 X107.696 Y95.557 Z.625 E2.24542
G1 X108.289 Y96.988 Z.784 E2.25956
G1 X108.718 Y96.875 F7800
G1 Z.899
G1 F900
G1 X109.012 Y97.585 Z.978 E2.26658
G1 X109.33 Y100 Z1.063 E2.28882
G1 X109.012 Y102.415 Z.978 E2.31106
G1 X108.08 Y104.665 Z.728 E2.3333
G1 X106.597 Y106.597 Z.331 E2.35554
G1 X105.647 Y107.327 Z.076 E2.36648
;TYPE:Overhang perimeter
;WIDTH:0.4
;HEIGHT:0.4
M106 S255
G1 X105.352 Y107.553 Z0 E2.3859
G1 X105.352 Y92.447 Z0 E3.17511
G1 X105.647 Y92.673 Z.076 E3.19453
M106 S239.7
;TYPE:Perimeter
;WIDTH:0.449999
;HEIGHT:0.05
G1 X106.597 Y93.403 Z.331 E3.20547
G1 X108.08 Y95.335 Z.728 E3.22771
G1 X108.695 Y96.82 Z.893 E3.24239
G1 X109.124 Y96.707 F7800
G1 Z1.008
;TYPE:External perimeter
G1 F900
G1 X109.44 Y97.471 Z1.092 E3.24994
G1 X109.773 Y100 Z1.182 E3.27323
G1 X109.44 Y102.529 Z1.092 E3.29652
G1 X108.464 Y104.887 Z.831 E3.31982
G1 X106.911 Y106.911 Z.415 E3.34312
G1 X105.647 Y107.881 Z.076 E3.35767
;TYPE:Overhang perimeter
;WIDTH:0.4
;HEIGHT:0.4
M106 S255
G1 X104.912 Y108.444 Z0 E3.40604
G1 X104.912 Y91.556 Z0 E4.28835
G1 X105.647 Y92.119 Z.076 E4.33672
M106 S239.7
;TYPE:External perimeter
;WIDTH:0.449999
;HEIGHT:0.05
G1 X106.911 Y93.089 Z.415 E4.35127
G1 X108.464 Y95.113 Z.831 E4.37457
G1 X109.101 Y96.652 Z1.001 E4.38978
G1 X109.254 Y97.021 F7800
G1 E2.38978 F2400
G92 E0
G1 Z1.042 F7800
G1 X106.12 Y105.907
G1 Z.203
G1 E2 F2400
;TYPE:Solid infill
G1 F1200
G1 X106.12 Y94.096 Z.203 E2.10785
G1 X106.16 Y94.099 Z.213 E2.10822
G1 X107.409 Y95.723 Z.548 E2.12693
G1 X108.263 Y97.786 Z.777 E2.14732
G1 X108.555 Y100 Z.855 E2.16771
G1 X108.263 Y102.214 Z.777 E2.1881
G1 X107.409 Y104.277 Z.548 E2.20849
G1 X106.269 Y105.762 Z.243 E2.22558
G1 X106.56 Y104.662 F7800
G1 Z.32
G1 F1200
G1 X106.56 Y95.339 Z.321 E2.31071
G1 X107.025 Y95.944 Z.445 E2.31768
G1 X107.835 Y97.901 Z.662 E2.33702
G1 X108.112 Y100 Z.736 E2.35635
G1 X107.835 Y102.099 Z.662 E2.37568
G1 X107.025 Y104.056 Z.445 E2.39502
G1 X106.693 Y104.488 Z.356 E2.4
G1 E.4 F2400
G92 E0
G1 X107.049 Y100.22 F7800
G1 Z.452
G1 E2 F2400
;WIDTH:0.549331
G1 F1200
G1 X107.03 Y100.79 Z.447 E2.00639
;WIDTH:0.511944
G1 X107.011 Y101.36 Z.441 E2.01233
;WIDTH:0.474557
G1 X106.993 Y101.931 Z.437 E2.01784
;WIDTH:0.43717
G1 X106.993 Y103.003 Z.437 E2.02734
G1 X107.415 Y101.984 Z.55 E2.03712
;WIDTH:0.479353
G1 X107.48 Y101.322 Z.567 E2.0436
;WIDTH:0.521536
G1 X107.545 Y100.661 Z.585 E2.05065
;WIDTH:0.563719
G1 X107.61 Y100 Z.602 E2.05829
G1 X107.545 Y99.339 Z.585 E2.06593
;WIDTH:0.521536
G1 X107.48 Y98.678 Z.567 E2.07298
;WIDTH:0.479353
G1 X107.415 Y98.016 Z.55 E2.07946
;WIDTH:0.43717
G1 X106.993 Y96.997 Z.437 E2.08924
G1 X106.993 Y98.069 Z.437 E2.09874
;WIDTH:0.479353
G1 X107.014 Y98.713 Z.442 E2.10502
;WIDTH:0.521536
G1 X107.035 Y99.356 Z.448 E2.11185
;WIDTH:0.563719
G1 X107.056 Y100 Z.453 E2.11926
M106 S229.5
;LAYER_CHANGE
;Z:0.15
;HEIGHT:0.01
G1 E.11926 F2400
G92 E0
G1 Z.15 F7800
G1 X108.312 Y97.043
G1 E2 F2400
;TYPE:Perimeter
;WIDTH:0.449999
;HEIGHT:0.05
G1 F900
G1 X108.584 Y97.7 Z1.173 E2.00649
G1 X108.887 Y100 Z1.255 E2.02767
G1 X108.584 Y102.3 Z1.173 E2.04885
G1 X107.696 Y104.443 Z.936 E2.07003
G1 X106.284 Y106.284 Z.557 E2.09122
G1 X104.632 Y107.552 Z.115 E2.11024
G1 X104.632 Y92.448 Z.115 E2.24816
G1 X106.284 Y93.716 Z.557 E2.26718
G1 X107.696 Y95.557 Z.936 E2.28837
G1 X108.289 Y96.988 Z1.094 E2.30251
G1 X108.718 Y96.875 F7800
G1 Z1.209
G1 F900
G1 X109.012 Y97.585 Z1.288 E2.30953
G1 X109.33 Y100 Z1.373 E2.33177
G1 X109.012 Y102.415 Z1.288 E2.35401
G1 X108.08 Y104.665 Z1.038 E2.37625
G1 X106.597 Y106.597 Z.641 E2.39849
G1 X104.665 Y108.08 Z.123 E2.42073
G1 X104.487 Y108.154 Z.076 E2.42249
;TYPE:Overhang perimeter
;WIDTH:0.4
;HEIGHT:0.4
M106 S255
G1 X104.193 Y108.276 Z0 E2.43912
G1 X104.193 Y91.724 Z0 E3.30388
G1 X104.487 Y91.846 Z.076 E3.32051
M106 S229.5
;TYPE:Perimeter
;WIDTH:0.449999
;HEIGHT:0.05
G1 X104.665 Y91.92 Z.123 E3.32227
G1 X106.597 Y93.403 Z.641 E3.34451
G1 X108.08 Y95.335 Z1.038 E3.36675
G1 X108.695 Y96.82 Z1.203 E3.38143
G1 X109.124 Y96.707 F7800
G1 Z1.318
;TYPE:External perimeter
G1 F900
G1 X109.44 Y97.471 Z1.403 E3.38898
G1 X109.773 Y100 Z1.492 E3.41227
G1 X109.44 Y102.529 Z1.403 E3.43556
G1 X108.464 Y104.887 Z1.141 E3.45886
G1 X106.911 Y106.911 Z.725 E3.48216
G1 X104.887 Y108.464 Z.183 E3.50546
G1 X104.487 Y108.629 Z.076 E3.50941
;TYPE:Overhang perimeter
;WIDTH:0.4
;HEIGHT:0.4
M106 S255
G1 X103.753 Y108.933 Z0 E3.55092
G1 X103.753 Y91.067 Z0 E4.48433
G1 X104.487 Y91.371 Z.076 E4.52584
M106 S229.5
;TYPE:External perimeter
;WIDTH:0.449999
;HEIGHT:0.05
G1 X104.887 Y91.536 Z.183 E4.52979
G1 X106.911 Y93.089 Z.725 E4.55309
G1 X108.464 Y95.113 Z1.141 E4.57639
G1 X109.101 Y96.652 Z1.312 E4.5916
G1 X109.254 Y97.021 F7800
G1 E2.5916 F2400
G92 E0
G1 Z1.353 F7800
G1 X104.961 Y93.116
G1 Z.203
G1 E2 F2400
;TYPE:Solid infill
G1 F1200
G1 X106.049 Y93.951 Z.494 E2.01252
G1 X107.409 Y95.723 Z.859 E2.03292
G1 X107.767 Y96.587 Z.955 E2.04146
G1 X104.961 Y99.393 Z.203 E2.0777
G1 X104.961 Y93.336 Z.203 E2.13301
G1 X105.401 Y94.007 Z.321 E2.14034
G1 X105.736 Y94.264 Z.41 E2.1442
G1 X107.025 Y95.944 Z.756 E2.16354
G1 X107.248 Y96.484 Z.816 E2.16887
G1 X105.401 Y98.332 Z.321 E2.19273
G1 X105.401 Y94.227 Z.321 E2.23021
G1 X105.84 Y95.121 F7800
G1 Z.438
G1 F1200
G1 X106.559 Y96.059 Z.631 E2.241
G1 X106.73 Y96.381 Z.677 E2.24433
G1 X105.84 Y97.272 Z.438 E2.25583
G1 X105.84 Y95.341 Z.438 E2.27346
G1 E.27346 F2400
G92 E0
G1 X107.949 Y97.026 F7800
G1 Z1.003
G1 E2 F2400
G1 F1200
G1 X104.961 Y100.014 Z.203 E2.03859
G1 X104.826 Y100.168 Z.167 E2.04046
;WIDTH:0.447004
G1 X104.788 Y100.13 Z.156 E2.04095
G1 X104.735 Y100.144 Z.142 E2.04145
G1 X104.721 Y100.197 Z.138 E2.04195
G1 X104.76 Y100.235 Z.149 E2.04244
