; generated by PrusaSlicer 2.9.6-beta1 on 2026-06-18 at 01:51:36 UTC

; 

; external perimeters extrusion width = 0.45mm
; perimeters extrusion width = 0.45mm
; infill extrusion width = 0.45mm
; solid infill extrusion width = 0.45mm
; top infill extrusion width = 0.40mm
; first layer extrusion width = 0.70mm

M104 S200 ; set temperature
;TYPE:Custom
G28 ; home all axes
G1 Z5 F5000 ; lift nozzle
M109 S200 ; set temperature and wait for it to be reached
G21 ; set units to millimeters
G90 ; use absolute coordinates
M82 ; use absolute distances for extrusion
G92 E0
; Filament gcode
M107
;LAYER_CHANGE
;Z:0.1
;HEIGHT:0.1
G1 E-2 F2400
G92 E0
G1 Z.1 F7800
G92 E0
G1 X114.631 Y114.66
G1 E2 F2400
;TYPE:Perimeter
;WIDTH:0.257334
G1 F1800
G1 X114.631 Y85.34 Z0 E2.28753
G1 E.28753 F2400
G92 E0
G1 X114.838 Y114.848 F7800
G1 E2 F2400
;TYPE:External perimeter
;WIDTH:0.199999
G1 F1800
G1 X114.424 Y114.889 Z0 E2.00309
G1 X114.424 Y85.111 Z0 E2.22413
G1 X114.838 Y85.152 Z0 E2.22722
G1 X114.838 Y114.788 Z0 E2.4472
G1 X114.45 Y114.885 F7800
G1 E.4472 F2400
G92 E0
G1 X115 Y102.5 F7800
G1 E2 F2400
;TYPE:Perimeter
;WIDTH:0.285842
G1 F1800
G1 X115 Y67.5 Z0 E2.38471
G1 E.38471 F2400
G92 E0
G1 X114.779 Y102.721 F7800
G1 E2 F2400
;WIDTH:0.199999
G1 F1800
G1 X114.779 Y67.279 Z0 E2.26308
G1 X115.221 Y67.279 Z.059 E2.26636
G1 X115.221 Y102.721 Z.059 E2.52944
G1 X114.839 Y102.721 Z0 E2.53228
G1 X114.6 Y102.9 F7800
;TYPE:External perimeter
G1 F1800
G1 X114.6 Y67.1 Z0 E2.79802
G1 X115.4 Y67.1 Z.107 E2.80396
G1 X115.4 Y102.9 Z.107 E3.0697
G1 X114.66 Y102.9 Z0 E3.07519
G1 X114.601 Y102.504 F7800
;LAYER_CHANGE
;Z:0.11
;HEIGHT:0.01
G1 E1.07519 F2400
G92 E0
G1 Z.11 F7800
G1 X114.193 Y114.254
G1 E2 F2400
;TYPE:Perimeter
;WIDTH:0.39994
;HEIGHT:0.05
G1 F928
G1 X114.124 Y114.261 Z.076 E2.00056
;TYPE:Overhang perimeter
;WIDTH:0.4
;HEIGHT:0.4
G1 F3600
G1 X113.804 Y114.293 Z0 E2.01736
G1 X113.804 Y85.707 Z0 E3.51083
G1 X114.124 Y85.739 Z.076 E3.52763
;TYPE:Perimeter
;WIDTH:0.39994
;HEIGHT:0.05
G1 F928
G1 X114.193 Y85.746 Z.094 E3.52819
G1 X114.193 Y114.194 Z.094 E3.75836
G1 X114.607 Y114.629 F7800
G1 Z.205
;TYPE:External perimeter
;WIDTH:0.449999
G1 F928
G1 X114.124 Y114.677 Z.076 E3.76279
;TYPE:Overhang perimeter
;WIDTH:0.4
;HEIGHT:0.4
G1 F3600
G1 X113.39 Y114.751 Z0 E3.80133
G1 X113.39 Y85.249 Z0 E5.34266
G1 X114.124 Y85.323 Z.076 E5.3812
;TYPE:External perimeter
;WIDTH:0.449999
;HEIGHT:0.05
G1 F928
G1 X114.607 Y85.371 Z.205 E5.38563
G1 X114.607 Y114.569 Z.205 E5.65225
G1 X114.219 Y114.666 F7800
;LAYER_CHANGE
;Z:0.12
;HEIGHT:0.01
G1 Z.12 F7800
G1 X113.604 Y113.712
;TYPE:Perimeter
;WIDTH:0.487309
;HEIGHT:0.05
G1 F1787
G1 X113.128 Y113.759 Z.12 E5.65699
G1 X113.128 Y86.241 Z.12 E5.92961
G1 X113.604 Y86.288 Z.247 E5.93435
G1 X113.604 Y113.652 Z.247 E6.20544
G1 X114.062 Y114.126 F7800
G1 Z.37
;WIDTH:0.449999
G1 F1787
G1 X112.965 Y114.236 Z.076 E6.21551
;TYPE:Overhang perimeter
;WIDTH:0.4
;HEIGHT:0.4
G1 F3600
G1 X112.67 Y114.266 Z0 E6.231
G1 X112.67 Y85.734 Z0 E7.72165
G1 X112.965 Y85.764 Z.076 E7.73714
;TYPE:Perimeter
;WIDTH:0.449999
;HEIGHT:0.05
G1 F1787
G1 X114.062 Y85.874 Z.37 E7.74721
G1 X114.062 Y114.066 Z.37 E8.00464
G1 X114.502 Y114.523 F7800
G1 Z.488
;TYPE:External perimeter
G1 F1787
G1 X112.965 Y114.677 Z.076 E8.01875
;TYPE:Overhang perimeter
;WIDTH:0.4
;HEIGHT:0.4
G1 F3600
G1 X112.231 Y114.751 Z0 E8.05729
G1 X112.231 Y85.249 Z0 E9.59862
G1 X112.965 Y85.323 Z.076 E9.63716
;TYPE:External perimeter
;WIDTH:0.449999
;HEIGHT:0.05
G1 F1787
G1 X114.502 Y85.477 Z.488 E9.65127
G1 X114.502 Y114.463 Z.488 E9.91595
G1 X114.114 Y114.561 F7800
M106 S244.8
;LAYER_CHANGE
;Z:0.13
;HEIGHT:0.01
G1 Z.13 F7800
G1 X113.517 Y113.623
;TYPE:Perimeter
;HEIGHT:0.05
G1 F3600
G1 X111.95 Y113.78 Z.115 E9.93033
G1 X111.95 Y86.22 Z.115 E10.18199
G1 X113.517 Y86.377 Z.534 E10.19637
G1 X113.517 Y113.563 Z.534 E10.44461
G1 X113.956 Y114.02 F7800
G1 Z.652
G1 F3600
G1 X111.806 Y114.236 Z.076 E10.46434
;TYPE:Overhang perimeter
;WIDTH:0.4
;HEIGHT:0.4
M106 S255
G1 X111.511 Y114.266 Z0 E10.47983
G1 X111.511 Y85.734 Z0 E11.97048
G1 X111.806 Y85.764 Z.076 E11.98597
M106 S244.8
;TYPE:Perimeter
;WIDTH:0.449999
;HEIGHT:0.05
G1 X113.956 Y85.98 Z.652 E12.0057
G1 X113.956 Y113.96 Z.652 E12.26119
G1 X114.396 Y114.417 F7800
G1 Z.77
;TYPE:External perimeter
G1 F1800
G1 X111.806 Y114.677 Z.076 E12.28496
;TYPE:Overhang perimeter
;WIDTH:0.4
;HEIGHT:0.4
M106 S255
G1 F3600
G1 X111.072 Y114.751 Z0 E12.3235
G1 X111.072 Y85.249 Z0 E13.86483
G1 X111.806 Y85.323 Z.076 E13.90337
M106 S244.8
;TYPE:External perimeter
;WIDTH:0.449999
;HEIGHT:0.05
G1 F1800
G1 X114.396 Y85.583 Z.77 E13.92714
G1 X114.396 Y114.357 Z.77 E14.18989
G1 X114.008 Y114.455 F7800
G1 E12.18989 F2400
G92 E0
G1 Z.666 F7800
G1 X112.28 Y86.584
G1 Z.203
G1 E2 F2400
;TYPE:Solid infill
G1 F1200
G1 X113.188 Y86.675 Z.446 E2.00833
G1 X113.188 Y113.325 Z.446 E2.25168
G1 X112.28 Y113.416 Z.203 E2.26001
G1 X112.28 Y86.804 Z.203 E2.50301
G1 X112.734 Y87.086 Z.325 E2.50789
;WIDTH:0.479722
G1 X112.734 Y112.914 Z.325 E2.75969
M106 S234.6
;LAYER_CHANGE
;Z:0.14
;HEIGHT:0.01
G1 Z.14 F7800
G1 X113.411 Y113.517
;TYPE:Perimeter
;WIDTH:0.449999
;HEIGHT:0.05
G1 F3600
G1 X110.791 Y113.78 Z.115 E2.78373
G1 X110.791 Y86.22 Z.115 E3.03539
G1 X113.411 Y86.483 Z.817 E3.05943
G1 X113.411 Y113.457 Z.817 E3.30574
G1 X113.851 Y113.914 F7800
G1 Z.934
G1 F3600
G1 X110.647 Y114.236 Z.076 E3.33514
;TYPE:Overhang perimeter
;WIDTH:0.4
;HEIGHT:0.4
M106 S255
G1 X110.352 Y114.266 Z0 E3.35063
G1 X110.352 Y85.734 Z0 E4.84128
G1 X110.647 Y85.764 Z.076 E4.85677
M106 S234.6
;TYPE:Perimeter
;WIDTH:0.449999
;HEIGHT:0.05
G1 X113.851 Y86.086 Z.934 E4.88617
G1 X113.851 Y113.854 Z.934 E5.13973
G1 X114.29 Y114.311 F7800
G1 Z1.052
;TYPE:External perimeter
G1 F1800
G1 X110.647 Y114.677 Z.076 E5.17316
;TYPE:Overhang perimeter
;WIDTH:0.4
;HEIGHT:0.4
M106 S255
G1 F3600
G1 X109.912 Y114.751 Z0 E5.21175
G1 X109.912 Y85.249 Z0 E6.75308
G1 X110.647 Y85.323 Z.076 E6.79167
M106 S234.6
;TYPE:External perimeter
;WIDTH:0.449999
;HEIGHT:0.05
G1 F1800
G1 X114.29 Y85.689 Z1.052 E6.8251
G1 X114.29 Y114.251 Z1.052 E7.08591
G1 X113.902 Y114.349 F7800
G1 E5.08591 F2400
G92 E0
G1 Z.948 F7800
G1 X111.12 Y86.804
G1 Z.203
G1 E2 F2400
;TYPE:Solid infill
G1 F1200
G1 X111.12 Y113.416 Z.203 E2.243
G1 X113.082 Y113.219 Z.728 E2.26101
G1 X113.082 Y86.781 Z.728 E2.50242
G1 X111.12 Y86.584 Z.203 E2.52043
G1 X111.56 Y87.07 Z.321 E2.52642
G1 X112.643 Y87.179 Z.611 E2.53636
G1 X112.643 Y112.821 Z.611 E2.77051
G1 X111.56 Y112.93 Z.321 E2.78045
G1 X111.56 Y87.289 Z.321 E3.01459
G1 X112.101 Y87.668 Z.466 E3.02062
;WIDTH:0.654464
G1 X112.101 Y112.332 Z.466 E3.35067
;LAYER_CHANGE
;Z:0.15
;HEIGHT:0.01
G1 Z.15 F7800
G1 X113.306 Y113.411
;TYPE:Perimeter
;WIDTH:0.449999
;HEIGHT:0.05
G1 F3600
G1 X109.632 Y113.78 Z.115 E3.38439
G1 X109.632 Y86.22 Z.115 E3.63605
G1 X113.306 Y86.589 Z1.099 E3.66977
G1 X113.306 Y113.351 Z1.099 E3.91414
G1 X113.745 Y113.808 F7800
G1 Z1.217
G1 F3600
G1 X109.487 Y114.236 Z.076 E3.95322
;TYPE:Overhang perimeter
;WIDTH:0.4
;HEIGHT:0.4
M106 S255
G1 X109.193 Y114.266 Z0 E3.96866
G1 X109.193 Y85.734 Z0 E5.45931
G1 X109.487 Y85.764 Z.076 E5.47475
M106 S234.6
;TYPE:Perimeter
;WIDTH:0.449999
;HEIGHT:0.05
G1 X113.745 Y86.192 Z1.217 E5.51383
G1 X113.745 Y113.748 Z1.217 E5.76545
G1 X114.184 Y114.206 F7800
G1 Z1.334
;TYPE:External perimeter
G1 F1800
G1 X109.487 Y114.677 Z.076 E5.80856
;TYPE:Overhang perimeter
;WIDTH:0.4
;HEIGHT:0.4
M106 S255
G1 F3600
G1 X108.753 Y114.751 Z0 E5.8471
G1 X108.753 Y85.249 Z0 E7.38843
G1 X109.487 Y85.323 Z.076 E7.42697
M106 S234.6
;TYPE:External perimeter
;WIDTH:0.449999
;HEIGHT:0.05
G1 F1800
G1 X114.184 Y85.794 Z1.334 E7.47008
G1 X114.184 Y114.146 Z1.334 E7.72897
G1 X113.796 Y114.243 F7800
G1 E5.72897 F2400
G92 E0
G1 Z1.23 F7800
G1 X112.345 Y112.538
G1 Z.841
G1 E2 F2400
;TYPE:Internal infill
;WIDTH:0.45
G1 F4800
G1 X112.345 Y113.066 Z.842 E2.00482
G1 X112.429 Y113.195 Z.864 E2.00623
G1 X113.003 Y113.137 Z1.018 E2.0115
G1 X113.003 Y113.003 Z1.018 E2.01272
G1 X112.345 Y112.345 Z.842 E2.02122
G1 X112.345 Y111.663 Z.842 E2.02745
G1 X113.003 Y111.487 Z1.018 E2.03367
G1 X113.003 Y109.173 Z1.018 E2.0548
G1 X112.345 Y107.988 F7800
G1 Z.841
G1 F4800
G1 X112.345 Y105.675 Z.842 E2.07592
G1 X113.003 Y105.498 Z1.018 E2.08214
G1 X113.003 Y104.823 Z1.018 E2.0883
G1 X112.345 Y104.165 Z.842 E2.0968
G1 X112.345 Y101.851 Z.842 E2.11793
G1 X113.003 Y101.824 F7800
G1 Z1.018
G1 F4800
G1 X113.003 Y99.51 Z1.018 E2.13906
G1 X112.345 Y99.686 Z.842 E2.14528
G1 X112.345 Y98.626 Z.842 E2.15496
G1 X113.003 Y96.17 Z1.018 E2.17818
G1 X113.003 Y93.522 Z1.018 E2.20236
G1 X112.345 Y93.698 Z.842 E2.20858
G1 X112.345 Y95.984 Z.842 E2.22945
G1 X113.003 Y96.642 Z1.018 E2.23795
G1 E.23795 F2400
G92 E0
G1 X113.003 Y90.776 F7800
G1 E2 F2400
G1 F4800
G1 X113.003 Y88.462 Z1.018 E2.02113
G1 X112.345 Y87.804 Z.842 E2.02963
G1 X112.345 Y87.71 Z.842 E2.03049
G1 X113.003 Y87.533 Z1.018 E2.03671
G1 X113.003 Y86.863 Z1.018 E2.04283
G1 X112.429 Y86.805 Z.864 E2.0481
G1 X112.345 Y86.934 Z.842 E2.04951
G1 X112.345 Y87.517 Z.842 E2.05483
G1 E.05483 F2400
G92 E0
G1 X109.961 Y86.584 F7800
G1 Z.203
G1 E2 F2400
;TYPE:Solid infill
;WIDTH:0.449999
G1 F1200
G1 X111.964 Y86.785 Z.739 E2.01838
G1 X111.932 Y86.891 Z.731 E2.01939
G1 X111.932 Y113.109 Z.731 E2.2588
G1 X111.964 Y113.215 Z.739 E2.25981
G1 X109.961 Y113.416 Z.203 E2.27819
G1 X109.961 Y86.804 Z.203 E2.52119
G1 X110.401 Y87.07 Z.321 E2.52588
G1 X111.493 Y87.18 Z.613 E2.5359
G1 X111.493 Y112.82 Z.613 E2.77003
G1 X110.401 Y112.93 Z.321 E2.78005
G1 X110.401 Y87.289 Z.321 E3.01419
G1 X110.947 Y87.674 Z.467 E3.02029
;WIDTH:0.664122
G1 X110.947 Y112.326 Z.467 E3.35512
M106 S232.05
;LAYER_CHANGE
;Z:0.16
;HEIGHT:0.00999999
G1 E1.35512 F2400
G92 E0
G1 Z.16 F7800
G1 X113.2 Y113.305
G1 E2 F2400
;TYPE:Perimeter
;WIDTH:0.449999
;HEIGHT:0.05
G1 F3600
G1 X108.473 Y113.78 Z.115 E2.04338
G1 X108.473 Y86.22 Z.115 E2.29504
G1 X113.2 Y86.695 Z1.381 E2.33842
G1 X113.2 Y113.245 Z1.381 E2.58086
G1 X113.639 Y113.702 F7800
G1 Z1.499
G1 F3600
G1 X108.328 Y114.236 Z.076 E2.6296
;TYPE:Overhang perimeter
;WIDTH:0.4
;HEIGHT:0.4
M106 S255
G1 X108.033 Y114.266 Z0 E2.64509
G1 X108.033 Y85.734 Z0 E4.13574
G1 X108.328 Y85.764 Z.076 E4.15123
M106 S232.05
;TYPE:Perimeter
;WIDTH:0.449999
;HEIGHT:0.05
G1 X113.639 Y86.298 Z1.499 E4.19997
G1 X113.639 Y113.642 Z1.499 E4.44966
G1 X114.078 Y114.1 F7800
G1 Z1.617
;TYPE:External perimeter
G1 F1800
G1 X108.328 Y114.677 Z.076 E4.50243
;TYPE:Overhang perimeter
;WIDTH:0.4
;HEIGHT:0.4
M106 S255
G1 F3600
G1 X107.594 Y114.751 Z0 E4.54097
G1 X107.594 Y85.249 Z0 E6.0823
G1 X108.328 Y85.323 Z.076 E6.12084
M106 S232.05
;TYPE:External perimeter
;WIDTH:0.449999
;HEIGHT:0.05
G1 F1800
G1 X114.078 Y85.9 Z1.616 E6.17361
G1 X114.078 Y114.04 Z1.616 E6.43057
G1 X113.69 Y114.137 F7800
G1 E4.43057 F2400
G92 E0
G1 Z1.513 F7800
G1 X111.186 Y112.696
G1 Z.841
G1 E2 F2400
;TYPE:Internal infill
;WIDTH:0.45
G1 F4800
G1 X111.186 Y113.066 Z.842 E2.00338
G1 X111.27 Y113.195 Z.864 E2.00479
G1 X112.897 Y113.031 Z1.3 E2.01972
G1 X112.897 Y112.897 Z1.3 E2.02094
G1 X111.186 Y111.186 Z.842 E2.04304
G1 X111.186 Y111.974 Z.842 E2.05024
G1 X112.897 Y111.515 Z1.3 E2.06642
G1 X112.897 Y109.201 Z1.3 E2.08755
G1 X111.186 Y108.299 F7800
G1 Z.841
G1 F4800
G1 X111.186 Y105.985 Z.842 E2.10868
G1 X112.897 Y105.527 Z1.3 E2.12485
G1 X112.897 Y104.717 Z1.3 E2.13225
G1 X111.186 Y103.006 Z.842 E2.15435
G1 X112.897 Y96.565 Z1.3 E2.2152
G1 X111.186 Y94.825 Z.842 E2.23748
G1 X111.186 Y94.009 Z.842 E2.24493
G1 X112.897 Y93.55 Z1.3 E2.26111
G1 X112.897 Y91.236 Z1.3 E2.28224
G1 X111.186 Y90.334 F7800
G1 Z.841
G1 F4800
G1 X111.186 Y88.02 Z.842 E2.30337
G1 X112.897 Y87.562 Z1.3 E2.31954
G1 X112.897 Y88.356 Z1.3 E2.32679
G1 X111.354 Y86.814 Z.887 E2.34671
G1 X112.897 Y86.969 Z1.3 E2.36087
G1 X112.897 Y87.369 Z1.3 E2.36452
G1 E.36452 F2400
G92 E0
G1 X111.186 Y97.683 F7800
G1 Z.841
G1 E2 F2400
G1 F4800
G1 X111.186 Y99.997 Z.842 E2.02113
G1 X112.897 Y99.538 Z1.3 E2.03731
G1 X112.897 Y101.852 Z1.3 E2.05844
G1 E.05844 F2400
G92 E0
G1 X108.802 Y113.416 F7800
G1 Z.203
G1 E2 F2400
;TYPE:Solid infill
;WIDTH:0.449999
G1 F1200
G1 X108.802 Y86.584 Z.203 E2.24501
G1 X110.805 Y86.785 Z.739 E2.26339
G1 X110.773 Y86.891 Z.731 E2.2644
G1 X110.773 Y113.109 Z.731 E2.50381
G1 X110.805 Y113.215 Z.739 E2.50482
G1 X109.021 Y113.394 Z.261 E2.52119
G1 X109.241 Y112.93 Z.32 E2.52588
G1 X109.241 Y87.07 Z.32 E2.76202
G1 X110.334 Y87.18 Z.613 E2.77205
G1 X110.334 Y112.82 Z.613 E3.00618
G1 X109.46 Y112.908 Z.379 E3.0142
G1 X109.788 Y112.326 Z.467 E3.0203
;WIDTH:0.66412
G1 X109.788 Y87.674 Z.467 E3.35513
;LAYER_CHANGE
;Z:0.17
;HEIGHT:0.01
G1 E1.35513 F2400
G92 E0
G1 Z.17 F7800
G1 X113.094 Y113.199
G1 E2 F2400
;TYPE:Perimeter
;WIDTH:0.449999
;HEIGHT:0.05
G1 F3600
G1 X107.314 Y113.78 Z.115 E2.05305
G1 X107.314 Y86.22 Z.115 E2.30471
G1 X113.094 Y86.801 Z1.663 E2.35776
G1 X113.094 Y113.139 Z1.663 E2.59826
G1 X113.533 Y113.597 F7800
G1 Z1.781
G1 F3600
G1 X107.169 Y114.236 Z.076 E2.65666
;TYPE:Overhang perimeter
;WIDTH:0.4
;HEIGHT:0.4
M106 S255
G1 X106.874 Y114.266 Z0 E2.67215
G1 X106.874 Y85.734 Z0 E4.1628
G1 X107.169 Y85.764 Z.076 E4.17829
M106 S232.05
;TYPE:Perimeter
;WIDTH:0.449999
;HEIGHT:0.05
G1 X113.533 Y86.403 Z1.781 E4.23669
G1 X113.533 Y113.537 Z1.781 E4.48446
G1 X113.972 Y113.994 F7800
G1 Z1.899
;TYPE:External perimeter
G1 F1800
G1 X107.169 Y114.677 Z.076 E4.54689
;TYPE:Overhang perimeter
;WIDTH:0.4
;HEIGHT:0.4
M106 S255
G1 F3600
G1 X106.435 Y114.751 Z0 E4.58543
G1 X106.435 Y85.249 Z0 E6.12676
G1 X107.169 Y85.323 Z.076 E6.1653
M106 S232.05
;TYPE:External perimeter
;WIDTH:0.449999
;HEIGHT:0.05
G1 F1800
G1 X113.972 Y86.006 Z1.899 E6.22773
G1 X113.972 Y113.934 Z1.899 E6.48275
G1 X113.584 Y114.031 F7800
G1 E4.48275 F2400
G92 E0
G1 Z1.795 F7800
G1 X111.462 Y113.059
G1 Z1.226
G1 E2 F2400
;TYPE:Internal infill
;WIDTH:0.45
G1 F4800
G1 X110.111 Y113.195 Z.864 E2.0124
G1 X110.027 Y113.066 Z.842 E2.01381
G1 X110.027 Y112.284 Z.842 E2.02095
G1 X112.791 Y111.543 Z1.582 E2.04708
G1 X112.791 Y112.791 Z1.582 E2.05848
G1 X110.027 Y110.027 Z.842 E2.09417
G1 X110.027 Y107.277 Z.842 E2.11928
G1 X112.791 Y96.96 Z1.582 E2.21681
G1 X112.791 Y96.431 Z1.582 E2.22164
G1 X110.027 Y93.666 Z.842 E2.25734
G1 X110.027 Y94.319 Z.842 E2.2633
G1 X112.791 Y93.578 Z1.582 E2.28943
G1 X112.791 Y91.265 Z1.582 E2.31055
G1 E.31055 F2400
G92 E0
G1 X110.027 Y90.645 F7800
G1 Z.841
G1 E2 F2400
G1 F4800
G1 X110.027 Y88.331 Z.842 E2.02113
G1 X112.791 Y87.59 Z1.582 E2.04726
G1 X112.791 Y88.251 Z1.582 E2.0533
G1 X111.484 Y86.943 Z1.232 E2.07018
G1 X110.111 Y86.805 Z.864 E2.08278
G1 X110.027 Y86.934 Z.842 E2.08419
G1 X110.027 Y87.693 Z.842 E2.09112
G1 E.09112 F2400
G92 E0
G1 X107.643 Y86.584 F7800
G1 Z.203
G1 E2 F2400
;TYPE:Solid infill
;WIDTH:0.449999
G1 F1200
G1 X109.646 Y86.785 Z.739 E2.01838
G1 X109.614 Y86.891 Z.731 E2.01939
G1 X109.614 Y113.109 Z.731 E2.2588
G1 X109.646 Y113.215 Z.739 E2.25981
G1 X107.643 Y113.416 Z.203 E2.27819
G1 X107.643 Y86.804 Z.203 E2.52119
G1 X108.082 Y87.07 Z.32 E2.52588
G1 X109.175 Y87.18 Z.613 E2.53591
G1 X109.175 Y112.82 Z.613 E2.77004
G1 X108.082 Y112.93 Z.32 E2.78007
G1 X108.082 Y87.289 Z.32 E3.01421
G1 X108.629 Y87.674 Z.467 E3.02032
;WIDTH:0.664122
G1 X108.629 Y112.326 Z.467 E3.35515
G1 E1.35515 F2400
G92 E0
G1 X110.027 Y106.296 F7800
G1 Z.841
G1 E2 F2400
;TYPE:Internal infill
;WIDTH:0.45
G1 F4800
G1 X112.791 Y105.555 Z1.582 E2.02613
G1 X112.791 Y104.611 Z1.582 E2.03475
G1 X110.027 Y101.846 Z.842 E2.07045
G1 X110.027 Y100.308 Z.842 E2.08449
G1 X112.791 Y99.567 Z1.582 E2.11062
G1 X112.791 Y101.88 Z1.582 E2.13174
M106 S229.5
;LAYER_CHANGE
;Z:0.18
;HEIGHT:0.01
G1 E.13174 F2400
G92 E0
G1 Z.18 F7800
G1 X112.988 Y113.093
G1 E2 F2400
;TYPE:Perimeter
;WIDTH:0.449999
;HEIGHT:0.05
G1 F3600
G1 X106.155 Y113.78 Z.115 E2.06271
G1 X106.155 Y86.22 Z.115 E2.31437
G1 X112.988 Y86.907 Z1.946 E2.37708
G1 X112.988 Y113.033 Z1.946 E2.61565
G1 X113.427 Y113.491 F7800
G1 Z2.063
G1 F3600
G1 X106.01 Y114.236 Z.076 E2.68372
;TYPE:Overhang perimeter
;WIDTH:0.4
;HEIGHT:0.4
M106 S255
G1 X105.715 Y114.266 Z0 E2.69921
G1 X105.715 Y85.734 Z0 E4.18986
G1 X106.01 Y85.764 Z.076 E4.20535
M106 S229.5
