; generated by PrusaSlicer 2.9.6-beta1 on 2026-06-18 at 01:51:36 UTC

; 

; external perimeters extrusion width = 0.45mm
; perimeters extrusion width = 0.45mm
; infill extrusion width = 0.45mm
; solid infill extrusion width = 0.45mm
; top infill extrusion width = 0.40mm
; first layer extrusion width = 0.70mm

M104 S200 ; set temperature
;TYPE:Custom
G28 ; home all axes
G1 Z5 F5000 ; lift nozzle
M109 S200 ; set temperature and wait for it to be reached
G21 ; set units to millimeters
G90 ; use absolute coordinates
M82 ; use absolute distances for extrusion
G92 E0
; Filament gcode
M107
;LAYER_CHANGE
;Z:0.1
;HEIGHT:0.1
G1 E-2 F2400
G92 E0
G1 Z.1 F7800
G92 E0
G1 X115 Y102.5
G1 E2 F2400
;TYPE:Perimeter
;WIDTH:0.285842
G1 F1800
G1 X115 Y67.5 Z0 E2.38471
G1 E.38471 F2400
G92 E0
G1 X114.779 Y102.721 F7800
G1 E2 F2400
;WIDTH:0.199999
G1 F1800
G1 X114.779 Y67.279 Z0 E2.26308
G1 X115.221 Y67.279 Z.059 E2.26636
G1 X115.221 Y102.721 Z.059 E2.52944
G1 X114.839 Y102.721 Z0 E2.53228
G1 X114.6 Y102.9 F7800
;TYPE:External perimeter
G1 F1800
G1 X114.6 Y67.1 Z0 E2.79802
G1 X115.4 Y67.1 Z.107 E2.80396
G1 X115.4 Y102.9 Z.107 E3.0697
G1 X114.66 Y102.9 Z0 E3.07519
G1 X114.601 Y102.504 F7800
M106 S255
;LAYER_CHANGE
;Z:0.21
;HEIGHT:0.11
G1 E1.07519 F2400
G92 E0
G1 Z.21 F7800
G1 X103.248 Y99.734
G1 E2 F2400
;TYPE:Overhang perimeter
;WIDTH:0.4
;HEIGHT:0.4
G1 F900
G1 X103.248 Y99.625 Z.267 E2.00569
G1 X103.887 Y99.796 Z.439 E2.04025
G1 X104.059 Y100 Z.485 E2.05419
G1 X103.887 Y100.204 Z.439 E2.06813
G1 X103.248 Y100.375 Z.267 E2.10269
G1 X103.248 Y99.794 Z.267 E2.13304
G1 X102.835 Y99.013 F7800
G1 Z.157
G1 F900
G1 X102.837 Y99.005 Z.157 E2.13347
G1 X102.914 Y99.005 Z.178 E2.13749
G1 X104.175 Y99.343 Z.516 E2.2057
G1 X104.729 Y100 Z.664 E2.2506
G1 X104.175 Y100.657 Z.516 E2.2955
G1 X102.837 Y100.995 Z.157 E2.3676
G1 X102.746 Y100.503 Z.133 E2.39374
G1 X102.716 Y100.046 Z.125 E2.41767
G1 X102.741 Y99.526 Z.132 E2.44487
G1 X102.824 Y99.072 Z.154 E2.46898
G1 X103.224 Y99.087 F7800
;LAYER_CHANGE
;Z:0.22
;HEIGHT:0.01
G1 E.46898 F2400
G92 E0
G1 Z.22 F7800
G1 X104.5 Y102.091
G1 E2 F2400
;HEIGHT:0.4
G1 F900
G1 X104.431 Y102.148 Z.895 E2.00468
G1 X103.291 Y101.957 Z.59 E2.06507
G1 X102.348 Y101.658 Z.337 E2.11675
G1 X101.908 Y100.506 Z.219 E2.18118
G1 X101.766 Y100 Z.181 E2.20864
G1 X101.908 Y99.494 Z.219 E2.2361
G1 X102.348 Y98.342 Z.337 E2.30053
G1 X103.291 Y98.043 Z.59 E2.35221
G1 X104.419 Y97.854 Z.892 E2.41196
G1 X105.012 Y98.326 Z1.051 E2.45156
G1 X105.51 Y99.113 Z1.184 E2.50022
G1 X105.685 Y100 Z1.231 E2.54745
G1 X105.51 Y100.887 Z1.184 E2.59468
G1 X105.009 Y101.678 Z1.05 E2.6436
G1 X104.547 Y102.053 Z.926 E2.67469
G1 X104.579 Y102.594 F7800
G1 Z.935
G1 F900
G1 X104.554 Y102.614 Z.928 E2.67636
G1 X103.188 Y102.385 Z.562 E2.74872
G1 X102.013 Y102.013 Z.247 E2.81311
G1 X101.492 Y100.648 Z.108 E2.88944
G1 X101.341 Y100.15 Z.067 E2.91663
G1 X101.341 Y99.85 Z.067 E2.9323
G1 X101.492 Y99.352 Z.108 E2.95949
G1 X102.013 Y97.987 Z.247 E3.03582
G1 X103.188 Y97.615 Z.562 E3.10021
G1 X104.54 Y97.389 Z.924 E3.17183
G1 X105.343 Y98.029 Z1.139 E3.22548
G1 X105.925 Y98.947 Z1.295 E3.28227
G1 X106.133 Y100 Z1.351 E3.33835
G1 X105.925 Y101.053 Z1.295 E3.39443
G1 X105.342 Y101.974 Z1.139 E3.45138
G1 X104.625 Y102.556 Z.947 E3.49963
G1 X104.647 Y103.075 F7800
G1 Z.953
G1 F900
G1 X103.747 Y102.924 Z.712 E3.54731
G1 X102.906 Y102.757 Z.486 E3.59211
G1 X101.678 Y102.368 Z.157 E3.65941
G1 X101.067 Y100.766 Z0 E3.74899
G1 X100.898 Y100.135 Z0 E3.78312
G1 X100.91 Y99.761 Z0 E3.80267
G1 X101.076 Y99.209 Z0 E3.83279
G1 X101.668 Y97.66 Z.155 E3.91943
G1 X101.838 Y97.581 Z.2 E3.92922
G1 X103.085 Y97.187 Z.534 E3.99754
G1 X104.683 Y96.941 Z.963 E4.08201
G1 X105.675 Y97.731 Z1.228 E4.14826
G1 X106.34 Y98.781 Z1.407 E4.21319
G1 X106.581 Y100 Z1.471 E4.27811
G1 X106.34 Y101.219 Z1.407 E4.34303
G1 X105.674 Y102.269 Z1.228 E4.40799
G1 X104.695 Y103.037 Z.966 E4.473
G1 X104.296 Y103.011 F7800
G1 E2.473 F2400
G92 E0
G1 Z.859 F7800
G1 X102.581 Y98.407
G1 Z.399
G1 E2 F2400
;TYPE:Bridge infill
;WIDTH:0.403532
G1 F3600
G1 X102.108 Y100.003 Z.273 E2.08851
G1 X102.225 Y100.398 Z.304 E2.11041
G1 X102.36 Y100.751 Z.34 E2.13051
G1 X103.033 Y98.476 Z.52 E2.25666
G1 X103.37 Y98.369 Z.611 E2.27546
G1 X103.547 Y98.34 Z.658 E2.285
G1 X102.641 Y101.4 Z.415 E2.45469
G1 X103.074 Y101.537 Z.531 E2.47884
G1 X104.044 Y98.257 Z.791 E2.66071
G1 X104.327 Y98.209 Z.867 E2.67597
G1 X104.492 Y98.34 Z.911 E2.68717
G1 X103.512 Y101.654 Z.649 E2.87092
G1 X103.963 Y101.73 Z.77 E2.89524
G1 X104.857 Y98.707 Z1.009 E3.06286
G1 X105.179 Y99.216 Z1.095 E3.09489
G1 X104.355 Y102.001 Z.875 E3.24932
M106 S247.35
;LAYER_CHANGE
;Z:0.23
;HEIGHT:0.01
G1 E1.24932 F2400
G92 E0
G1 Z.23 F7800
G1 X101.253 Y102.214
G1 E2 F2400
;TYPE:Perimeter
;WIDTH:0.449999
;HEIGHT:0.05
G1 F900
G1 X101.038 Y101.65 Z.296 E2.00551
G1 X100.658 Y100.511 Z.195 E2.01647
G1 X100.568 Y99.971 Z.171 E2.02147
G1 X100.688 Y99.372 Z.203 E2.02705
G1 X101.038 Y98.35 Z.296 E2.03691
G1 X101.253 Y97.786 Z.354 E2.04242
G1 X102.045 Y97.298 Z.566 E2.05091
G1 X103.172 Y96.777 Z.868 E2.06225
G1 X103.368 Y96.709 Z.921 E2.06414
;TYPE:Overhang perimeter
;WIDTH:0.4
;HEIGHT:0.4
M106 S255
G1 X103.592 Y96.63 Z.981 E2.07655
G1 X103.713 Y96.651 Z1.013 E2.08297
M106 S247.35
;TYPE:Perimeter
;WIDTH:0.449999
;HEIGHT:0.05
G1 X104.038 Y96.708 Z1.1 E2.08598
G1 X105.093 Y97.164 Z1.383 E2.09647
G1 X106.009 Y97.908 Z1.628 E2.10725
G1 X106.631 Y98.89 Z1.795 E2.11786
G1 X106.851 Y100 Z1.854 E2.12819
G1 X106.631 Y101.11 Z1.795 E2.13852
G1 X106.009 Y102.092 Z1.628 E2.14913
G1 X105.093 Y102.836 Z1.383 E2.15991
G1 X104.038 Y103.292 Z1.1 E2.1704
G1 X103.713 Y103.349 Z1.013 E2.17341
;TYPE:Overhang perimeter
;WIDTH:0.4
;HEIGHT:0.4
M106 S255
G1 X103.592 Y103.37 Z.981 E2.17983
G1 X103.315 Y103.283 Z.907 E2.195
M106 S247.35
;TYPE:Perimeter
;WIDTH:0.449999
;HEIGHT:0.05
G1 X102.045 Y102.702 Z.566 E2.20775
G1 X101.304 Y102.246 Z.368 E2.21569
G1 X100.886 Y102.485 F7800
G1 Z.256
;TYPE:Overhang perimeter
;WIDTH:0.4
;HEIGHT:0.4
M106 S255
G1 F900
G1 X100.625 Y101.8 Z.186 E2.25399
G1 X100.324 Y100.922 Z.105 E2.30248
G1 X100.173 Y100.373 Z.065 E2.33223
G1 X100.126 Y99.939 Z.052 E2.35504
G1 X100.263 Y99.257 Z.089 E2.39138
G1 X100.625 Y98.2 Z.186 E2.44975
G1 X100.886 Y97.515 Z.256 E2.48805
G1 X101.001 Y97.425 Z.287 E2.49568
G1 X101.837 Y96.91 Z.511 E2.54698
G1 X103.026 Y96.361 Z.829 E2.6154
G1 X103.562 Y96.178 Z.973 E2.64499
G1 X104.165 Y96.284 Z1.134 E2.67698
G1 X104.651 Y96.494 Z1.265 E2.70464
M106 S247.35
;TYPE:Perimeter
;WIDTH:0.449999
;HEIGHT:0.05
G1 X105.026 Y96.656 Z1.365 E2.70837
;TYPE:Overhang perimeter
;WIDTH:0.4
;HEIGHT:0.4
M106 S255
G1 X105.323 Y96.784 Z1.445 E2.72527
G1 X106.342 Y97.612 Z1.718 E2.79387
G1 X107.046 Y98.724 Z1.906 E2.86263
G1 X107.298 Y100 Z1.974 E2.93058
G1 X107.046 Y101.276 Z1.906 E2.99853
G1 X106.342 Y102.388 Z1.718 E3.06729
G1 X105.323 Y103.216 Z1.445 E3.13589
G1 X105.026 Y103.344 Z1.365 E3.15279
M106 S247.35
;TYPE:Perimeter
;WIDTH:0.449999
;HEIGHT:0.05
G1 X104.651 Y103.506 Z1.265 E3.15652
;TYPE:Overhang perimeter
;WIDTH:0.4
;HEIGHT:0.4
M106 S255
G1 X104.165 Y103.716 Z1.134 E3.18418
G1 X103.562 Y103.822 Z.973 E3.21617
G1 X103.114 Y103.68 Z.853 E3.24072
G1 X101.985 Y103.158 Z.55 E3.3057
G1 X101.513 Y102.89 Z.424 E3.33406
G1 X100.936 Y102.517 Z.269 E3.36996
M106 S247.35
G1 X100.519 Y102.755 F7800
G1 Z.157
M106 S255
G1 F900
G1 X100.212 Y101.949 Z.075 E3.41502
G1 X99.883 Y100.99 Z0 E3.46799
G1 X99.746 Y100.475 Z0 E3.49583
G1 X99.685 Y99.908 Z0 E3.52562
G1 X99.838 Y99.142 Z0 E3.56643
G1 X100.212 Y98.051 Z.075 E3.62669
G1 X100.519 Y97.245 Z.157 E3.67175
G1 X100.75 Y97.064 Z.219 E3.68708
G1 X101.629 Y96.523 Z.455 E3.741
G1 X102.955 Y95.91 Z.81 E3.81732
G1 X103.532 Y95.727 Z.965 E3.84895
G1 X104.292 Y95.86 Z1.168 E3.88926
G1 X105.553 Y96.405 Z1.506 E3.96103
G1 X106.674 Y97.316 Z1.807 E4.0365
G1 X107.461 Y98.558 Z2.018 E4.11332
G1 X107.746 Y100 Z2.094 E4.19011
G1 X107.461 Y101.442 Z2.018 E4.2669
G1 X106.674 Y102.684 Z1.807 E4.34372
G1 X105.553 Y103.595 Z1.506 E4.41919
G1 X104.292 Y104.14 Z1.168 E4.49096
G1 X103.532 Y104.273 Z.965 E4.53127
G1 X102.955 Y104.09 Z.81 E4.5629
G1 X101.801 Y103.557 Z.501 E4.62931
G1 X101.282 Y103.264 Z.362 E4.66045
G1 X100.569 Y102.789 Z.171 E4.70521
M106 S247.35
G1 X100.398 Y102.427 F7800
G1 E2.70521 F2400
G92 E0
G1 Z.125 F7800
G1 X102.943 Y97.029
G1 Z.807
G1 E2 F2400
;TYPE:Bridge infill
;WIDTH:0.413817
M106 S255
G1 F3600
G1 X103.616 Y96.974 Z.987 E2.03776
G1 X103.942 Y97.031 Z1.075 E2.05627
G1 X104.684 Y97.352 Z1.273 E2.10148
G1 X102.306 Y97.547 Z.636 E2.2349
G1 X101.527 Y98.01 Z.427 E2.28557
G1 X101.503 Y98.078 Z.421 E2.2896
G1 X105.304 Y97.766 Z1.44 E2.50285
G1 X105.491 Y97.918 Z1.49 E2.51632
G1 X105.22 Y98.238 Z1.417 E2.53977
G1 X101.332 Y98.557 Z.375 E2.7579
G1 X101.162 Y99.036 Z.33 E2.78632
G1 X103.833 Y98.817 Z1.045 E2.93617
G1 X103.373 Y98.894 Z.922 E2.96225
G1 X103.014 Y98.919 Z.826 E2.98237
G1 X102.878 Y99.089 Z.789 E2.99454
G1 X102.582 Y99.385 Z.71 E3.01795
G1 X101.001 Y99.515 Z.287 E3.10665
G1 X100.906 Y99.988 Z.261 E3.13363
G1 X101.445 Y99.944 Z.406 E3.16387
G1 X101.319 Y100 Z.372 E3.17158
G1 X102.115 Y100.354 Z.585 E3.22029
G1 X100.987 Y100.447 Z.283 E3.28358
G1 X101.14 Y100.9 Z.324 E3.31032
G1 X102.742 Y100.768 Z.753 E3.4002
G1 X103.023 Y101.092 Z.828 E3.42418
G1 X103.278 Y101.1 Z.897 E3.43845
G1 X103.68 Y101.157 Z1.004 E3.46115
G1 X101.3 Y101.352 Z.367 E3.59468
G1 X101.461 Y101.804 Z.41 E3.62151
G1 X104.919 Y101.521 Z1.336 E3.81552
G1 X105.166 Y101.707 Z1.403 E3.83281
G1 X105.38 Y101.948 Z1.46 E3.85083
G1 X101.92 Y102.232 Z.533 E4.04495
G1 X102.204 Y102.406 Z.609 E4.06357
G1 X102.696 Y102.634 Z.741 E4.09389
G1 X105.049 Y102.441 Z1.371 E4.2259
G1 X104.918 Y102.547 Z1.336 E4.23532
G1 X103.942 Y102.969 Z1.075 E4.29478
G1 X103.645 Y103.021 Z.995 E4.31164
G1 X103.141 Y103.063 Z.86 E4.33992
M106 S247.35
G1 E2.33992 F2400
G92 E0
G1 X105.818 Y98.222 F7800
G1 Z1.577
G1 E2 F2400
;TYPE:Solid infill
;WIDTH:0.449999
;HEIGHT:0.05
G1 F1200
G1 X106.32 Y99.014 Z1.712 E2.00856
G1 X106.515 Y100 Z1.764 E2.01774
G1 X106.32 Y100.986 Z1.712 E2.02692
G1 X105.818 Y101.778 Z1.577 E2.03548
G1 X105.486 Y101.399 Z1.488 E2.04008
G1 X105.151 Y101.142 Z1.399 E2.04394
G1 X104.564 Y100.867 Z1.241 E2.04986
G1 X103.763 Y100.723 Z1.027 E2.05729
G1 X103.236 Y100.657 Z.885 E2.06214
G1 X102.915 Y100.316 Z.799 E2.06642
G1 X102.411 Y99.999 Z.664 E2.07186
G1 X102.906 Y99.683 Z.797 E2.07722
G1 X103.238 Y99.343 Z.886 E2.08156
G1 X103.813 Y99.272 Z1.04 E2.08685
G1 X104.454 Y99.163 Z1.212 E2.09279
G1 X104.922 Y98.989 Z1.337 E2.09735
G1 X105.457 Y98.627 Z1.481 E2.10325
G1 X105.672 Y98.386 Z1.538 E2.1062
G1 X105.756 Y98.945 Z1.561 E2.11136
G1 X105.905 Y99.18 Z1.601 E2.1139
G1 X106.067 Y100 Z1.644 E2.12153
G1 X105.913 Y100.781 Z1.603 E2.1288
G1 X105.757 Y101.054 Z1.561 E2.13167
G1 X105.342 Y100.746 Z1.45 E2.13639
G1 X104.812 Y100.49 Z1.308 E2.14176
G1 X104.524 Y100.414 Z1.231 E2.14448
G1 X103.44 Y100.23 Z.94 E2.15452
G1 X103.219 Y99.998 Z.881 E2.15745
G1 X103.453 Y99.759 Z.944 E2.1605
G1 X103.886 Y99.705 Z1.06 E2.16448
G1 X104.645 Y99.565 Z1.263 E2.17153
G1 X105.163 Y99.355 Z1.402 E2.17663
G1 X105.575 Y99.07 Z1.512 E2.1812
G1 X105.54 Y99.644 Z1.503 E2.18645
;WIDTH:0.467594
G1 X105.602 Y99.957 Z1.519 E2.18948
G1 X105.539 Y100.338 Z1.503 E2.19315
G1 X104.752 Y100.001 Z1.292 E2.20128
G1 X105.184 Y99.844 Z1.407 E2.20565
G1 X105.348 Y99.751 Z1.451 E2.20744
M106 S229.5
;LAYER_CHANGE
;Z:0.510095
;HEIGHT:0.280095
G1 E.20744 F2400
G92 E0
G1 Z.51 F7800
G1 X102.594 Y104.218
G1 E2 F2400
;TYPE:Perimeter
;WIDTH:0.45
G1 F900
G1 X102.59 Y104.218 Z1.023 E2.00018
G1 X101.617 Y103.619 Z.762 E2.05206
G1 X101.171 Y103.3 Z.643 E2.07696
G1 X100.562 Y102.801 Z.48 E2.11271
G1 X100.078 Y102.313 Z.35 E2.14392
G1 X99.832 Y101.479 Z.284 E2.1834
G1 X99.64 Y100.457 Z.232 E2.23061
G1 X99.629 Y100.032 Z.23 E2.24991
G1 X99.674 Y99.274 Z.242 E2.28439
G1 X99.829 Y98.531 Z.283 E2.31885
G1 X100.059 Y97.754 Z.345 E2.35564
G1 X100.134 Y97.619 Z.365 E2.36265
G1 X100.664 Y97.098 Z.507 E2.39639
G1 X101.437 Y96.491 Z.714 E2.44101
G1 X102.593 Y95.781 Z1.024 E2.5026
G1 X103.438 Y95.754 Z1.25 E2.54098
G1 X104.703 Y95.976 Z1.589 E2.59929
G1 X105.973 Y96.525 Z1.929 E2.66211
G1 X106.916 Y97.325 Z2.182 E2.71826
G1 X107.503 Y98.602 Z2.339 E2.78207
G1 X107.707 Y100 Z2.394 E2.84622
G1 X107.503 Y101.398 Z2.339 E2.91037
G1 X106.952 Y102.598 Z2.192 E2.97032
G1 X106.824 Y102.784 Z2.157 E2.98057
G1 X105.973 Y103.475 Z1.929 E3.03034
G1 X104.703 Y104.024 Z1.589 E3.09316
G1 X103.67 Y104.205 Z1.312 E3.14078
G1 X103.203 Y104.238 Z1.187 E3.16204
G1 X102.654 Y104.22 Z1.04 E3.18698
G1 X102.506 Y104.589 F7800
G1 Z1
;TYPE:Overhang perimeter
;WIDTH:0.4
;HEIGHT:0.4
M106 S255
G1 F900
G1 X102.406 Y104.562 Z.974 E3.19239
G1 X101.413 Y103.951 Z.708 E3.2533
G1 X100.931 Y103.607 Z.578 E3.28424
G1 X100.639 Y103.367 Z.5 E3.30399
M106 S229.5
;TYPE:Perimeter
;WIDTH:0.45
;HEIGHT:0.280095
G1 X100.289 Y103.08 Z.406 E3.32454
G1 X100.122 Y102.908 Z.362 E3.33542
;TYPE:Overhang perimeter
;WIDTH:0.4
;HEIGHT:0.4
M106 S255
G1 X99.727 Y102.499 Z.256 E3.36513
G1 X99.453 Y101.57 Z.182 E3.41573
G1 X99.251 Y100.498 Z.128 E3.47272
G1 X99.231 Y99.749 Z.123 E3.51187
G1 X99.288 Y99.213 Z.138 E3.54003
G1 X99.451 Y98.436 Z.182 E3.58151
G1 X99.727 Y97.501 Z.256 E3.63244
G1 X99.846 Y97.355 Z.288 E3.64228
G1 X100.127 Y97.079 Z.363 E3.66286
M106 S229.5
;TYPE:Perimeter
;WIDTH:0.45
;HEIGHT:0.280095
G1 X100.406 Y96.805 Z.438 E3.68061
G1 X100.577 Y96.671 Z.484 E3.69047
;TYPE:Overhang perimeter
;WIDTH:0.4
;HEIGHT:0.4
M106 S255
G1 X101.214 Y96.171 Z.654 E3.73278
G1 X102.502 Y95.393 Z.999 E3.81139
G1 X103.252 Y95.37 Z1.2 E3.85059
M106 S229.5
;TYPE:Perimeter
;WIDTH:0.45
;HEIGHT:0.280095
G1 X103.466 Y95.363 Z1.258 E3.86031
G1 X104.723 Y95.584 Z1.594 E3.91826
;TYPE:Overhang perimeter
;WIDTH:0.4
;HEIGHT:0.4
M106 S255
G1 X104.816 Y95.6 Z1.619 E3.92319
G1 X106.177 Y96.188 Z1.984 E4.00065
G1 X107.025 Y96.877 Z2.211 E4.05773
G1 X107.248 Y97.114 Z2.271 E4.07473
G1 X107.773 Y98.256 Z2.412 E4.1404
M106 S229.5
;TYPE:Perimeter
;WIDTH:0.45
;HEIGHT:0.280095
G1 X107.881 Y98.49 Z2.441 E4.1521
G1 X108.101 Y100 Z2.5 E4.22138
G1 X107.881 Y101.51 Z2.441 E4.29066
G1 X107.773 Y101.744 Z2.412 E4.30236
;TYPE:Overhang perimeter
;WIDTH:0.4
;HEIGHT:0.4
M106 S255
G1 X107.306 Y102.761 Z2.287 E4.36083
G1 X107.098 Y103.063 Z2.231 E4.37999
G1 X106.177 Y103.812 Z1.984 E4.44201
G1 X104.816 Y104.4 Z1.619 E4.51947
G1 X104.723 Y104.416 Z1.594 E4.5244
M106 S229.5
;TYPE:Perimeter
;WIDTH:0.45
;HEIGHT:0.280095
G1 X103.466 Y104.637 Z1.258 E4.58235
G1 X103.252 Y104.63 Z1.2 E4.59207
;TYPE:Overhang perimeter
;WIDTH:0.4
;HEIGHT:0.4
M106 S255
G1 X102.584 Y104.609 Z1.021 E4.62699
G1 X102.564 Y104.604 Z1.016 E4.62807
M106 S229.5
G1 X102.41 Y104.994 F7800
G1 Z.975
M106 S255
G1 F900
G1 X102.221 Y104.906 Z.924 E4.63896
G1 X101.209 Y104.283 Z.653 E4.70105
G1 X100.69 Y103.913 Z.514 E4.73435
G1 X100.016 Y103.358 Z.333 E4.77996
G1 X99.375 Y102.685 Z.161 E4.82852
G1 X99.073 Y101.661 Z.081 E4.8843
G1 X98.862 Y100.54 Z.024 E4.94389
G1 X98.841 Y99.734 Z.018 E4.98601
G1 X98.902 Y99.153 Z.035 E5.01653
G1 X99.073 Y98.341 Z.081 E5.05988
G1 X99.375 Y97.315 Z.161 E5.11576
G1 X99.558 Y97.092 Z.21 E5.13083
G1 X100.149 Y96.512 Z.369 E5.17409
G1 X100.991 Y95.85 Z.594 E5.23005
G1 X102.41 Y95.006 Z.975 E5.31631
G1 X103.494 Y94.972 Z1.265 E5.37297
G1 X104.928 Y95.224 Z1.649 E5.44904
G1 X106.381 Y95.852 Z2.039 E5.53174
G1 X107.271 Y96.575 Z2.277 E5.59165
G1 X107.58 Y96.903 Z2.36 E5.61519
G1 X108.258 Y98.379 Z2.542 E5.70005
G1 X108.495 Y100 Z2.605 E5.78564
G1 X108.258 Y101.621 Z2.542 E5.87123
G1 X107.58 Y103.097 Z2.36 E5.95609
G1 X107.373 Y103.343 Z2.305 E5.97289
G1 X106.381 Y104.148 Z2.039 E6.03963
G1 X104.928 Y104.776 Z1.649 E6.12233
G1 X103.494 Y105.028 Z1.265 E6.1984
G1 X102.47 Y104.996 Z.991 E6.25192
M106 S229.5
G1 X102.107 Y104.829 F7800
G1 E4.25192 F2400
G92 E0
G1 Z.893 F7800
G1 X100.256 Y102.222
G1 Z.397
G1 E2 F2400
;TYPE:Solid infill
;WIDTH:0.400109
;HEIGHT:0.280095
G1 F1200
G1 X100.792 Y102.756 Z.541 E2.02996
G1 X101.361 Y103.26 Z.694 E2.06006
G1 X102.199 Y103.633 F7800
G1 Z.918
G1 F1200
G1 X102.21 Y103.674 Z.921 E2.06174
